; G-code generated from SVG
G21 ; Set units to mm
G90 ; Absolute positioning
G0 X9.382 Y13.516
M03 S255
G1 X5.952 Y13.516 F100.0 
M05
G0 X5.952 Y13.516
M03 S255
G1 X2.522 Y13.517 F100.0 
M05
G0 X2.522 Y13.517
M03 S255
G1 X1.462 Y10.255 F100.0 
M05
G0 X1.462 Y10.255
M03 S255
G1 X0.402 Y6.993 F100.0 
M05
G0 X0.402 Y6.993
M03 S255
G1 X3.177 Y4.977 F100.0 
M05
G0 X3.177 Y4.977
M03 S255
G1 X5.951 Y2.961 F100.0 
M05
G0 X5.951 Y2.961
M03 S255
G1 X8.726 Y4.976 F100.0 
M05
G0 X8.726 Y4.976
M03 S255
G1 X11.501 Y6.992 F100.0 
M05
G0 X11.501 Y6.992
M03 S255
G1 X10.442 Y10.254 F100.0 
M05
G0 X10.442 Y10.254
M03 S255
G1 X9.382 Y13.516 F100.0 
M05
G0 X0 Y0 ; Move to origin
M30 ; End of program
