; G-code generated from SVG
G21 ; Set units to mm
G90 ; Absolute positioning
G0 X7.543 Y9.310
M03 S255
G1 X1.925 Y9.214 F100.0 
M05
G0 X1.925 Y9.214
M03 S255
G1 X0.280 Y3.841 F100.0 
M05
G0 X0.280 Y3.841
M03 S255
G1 X4.882 Y0.616 F100.0 
M05
G0 X4.882 Y0.616
M03 S255
G1 X9.371 Y3.996 F100.0 
M05
G0 X9.371 Y3.996
M03 S255
G1 X7.543 Y9.310 F100.0 
M05
G0 X0 Y0 ; Move to origin
M30 ; End of program
