; G-code generated from SVG
G21 ; Set units to mm
G90 ; Absolute positioning
G0 X33.423 Y39.874
M03 S255
G1 X-4.942 Y39.905 F1000.0 
M05
G0 X-4.942 Y39.905
M03 S255
G1 X-16.826 Y3.427 F1000.0 
M05
G0 X-16.826 Y3.427
M03 S255
G1 X14.193 Y-19.149 F1000.0 
M05
G0 X14.193 Y-19.149
M03 S255
G1 X45.249 Y3.377 F1000.0 
M05
G0 X45.249 Y3.377
M03 S255
G1 X33.423 Y39.874 F1000.0 
M05
G0 X0 Y0 ; Move to origin
M30 ; End of program
