; G-code generated from SVG
G21 ; Set units to mm
G90 ; Absolute positioning
G0 X3.342 Y3.987
M03 S255
G1 X-0.494 Y3.990 F100.0 
M05
G0 X-0.494 Y3.990
M03 S255
G1 X-1.683 Y0.343 F100.0 
M05
G0 X-1.683 Y0.343
M03 S255
G1 X1.419 Y-1.915 F100.0 
M05
G0 X1.419 Y-1.915
M03 S255
G1 X4.525 Y0.338 F100.0 
M05
G0 X4.525 Y0.338
M03 S255
G1 X3.342 Y3.987 F100.0 
M05
G0 X0 Y0 ; Move to origin
M30 ; End of program
