; G-code generated from SVG
G21 ; Set units to mm
G90 ; Absolute positioning
G0 X1.467 Y2.964
M03 S255
G1 X2.564 Y1.184 F100.0 
M05
G0 X2.564 Y1.184
M03 S255
G1 X7.274 Y1.570 F100.0 
M05
G0 X7.274 Y1.570
M03 S255
G1 X7.044 Y4.389 F100.0 
M05
G0 X7.044 Y4.389
M03 S255
G1 X3.427 Y4.993 F100.0 
M05
G0 X3.427 Y4.993
M03 S255
G1 X1.467 Y2.964 F100.0 
M05
G0 X1.467 Y2.964
M03 S255
G1 X2.564 Y1.184 F100.0 
M05
G0 X2.564 Y1.184
M03 S255
G1 X7.274 Y1.570 F100.0 
M05
G0 X7.274 Y1.570
M03 S255
G1 X7.044 Y4.389 F100.0 
M05
G0 X7.044 Y4.389
M03 S255
G1 X3.427 Y4.993 F100.0 
M05
G0 X3.427 Y4.993
M03 S255
G1 X1.467 Y2.964 F100.0 
M05
G0 X2.666 Y1.607
M03 S255
G1 X5.167 Y1.688 F100.0 
M05
G0 X5.167 Y1.688
M03 S255
G1 X6.944 Y3.162 F100.0 
M05
G0 X6.944 Y3.162
M03 S255
G1 X5.759 Y4.295 F100.0 
M05
G0 X5.759 Y4.295
M03 S255
G1 X3.427 Y4.993 F100.0 
M05
G0 X3.427 Y4.993
M03 S255
G1 X2.033 Y4.161 F100.0 
M05
G0 X2.033 Y4.161
M03 S255
G1 X2.666 Y1.607 F100.0 
M05
G0 X2.666 Y1.607
M03 S255
G1 X5.167 Y1.688 F100.0 
M05
G0 X5.167 Y1.688
M03 S255
G1 X6.944 Y3.162 F100.0 
M05
G0 X6.944 Y3.162
M03 S255
G1 X5.759 Y4.295 F100.0 
M05
G0 X5.759 Y4.295
M03 S255
G1 X3.427 Y4.993 F100.0 
M05
G0 X3.427 Y4.993
M03 S255
G1 X2.033 Y4.161 F100.0 
M05
G0 X2.033 Y4.161
M03 S255
G1 X2.666 Y1.607 F100.0 
M05
G0 X3.413 Y2.049
M03 S255
G1 X3.816 Y1.331 F100.0 
M05
G0 X3.816 Y1.331
M03 S255
G1 X2.841 Y1.150 F100.0 
M05
G0 X2.841 Y1.150
M03 S255
G1 X3.413 Y2.049 F100.0 
M05
G0 X3.819 Y1.482
M03 S255
G1 X4.419 Y0.851 F100.0 
M05
G0 X4.419 Y0.851
M03 S255
G1 X5.206 Y1.476 F100.0 
M05
G0 X5.206 Y1.476
M03 S255
G1 X4.311 Y2.101 F100.0 
M05
G0 X4.311 Y2.101
M03 S255
G1 X3.819 Y1.482 F100.0 
M05
G0 X3.413 Y2.049
M03 S255
G1 X3.816 Y1.331 F100.0 
M05
G0 X3.816 Y1.331
M03 S255
G1 X2.841 Y1.150 F100.0 
M05
G0 X2.841 Y1.150
M03 S255
G1 X3.413 Y2.049 F100.0 
M05
G0 X3.413 Y2.049
M03 S255
G1 X3.413 Y2.049 F100.0 
M05
G0 X3.819 Y1.482
M03 S255
G1 X4.419 Y0.851 F100.0 
M05
G0 X4.419 Y0.851
M03 S255
G1 X5.206 Y1.476 F100.0 
M05
G0 X5.206 Y1.476
M03 S255
G1 X4.311 Y2.101 F100.0 
M05
G0 X4.311 Y2.101
M03 S255
G1 X3.819 Y1.482 F100.0 
M05
G0 X3.819 Y1.482
M03 S255
G1 X3.819 Y1.482 F100.0 
M05
G0 X3.711 Y1.517
M03 S255
G1 X3.528 Y1.696 F100.0 
M05
G0 X3.528 Y1.696
M03 S255
G1 X3.370 Y1.503 F100.0 
M05
G0 X3.370 Y1.503
M03 S255
G1 X3.554 Y1.323 F100.0 
M05
G0 X3.554 Y1.323
M03 S255
G1 X3.711 Y1.517 F100.0 
M05
G0 X3.638 Y1.513
M03 S255
G1 X3.552 Y1.598 F100.0 
M05
G0 X3.552 Y1.598
M03 S255
G1 X3.478 Y1.506 F100.0 
M05
G0 X3.478 Y1.506
M03 S255
G1 X3.564 Y1.422 F100.0 
M05
G0 X3.564 Y1.422
M03 S255
G1 X3.638 Y1.513 F100.0 
M05
G0 X4.672 Y1.536
M03 S255
G1 X4.489 Y1.715 F100.0 
M05
G0 X4.489 Y1.715
M03 S255
G1 X4.331 Y1.522 F100.0 
M05
G0 X4.331 Y1.522
M03 S255
G1 X4.514 Y1.342 F100.0 
M05
G0 X4.514 Y1.342
M03 S255
G1 X4.672 Y1.536 F100.0 
M05
G0 X4.599 Y1.532
M03 S255
G1 X4.513 Y1.617 F100.0 
M05
G0 X4.513 Y1.617
M03 S255
G1 X4.438 Y1.525 F100.0 
M05
G0 X4.438 Y1.525
M03 S255
G1 X4.525 Y1.441 F100.0 
M05
G0 X4.525 Y1.441
M03 S255
G1 X4.599 Y1.532 F100.0 
M05
G0 X3.958 Y2.260
M03 S255
G1 X3.558 Y2.572 F100.0 
M05
G0 X3.558 Y2.572
M03 S255
G1 X3.158 Y2.260 F100.0 
M05
G0 X3.158 Y2.260
M03 S255
G1 X3.558 Y1.949 F100.0 
M05
G0 X3.558 Y1.949
M03 S255
G1 X3.958 Y2.260 F100.0 
M05
G0 X3.958 Y2.260
M03 S255
G1 X3.558 Y2.572 F100.0 
M05
G0 X3.558 Y2.572
M03 S255
G1 X3.158 Y2.260 F100.0 
M05
G0 X3.158 Y2.260
M03 S255
G1 X3.558 Y1.949 F100.0 
M05
G0 X3.558 Y1.949
M03 S255
G1 X3.958 Y2.260 F100.0 
M05
G0 X3.293 Y5.564
M03 S255
G1 X2.996 Y5.940 F100.0 
M05
G0 X2.996 Y5.940
M03 S255
G1 X3.513 Y6.343 F100.0 
M05
G0 X3.513 Y6.343
M03 S255
G1 X3.972 Y6.082 F100.0 
M05
G0 X3.972 Y6.082
M03 S255
G1 X3.293 Y5.564 F100.0 
M05
G0 X3.292 Y5.564
M03 S255
G1 X2.996 Y5.940 F100.0 
M05
G0 X2.996 Y5.940
M03 S255
G1 X3.513 Y6.343 F100.0 
M05
G0 X3.513 Y6.343
M03 S255
G1 X3.972 Y6.082 F100.0 
M05
G0 X3.972 Y6.082
M03 S255
G1 X3.292 Y5.564 F100.0 
M05
G0 X3.292 Y5.564
M03 S255
G1 X3.292 Y5.564 F100.0 
M05
G0 X3.740 Y5.388
M03 S255
G1 X3.267 Y5.757 F100.0 
M05
G0 X3.267 Y5.757
M03 S255
G1 X2.793 Y5.388 F100.0 
M05
G0 X2.793 Y5.388
M03 S255
G1 X3.267 Y5.019 F100.0 
M05
G0 X3.267 Y5.019
M03 S255
G1 X3.740 Y5.388 F100.0 
M05
G0 X3.740 Y5.388
M03 S255
G1 X3.267 Y5.757 F100.0 
M05
G0 X3.267 Y5.757
M03 S255
G1 X2.793 Y5.388 F100.0 
M05
G0 X2.793 Y5.388
M03 S255
G1 X3.267 Y5.019 F100.0 
M05
G0 X3.267 Y5.019
M03 S255
G1 X3.740 Y5.388 F100.0 
M05
G0 X2.761 Y5.455
M03 S255
G1 X2.703 Y5.438 F100.0 
M05
G0 X2.703 Y5.438
M03 S255
G1 X2.698 Y5.343 F100.0 
M05
G0 X2.698 Y5.343
M03 S255
G1 X3.776 Y5.197 F100.0 
M05
G0 X3.776 Y5.197
M03 S255
G1 X3.846 Y5.274 F100.0 
M05
G0 X3.846 Y5.274
M03 S255
G1 X3.747 Y5.328 F100.0 
M05
G0 X3.747 Y5.328
M03 S255
G1 X3.027 Y5.349 F100.0 
M05
G0 X3.027 Y5.349
M03 S255
G1 X2.824 Y5.434 F100.0 
M05
G0 X2.824 Y5.434
M03 S255
G1 X2.761 Y5.455 F100.0 
M05
G0 X2.761 Y5.455
M03 S255
G1 X2.703 Y5.438 F100.0 
M05
G0 X2.703 Y5.438
M03 S255
G1 X2.698 Y5.343 F100.0 
M05
G0 X2.698 Y5.343
M03 S255
G1 X3.776 Y5.197 F100.0 
M05
G0 X3.776 Y5.197
M03 S255
G1 X3.846 Y5.274 F100.0 
M05
G0 X3.846 Y5.274
M03 S255
G1 X3.747 Y5.328 F100.0 
M05
G0 X3.747 Y5.328
M03 S255
G1 X3.027 Y5.349 F100.0 
M05
G0 X3.027 Y5.349
M03 S255
G1 X2.824 Y5.434 F100.0 
M05
G0 X2.824 Y5.434
M03 S255
G1 X2.761 Y5.455 F100.0 
M05
G0 X2.761 Y5.455
M03 S255
G1 X2.761 Y5.455 F100.0 
M05
G0 X3.635 Y4.873
M03 S255
G1 X3.371 Y5.034 F100.0 
M05
G0 X3.371 Y5.034
M03 S255
G1 X4.129 Y6.630 F100.0 
M05
G0 X4.129 Y6.630
M03 S255
G1 X4.662 Y5.325 F100.0 
M05
G0 X4.662 Y5.325
M03 S255
G1 X3.635 Y4.873 F100.0 
M05
G0 X3.635 Y4.873
M03 S255
G1 X3.371 Y5.034 F100.0 
M05
G0 X3.371 Y5.034
M03 S255
G1 X4.129 Y6.630 F100.0 
M05
G0 X4.129 Y6.630
M03 S255
G1 X4.662 Y5.325 F100.0 
M05
G0 X4.662 Y5.325
M03 S255
G1 X3.635 Y4.873 F100.0 
M05
G0 X3.635 Y4.873
M03 S255
G1 X3.635 Y4.873 F100.0 
M05
G0 X7.580 Y7.366
M03 S255
G1 X7.307 Y7.928 F100.0 
M05
G0 X7.307 Y7.928
M03 S255
G1 X5.504 Y7.787 F100.0 
M05
G0 X5.504 Y7.787
M03 S255
G1 X6.156 Y7.222 F100.0 
M05
G0 X6.156 Y7.222
M03 S255
G1 X7.580 Y7.366 F100.0 
M05
G0 X7.580 Y7.366
M03 S255
G1 X7.307 Y7.928 F100.0 
M05
G0 X7.307 Y7.928
M03 S255
G1 X5.504 Y7.787 F100.0 
M05
G0 X5.504 Y7.787
M03 S255
G1 X6.156 Y7.222 F100.0 
M05
G0 X6.156 Y7.222
M03 S255
G1 X7.580 Y7.366 F100.0 
M05
G0 X7.580 Y7.366
M03 S255
G1 X7.580 Y7.366 F100.0 
M05
G0 X3.734 Y7.269
M03 S255
G1 X3.370 Y7.469 F100.0 
M05
G0 X3.370 Y7.469
M03 S255
G1 X4.548 Y8.084 F100.0 
M05
G0 X4.548 Y8.084
M03 S255
G1 X6.041 Y7.417 F100.0 
M05
G0 X6.041 Y7.417
M03 S255
G1 X3.734 Y7.269 F100.0 
M05
G0 X3.734 Y7.269
M03 S255
G1 X3.370 Y7.469 F100.0 
M05
G0 X3.370 Y7.469
M03 S255
G1 X4.548 Y8.084 F100.0 
M05
G0 X4.548 Y8.084
M03 S255
G1 X6.041 Y7.417 F100.0 
M05
G0 X6.041 Y7.417
M03 S255
G1 X3.734 Y7.269 F100.0 
M05
G0 X3.734 Y7.269
M03 S255
G1 X3.734 Y7.269 F100.0 
M05
G0 X3.635 Y4.873
M03 S255
G1 X4.542 Y6.383 F100.0 
M05
G0 X4.542 Y6.383
M03 S255
G1 X3.734 Y7.269 F100.0 
M05
G0 X3.734 Y7.269
M03 S255
G1 X6.041 Y7.417 F100.0 
M05
G0 X6.041 Y7.417
M03 S255
G1 X7.580 Y7.366 F100.0 
M05
G0 X7.580 Y7.366
M03 S255
G1 X7.990 Y6.711 F100.0 
M05
G0 X7.990 Y6.711
M03 S255
G1 X7.098 Y4.460 F100.0 
M05
G0 X7.098 Y4.460
M03 S255
G1 X3.635 Y4.873 F100.0 
M05
G0 X3.635 Y4.873
M03 S255
G1 X4.542 Y6.383 F100.0 
M05
G0 X4.542 Y6.383
M03 S255
G1 X3.734 Y7.269 F100.0 
M05
G0 X3.734 Y7.269
M03 S255
G1 X6.041 Y7.417 F100.0 
M05
G0 X6.041 Y7.417
M03 S255
G1 X7.580 Y7.366 F100.0 
M05
G0 X7.580 Y7.366
M03 S255
G1 X7.990 Y6.711 F100.0 
M05
G0 X7.990 Y6.711
M03 S255
G1 X7.098 Y4.460 F100.0 
M05
G0 X7.098 Y4.460
M03 S255
G1 X3.635 Y4.873 F100.0 
M05
G0 X3.635 Y4.873
M03 S255
G1 X3.635 Y4.873 F100.0 
M05
G0 X3.361 Y5.113
M03 S255
G1 X3.278 Y5.087 F100.0 
M05
G0 X3.278 Y5.087
M03 S255
G1 X3.274 Y4.955 F100.0 
M05
G0 X3.274 Y4.955
M03 S255
G1 X4.321 Y4.418 F100.0 
M05
G0 X4.321 Y4.418
M03 S255
G1 X7.113 Y4.354 F100.0 
M05
G0 X7.113 Y4.354
M03 S255
G1 X7.187 Y4.473 F100.0 
M05
G0 X7.187 Y4.473
M03 S255
G1 X7.035 Y4.531 F100.0 
M05
G0 X7.035 Y4.531
M03 S255
G1 X4.427 Y4.586 F100.0 
M05
G0 X4.427 Y4.586
M03 S255
G1 X3.448 Y5.084 F100.0 
M05
G0 X3.448 Y5.084
M03 S255
G1 X3.361 Y5.113 F100.0 
M05
G0 X3.361 Y5.113
M03 S255
G1 X3.278 Y5.087 F100.0 
M05
G0 X3.278 Y5.087
M03 S255
G1 X3.274 Y4.955 F100.0 
M05
G0 X3.274 Y4.955
M03 S255
G1 X4.321 Y4.418 F100.0 
M05
G0 X4.321 Y4.418
M03 S255
G1 X7.113 Y4.354 F100.0 
M05
G0 X7.113 Y4.354
M03 S255
G1 X7.187 Y4.473 F100.0 
M05
G0 X7.187 Y4.473
M03 S255
G1 X7.035 Y4.531 F100.0 
M05
G0 X7.035 Y4.531
M03 S255
G1 X4.427 Y4.586 F100.0 
M05
G0 X4.427 Y4.586
M03 S255
G1 X3.448 Y5.084 F100.0 
M05
G0 X3.448 Y5.084
M03 S255
G1 X3.361 Y5.113 F100.0 
M05
G0 X3.361 Y5.113
M03 S255
G1 X3.361 Y5.113 F100.0 
M05
G0 X3.471 Y2.564
M03 S255
G1 X3.347 Y3.261 F100.0 
M05
G0 X3.347 Y3.261
M03 S255
G1 X2.991 Y3.205 F100.0 
M05
G0 X2.991 Y3.205
M03 S255
G1 X3.158 Y3.815 F100.0 
M05
G0 X3.158 Y3.815
M03 S255
G1 X2.942 Y4.121 F100.0 
M05
G0 X2.942 Y4.121
M03 S255
G1 X3.494 Y4.251 F100.0 
M05
G0 X4.019 Y6.541
M03 S255
G1 X4.178 Y5.622 F100.0 
M05
G0 X4.178 Y5.622
M03 S255
G1 X3.564 Y5.876 F100.0 
M05
G0 X3.564 Y5.876
M03 S255
G1 X4.019 Y6.541 F100.0 
M05
G0 X7.562 Y5.511
M03 S255
G1 X6.962 Y5.978 F100.0 
M05
G0 X6.962 Y5.978
M03 S255
G1 X6.362 Y5.511 F100.0 
M05
G0 X6.362 Y5.511
M03 S255
G1 X6.962 Y5.043 F100.0 
M05
G0 X6.962 Y5.043
M03 S255
G1 X7.562 Y5.511 F100.0 
M05
G0 X7.562 Y5.511
M03 S255
G1 X6.962 Y5.978 F100.0 
M05
G0 X6.962 Y5.978
M03 S255
G1 X6.362 Y5.511 F100.0 
M05
G0 X6.362 Y5.511
M03 S255
G1 X6.962 Y5.043 F100.0 
M05
G0 X6.962 Y5.043
M03 S255
G1 X7.562 Y5.511 F100.0 
M05
G0 X3.513 Y6.343
M03 S255
G1 X2.996 Y6.746 F100.0 
M05
G0 X2.996 Y6.746
M03 S255
G1 X2.479 Y6.343 F100.0 
M05
G0 X2.479 Y6.343
M03 S255
G1 X2.996 Y5.940 F100.0 
M05
G0 X2.996 Y5.940
M03 S255
G1 X3.513 Y6.343 F100.0 
M05
G0 X3.513 Y6.343
M03 S255
G1 X2.996 Y6.746 F100.0 
M05
G0 X2.996 Y6.746
M03 S255
G1 X2.479 Y6.343 F100.0 
M05
G0 X2.479 Y6.343
M03 S255
G1 X2.996 Y5.940 F100.0 
M05
G0 X2.996 Y5.940
M03 S255
G1 X3.513 Y6.343 F100.0 
M05
G0 X5.277 Y4.393
M03 S255
G1 X6.767 Y5.069 F100.0 
M05
G0 X4.897 Y5.267
M03 S255
G1 X6.402 Y5.679 F100.0 
M05
G0 X4.298 Y2.611
M03 S255
G1 X5.538 Y2.406 F100.0 
M05
G0 X5.538 Y2.406
M03 S255
G1 X6.157 Y2.357 F100.0 
M05
G0 X4.333 Y2.895
M03 S255
G1 X5.546 Y2.956 F100.0 
M05
G0 X5.546 Y2.956
M03 S255
G1 X6.283 Y3.022 F100.0 
M05
G0 X4.298 Y3.162
M03 S255
G1 X5.992 Y3.840 F100.0 
M05
G0 X1.311 Y1.876
M03 S255
G1 X2.745 Y2.412 F100.0 
M05
G0 X2.639 Y2.645
M03 S255
G1 X0.812 Y2.575 F100.0 
M05
G0 X2.639 Y2.945
M03 S255
G1 X1.203 Y3.335 F100.0 
M05
G0 X8.811 Y6.238
M03 S255
G1 X8.411 Y6.549 F100.0 
M05
G0 X8.411 Y6.549
M03 S255
G1 X8.011 Y6.238 F100.0 
M05
G0 X8.011 Y6.238
M03 S255
G1 X8.411 Y5.926 F100.0 
M05
G0 X8.411 Y5.926
M03 S255
G1 X8.811 Y6.238 F100.0 
M05
G0 X8.811 Y6.238
M03 S255
G1 X8.411 Y6.549 F100.0 
M05
G0 X8.411 Y6.549
M03 S255
G1 X8.011 Y6.238 F100.0 
M05
G0 X8.011 Y6.238
M03 S255
G1 X8.411 Y5.926 F100.0 
M05
G0 X8.411 Y5.926
M03 S255
G1 X8.811 Y6.238 F100.0 
M05
G0 X8.011 Y6.238
M03 S255
G1 X7.736 Y6.256 F100.0 
M05
G0 X6.041 Y7.417
M03 S255
G1 X6.548 Y7.033 F100.0 
M05
G0 X6.548 Y7.033
M03 S255
G1 X6.878 Y6.903 F100.0 
M05
G0 X6.878 Y6.903
M03 S255
G1 X7.057 Y6.929 F100.0 
M05
G0 X3.082 Y9.119
M03 S255
G1 X3.060 Y9.120 F100.0 
M05
G0 X3.060 Y9.120
M03 S255
G1 X3.039 Y9.122 F100.0 
M05
G0 X3.039 Y9.122
M03 S255
G1 X3.039 Y9.400 F100.0 
M05
G0 X3.039 Y9.400
M03 S255
G1 X3.048 Y9.399 F100.0 
M05
G0 X3.048 Y9.399
M03 S255
G1 X3.055 Y9.398 F100.0 
M05
G0 X3.055 Y9.398
M03 S255
G1 X3.061 Y9.398 F100.0 
M05
G0 X3.061 Y9.398
M03 S255
G1 X3.081 Y9.396 F100.0 
M05
G0 X3.081 Y9.396
M03 S255
G1 X3.096 Y9.394 F100.0 
M05
G0 X3.096 Y9.394
M03 S255
G1 X3.111 Y9.391 F100.0 
M05
G0 X3.111 Y9.391
M03 S255
G1 X3.129 Y9.388 F100.0 
M05
G0 X3.129 Y9.388
M03 S255
G1 X3.210 Y9.355 F100.0 
M05
G0 X3.210 Y9.355
M03 S255
G1 X3.255 Y9.293 F100.0 
M05
G0 X3.255 Y9.293
M03 S255
G1 X3.264 Y9.247 F100.0 
M05
G0 X3.264 Y9.247
M03 S255
G1 X3.253 Y9.201 F100.0 
M05
G0 X3.253 Y9.201
M03 S255
G1 X3.223 Y9.162 F100.0 
M05
G0 X3.223 Y9.162
M03 S255
G1 X3.175 Y9.134 F100.0 
M05
G0 X3.175 Y9.134
M03 S255
G1 X3.129 Y9.123 F100.0 
M05
G0 X3.129 Y9.123
M03 S255
G1 X3.082 Y9.119 F100.0 
M05
G0 X3.082 Y9.119
M03 S255
G1 X3.082 Y9.119 F100.0 
M05
G0 X2.986 Y9.487
M03 S255
G1 X2.947 Y9.470 F100.0 
M05
G0 X2.947 Y9.470
M03 S255
G1 X2.930 Y9.438 F100.0 
M05
G0 X2.930 Y9.438
M03 S255
G1 X2.930 Y9.146 F100.0 
M05
G0 X2.930 Y9.146
M03 S255
G1 X2.899 Y9.143 F100.0 
M05
G0 X2.899 Y9.143
M03 S255
G1 X2.875 Y9.129 F100.0 
M05
G0 X2.875 Y9.129
M03 S255
G1 X2.865 Y9.109 F100.0 
M05
G0 X2.865 Y9.109
M03 S255
G1 X2.874 Y9.087 F100.0 
M05
G0 X2.874 Y9.087
M03 S255
G1 X2.902 Y9.067 F100.0 
M05
G0 X2.902 Y9.067
M03 S255
G1 X2.935 Y9.054 F100.0 
M05
G0 X2.935 Y9.054
M03 S255
G1 X2.972 Y9.046 F100.0 
M05
G0 X2.972 Y9.046
M03 S255
G1 X3.009 Y9.039 F100.0 
M05
G0 X3.009 Y9.039
M03 S255
G1 X3.109 Y9.036 F100.0 
M05
G0 X3.109 Y9.036
M03 S255
G1 X3.203 Y9.053 F100.0 
M05
G0 X3.203 Y9.053
M03 S255
G1 X3.285 Y9.092 F100.0 
M05
G0 X3.285 Y9.092
M03 S255
G1 X3.345 Y9.154 F100.0 
M05
G0 X3.345 Y9.154
M03 S255
G1 X3.365 Y9.202 F100.0 
M05
G0 X3.365 Y9.202
M03 S255
G1 X3.372 Y9.251 F100.0 
M05
G0 X3.372 Y9.251
M03 S255
G1 X3.363 Y9.314 F100.0 
M05
G0 X3.363 Y9.314
M03 S255
G1 X3.331 Y9.372 F100.0 
M05
G0 X3.331 Y9.372
M03 S255
G1 X3.279 Y9.419 F100.0 
M05
G0 X3.279 Y9.419
M03 S255
G1 X3.211 Y9.454 F100.0 
M05
G0 X3.211 Y9.454
M03 S255
G1 X3.141 Y9.471 F100.0 
M05
G0 X3.141 Y9.471
M03 S255
G1 X3.069 Y9.481 F100.0 
M05
G0 X3.069 Y9.481
M03 S255
G1 X3.031 Y9.485 F100.0 
M05
G0 X3.031 Y9.485
M03 S255
G1 X2.992 Y9.488 F100.0 
M05
G0 X2.992 Y9.488
M03 S255
G1 X2.986 Y9.487 F100.0 
M05
G0 X3.724 Y9.401
M03 S255
G1 X3.771 Y9.377 F100.0 
M05
G0 X3.771 Y9.377
M03 S255
G1 X3.806 Y9.344 F100.0 
M05
G0 X3.806 Y9.344
M03 S255
G1 X3.831 Y9.306 F100.0 
M05
G0 X3.831 Y9.306
M03 S255
G1 X3.849 Y9.265 F100.0 
M05
G0 X3.849 Y9.265
M03 S255
G1 X3.855 Y9.210 F100.0 
M05
G0 X3.855 Y9.210
M03 S255
G1 X3.840 Y9.158 F100.0 
M05
G0 X3.840 Y9.158
M03 S255
G1 X3.803 Y9.122 F100.0 
M05
G0 X3.803 Y9.122
M03 S255
G1 X3.747 Y9.101 F100.0 
M05
G0 X3.747 Y9.101
M03 S255
G1 X3.686 Y9.099 F100.0 
M05
G0 X3.686 Y9.099
M03 S255
G1 X3.631 Y9.118 F100.0 
M05
G0 X3.631 Y9.118
M03 S255
G1 X3.577 Y9.167 F100.0 
M05
G0 X3.577 Y9.167
M03 S255
G1 X3.545 Y9.228 F100.0 
M05
G0 X3.545 Y9.228
M03 S255
G1 X3.535 Y9.283 F100.0 
M05
G0 X3.535 Y9.283
M03 S255
G1 X3.547 Y9.339 F100.0 
M05
G0 X3.547 Y9.339
M03 S255
G1 X3.576 Y9.374 F100.0 
M05
G0 X3.576 Y9.374
M03 S255
G1 X3.619 Y9.399 F100.0 
M05
G0 X3.619 Y9.399
M03 S255
G1 X3.670 Y9.409 F100.0 
M05
G0 X3.670 Y9.409
M03 S255
G1 X3.724 Y9.401 F100.0 
M05
G0 X3.724 Y9.401
M03 S255
G1 X3.724 Y9.401 F100.0 
M05
G0 X3.954 Y9.284
M03 S255
G1 X3.916 Y9.360 F100.0 
M05
G0 X3.916 Y9.360
M03 S255
G1 X3.858 Y9.426 F100.0 
M05
G0 X3.858 Y9.426
M03 S255
G1 X3.779 Y9.473 F100.0 
M05
G0 X3.779 Y9.473
M03 S255
G1 X3.677 Y9.491 F100.0 
M05
G0 X3.677 Y9.491
M03 S255
G1 X3.618 Y9.486 F100.0 
M05
G0 X3.618 Y9.486
M03 S255
G1 X3.575 Y9.475 F100.0 
M05
G0 X3.575 Y9.475
M03 S255
G1 X3.512 Y9.448 F100.0 
M05
G0 X3.512 Y9.448
M03 S255
G1 X3.468 Y9.405 F100.0 
M05
G0 X3.468 Y9.405
M03 S255
G1 X3.441 Y9.354 F100.0 
M05
G0 X3.441 Y9.354
M03 S255
G1 X3.429 Y9.301 F100.0 
M05
G0 X3.429 Y9.301
M03 S255
G1 X3.439 Y9.209 F100.0 
M05
G0 X3.439 Y9.209
M03 S255
G1 X3.484 Y9.124 F100.0 
M05
G0 X3.484 Y9.124
M03 S255
G1 X3.563 Y9.056 F100.0 
M05
G0 X3.563 Y9.056
M03 S255
G1 X3.670 Y9.019 F100.0 
M05
G0 X3.670 Y9.019
M03 S255
G1 X3.734 Y9.016 F100.0 
M05
G0 X3.734 Y9.016
M03 S255
G1 X3.796 Y9.026 F100.0 
M05
G0 X3.796 Y9.026
M03 S255
G1 X3.842 Y9.042 F100.0 
M05
G0 X3.842 Y9.042
M03 S255
G1 X3.883 Y9.065 F100.0 
M05
G0 X3.883 Y9.065
M03 S255
G1 X3.927 Y9.107 F100.0 
M05
G0 X3.927 Y9.107
M03 S255
G1 X3.953 Y9.156 F100.0 
M05
G0 X3.953 Y9.156
M03 S255
G1 X3.961 Y9.220 F100.0 
M05
G0 X3.961 Y9.220
M03 S255
G1 X3.954 Y9.284 F100.0 
M05
G0 X4.316 Y9.108
M03 S255
G1 X4.238 Y9.089 F100.0 
M05
G0 X4.238 Y9.089
M03 S255
G1 X4.156 Y9.098 F100.0 
M05
G0 X4.156 Y9.098
M03 S255
G1 X4.156 Y9.255 F100.0 
M05
G0 X4.156 Y9.255
M03 S255
G1 X4.235 Y9.247 F100.0 
M05
G0 X4.235 Y9.247
M03 S255
G1 X4.307 Y9.221 F100.0 
M05
G0 X4.307 Y9.221
M03 S255
G1 X4.336 Y9.195 F100.0 
M05
G0 X4.336 Y9.195
M03 S255
G1 X4.349 Y9.164 F100.0 
M05
G0 X4.349 Y9.164
M03 S255
G1 X4.344 Y9.134 F100.0 
M05
G0 X4.344 Y9.134
M03 S255
G1 X4.316 Y9.108 F100.0 
M05
G0 X4.316 Y9.108
M03 S255
G1 X4.316 Y9.108 F100.0 
M05
G0 X4.156 Y9.443
M03 S255
G1 X4.138 Y9.472 F100.0 
M05
G0 X4.138 Y9.472
M03 S255
G1 X4.103 Y9.486 F100.0 
M05
G0 X4.103 Y9.486
M03 S255
G1 X4.069 Y9.483 F100.0 
M05
G0 X4.069 Y9.483
M03 S255
G1 X4.052 Y9.458 F100.0 
M05
G0 X4.052 Y9.458
M03 S255
G1 X4.048 Y9.293 F100.0 
M05
G0 X4.048 Y9.293
M03 S255
G1 X4.048 Y9.122 F100.0 
M05
G0 X4.048 Y9.122
M03 S255
G1 X4.026 Y9.110 F100.0 
M05
G0 X4.026 Y9.110
M03 S255
G1 X4.018 Y9.092 F100.0 
M05
G0 X4.018 Y9.092
M03 S255
G1 X4.021 Y9.071 F100.0 
M05
G0 X4.021 Y9.071
M03 S255
G1 X4.034 Y9.053 F100.0 
M05
G0 X4.034 Y9.053
M03 S255
G1 X4.061 Y9.038 F100.0 
M05
G0 X4.061 Y9.038
M03 S255
G1 X4.098 Y9.025 F100.0 
M05
G0 X4.098 Y9.025
M03 S255
G1 X4.138 Y9.015 F100.0 
M05
G0 X4.138 Y9.015
M03 S255
G1 X4.171 Y9.009 F100.0 
M05
G0 X4.171 Y9.009
M03 S255
G1 X4.284 Y9.009 F100.0 
M05
G0 X4.284 Y9.009
M03 S255
G1 X4.384 Y9.043 F100.0 
M05
G0 X4.384 Y9.043
M03 S255
G1 X4.448 Y9.106 F100.0 
M05
G0 X4.448 Y9.106
M03 S255
G1 X4.453 Y9.195 F100.0 
M05
G0 X4.453 Y9.195
M03 S255
G1 X4.439 Y9.222 F100.0 
M05
G0 X4.439 Y9.222
M03 S255
G1 X4.421 Y9.248 F100.0 
M05
G0 X4.421 Y9.248
M03 S255
G1 X4.385 Y9.280 F100.0 
M05
G0 X4.385 Y9.280
M03 S255
G1 X4.341 Y9.305 F100.0 
M05
G0 X4.341 Y9.305
M03 S255
G1 X4.373 Y9.335 F100.0 
M05
G0 X4.373 Y9.335
M03 S255
G1 X4.406 Y9.362 F100.0 
M05
G0 X4.406 Y9.362
M03 S255
G1 X4.427 Y9.378 F100.0 
M05
G0 X4.427 Y9.378
M03 S255
G1 X4.454 Y9.400 F100.0 
M05
G0 X4.454 Y9.400
M03 S255
G1 X4.477 Y9.423 F100.0 
M05
G0 X4.477 Y9.423
M03 S255
G1 X4.486 Y9.442 F100.0 
M05
G0 X4.486 Y9.442
M03 S255
G1 X4.476 Y9.466 F100.0 
M05
G0 X4.476 Y9.466
M03 S255
G1 X4.456 Y9.482 F100.0 
M05
G0 X4.456 Y9.482
M03 S255
G1 X4.430 Y9.488 F100.0 
M05
G0 X4.430 Y9.488
M03 S255
G1 X4.401 Y9.481 F100.0 
M05
G0 X4.401 Y9.481
M03 S255
G1 X4.371 Y9.458 F100.0 
M05
G0 X4.371 Y9.458
M03 S255
G1 X4.343 Y9.434 F100.0 
M05
G0 X4.343 Y9.434
M03 S255
G1 X4.286 Y9.383 F100.0 
M05
G0 X4.286 Y9.383
M03 S255
G1 X4.228 Y9.334 F100.0 
M05
G0 X4.228 Y9.334
M03 S255
G1 X4.192 Y9.338 F100.0 
M05
G0 X4.192 Y9.338
M03 S255
G1 X4.156 Y9.340 F100.0 
M05
G0 X4.156 Y9.340
M03 S255
G1 X4.156 Y9.443 F100.0 
M05
G0 X4.886 Y9.375
M03 S255
G1 X4.914 Y9.381 F100.0 
M05
G0 X4.914 Y9.381
M03 S255
G1 X4.934 Y9.396 F100.0 
M05
G0 X4.934 Y9.396
M03 S255
G1 X4.943 Y9.415 F100.0 
M05
G0 X4.943 Y9.415
M03 S255
G1 X4.937 Y9.436 F100.0 
M05
G0 X4.937 Y9.436
M03 S255
G1 X4.926 Y9.448 F100.0 
M05
G0 X4.926 Y9.448
M03 S255
G1 X4.910 Y9.456 F100.0 
M05
G0 X4.910 Y9.456
M03 S255
G1 X4.793 Y9.472 F100.0 
M05
G0 X4.793 Y9.472
M03 S255
G1 X4.674 Y9.470 F100.0 
M05
G0 X4.674 Y9.470
M03 S255
G1 X4.637 Y9.468 F100.0 
M05
G0 X4.637 Y9.468
M03 S255
G1 X4.602 Y9.459 F100.0 
M05
G0 X4.602 Y9.459
M03 S255
G1 X4.575 Y9.419 F100.0 
M05
G0 X4.575 Y9.419
M03 S255
G1 X4.575 Y9.124 F100.0 
M05
G0 X4.575 Y9.124
M03 S255
G1 X4.559 Y9.110 F100.0 
M05
G0 X4.559 Y9.110
M03 S255
G1 X4.551 Y9.092 F100.0 
M05
G0 X4.551 Y9.092
M03 S255
G1 X4.554 Y9.074 F100.0 
M05
G0 X4.554 Y9.074
M03 S255
G1 X4.569 Y9.059 F100.0 
M05
G0 X4.569 Y9.059
M03 S255
G1 X4.610 Y9.045 F100.0 
M05
G0 X4.610 Y9.045
M03 S255
G1 X4.656 Y9.038 F100.0 
M05
G0 X4.656 Y9.038
M03 S255
G1 X4.748 Y9.032 F100.0 
M05
G0 X4.748 Y9.032
M03 S255
G1 X4.842 Y9.032 F100.0 
M05
G0 X4.842 Y9.032
M03 S255
G1 X4.875 Y9.030 F100.0 
M05
G0 X4.875 Y9.030
M03 S255
G1 X4.908 Y9.032 F100.0 
M05
G0 X4.908 Y9.032
M03 S255
G1 X4.935 Y9.048 F100.0 
M05
G0 X4.935 Y9.048
M03 S255
G1 X4.947 Y9.070 F100.0 
M05
G0 X4.947 Y9.070
M03 S255
G1 X4.941 Y9.093 F100.0 
M05
G0 X4.941 Y9.093
M03 S255
G1 X4.915 Y9.110 F100.0 
M05
G0 X4.915 Y9.110
M03 S255
G1 X4.867 Y9.116 F100.0 
M05
G0 X4.867 Y9.116
M03 S255
G1 X4.818 Y9.116 F100.0 
M05
G0 X4.818 Y9.116
M03 S255
G1 X4.751 Y9.116 F100.0 
M05
G0 X4.751 Y9.116
M03 S255
G1 X4.683 Y9.120 F100.0 
M05
G0 X4.683 Y9.120
M03 S255
G1 X4.683 Y9.217 F100.0 
M05
G0 X4.683 Y9.217
M03 S255
G1 X4.747 Y9.217 F100.0 
M05
G0 X4.747 Y9.217
M03 S255
G1 X4.811 Y9.213 F100.0 
M05
G0 X4.811 Y9.213
M03 S255
G1 X4.840 Y9.211 F100.0 
M05
G0 X4.840 Y9.211
M03 S255
G1 X4.869 Y9.211 F100.0 
M05
G0 X4.869 Y9.211
M03 S255
G1 X4.899 Y9.224 F100.0 
M05
G0 X4.899 Y9.224
M03 S255
G1 X4.912 Y9.247 F100.0 
M05
G0 X4.912 Y9.247
M03 S255
G1 X4.907 Y9.272 F100.0 
M05
G0 X4.907 Y9.272
M03 S255
G1 X4.881 Y9.290 F100.0 
M05
G0 X4.881 Y9.290
M03 S255
G1 X4.840 Y9.297 F100.0 
M05
G0 X4.840 Y9.297
M03 S255
G1 X4.786 Y9.301 F100.0 
M05
G0 X4.786 Y9.301
M03 S255
G1 X4.729 Y9.302 F100.0 
M05
G0 X4.729 Y9.302
M03 S255
G1 X4.683 Y9.301 F100.0 
M05
G0 X4.683 Y9.301
M03 S255
G1 X4.683 Y9.387 F100.0 
M05
G0 X4.683 Y9.387
M03 S255
G1 X4.782 Y9.388 F100.0 
M05
G0 X4.782 Y9.388
M03 S255
G1 X4.880 Y9.375 F100.0 
M05
G0 X4.880 Y9.375
M03 S255
G1 X4.886 Y9.375 F100.0 
M05
G0 X5.311 Y9.252
M03 S255
G1 X5.274 Y9.190 F100.0 
M05
G0 X5.274 Y9.190
M03 S255
G1 X5.231 Y9.131 F100.0 
M05
G0 X5.231 Y9.131
M03 S255
G1 X5.198 Y9.192 F100.0 
M05
G0 X5.198 Y9.192
M03 S255
G1 X5.169 Y9.253 F100.0 
M05
G0 X5.169 Y9.253
M03 S255
G1 X5.242 Y9.253 F100.0 
M05
G0 X5.242 Y9.253
M03 S255
G1 X5.311 Y9.252 F100.0 
M05
G0 X5.311 Y9.252
M03 S255
G1 X5.311 Y9.252 F100.0 
M05
G0 X5.492 Y9.441
M03 S255
G1 X5.479 Y9.467 F100.0 
M05
G0 X5.479 Y9.467
M03 S255
G1 X5.454 Y9.481 F100.0 
M05
G0 X5.454 Y9.481
M03 S255
G1 X5.425 Y9.483 F100.0 
M05
G0 X5.425 Y9.483
M03 S255
G1 X5.396 Y9.466 F100.0 
M05
G0 X5.396 Y9.466
M03 S255
G1 X5.383 Y9.442 F100.0 
M05
G0 X5.383 Y9.442
M03 S255
G1 X5.378 Y9.415 F100.0 
M05
G0 X5.378 Y9.415
M03 S255
G1 X5.352 Y9.337 F100.0 
M05
G0 X5.352 Y9.337
M03 S255
G1 X5.243 Y9.337 F100.0 
M05
G0 X5.243 Y9.337
M03 S255
G1 X5.134 Y9.338 F100.0 
M05
G0 X5.134 Y9.338
M03 S255
G1 X5.121 Y9.375 F100.0 
M05
G0 X5.121 Y9.375
M03 S255
G1 X5.109 Y9.411 F100.0 
M05
G0 X5.109 Y9.411
M03 S255
G1 X5.101 Y9.440 F100.0 
M05
G0 X5.101 Y9.440
M03 S255
G1 X5.085 Y9.466 F100.0 
M05
G0 X5.085 Y9.466
M03 S255
G1 X5.053 Y9.482 F100.0 
M05
G0 X5.053 Y9.482
M03 S255
G1 X5.022 Y9.477 F100.0 
M05
G0 X5.022 Y9.477
M03 S255
G1 X5.000 Y9.458 F100.0 
M05
G0 X5.000 Y9.458
M03 S255
G1 X4.994 Y9.429 F100.0 
M05
G0 X4.994 Y9.429
M03 S255
G1 X5.004 Y9.387 F100.0 
M05
G0 X5.004 Y9.387
M03 S255
G1 X5.020 Y9.345 F100.0 
M05
G0 X5.020 Y9.345
M03 S255
G1 X5.123 Y9.114 F100.0 
M05
G0 X5.123 Y9.114
M03 S255
G1 X5.134 Y9.095 F100.0 
M05
G0 X5.134 Y9.095
M03 S255
G1 X5.145 Y9.077 F100.0 
M05
G0 X5.145 Y9.077
M03 S255
G1 X5.157 Y9.057 F100.0 
M05
G0 X5.157 Y9.057
M03 S255
G1 X5.172 Y9.036 F100.0 
M05
G0 X5.172 Y9.036
M03 S255
G1 X5.192 Y9.020 F100.0 
M05
G0 X5.192 Y9.020
M03 S255
G1 X5.221 Y9.014 F100.0 
M05
G0 X5.221 Y9.014
M03 S255
G1 X5.258 Y9.025 F100.0 
M05
G0 X5.258 Y9.025
M03 S255
G1 X5.358 Y9.131 F100.0 
M05
G0 X5.358 Y9.131
M03 S255
G1 X5.428 Y9.252 F100.0 
M05
G0 X5.428 Y9.252
M03 S255
G1 X5.465 Y9.252 F100.0 
M05
G0 X5.465 Y9.252
M03 S255
G1 X5.497 Y9.265 F100.0 
M05
G0 X5.497 Y9.265
M03 S255
G1 X5.511 Y9.285 F100.0 
M05
G0 X5.511 Y9.285
M03 S255
G1 X5.509 Y9.307 F100.0 
M05
G0 X5.509 Y9.307
M03 S255
G1 X5.493 Y9.325 F100.0 
M05
G0 X5.493 Y9.325
M03 S255
G1 X5.465 Y9.335 F100.0 
M05
G0 X5.465 Y9.335
M03 S255
G1 X5.481 Y9.385 F100.0 
M05
G0 X5.481 Y9.385
M03 S255
G1 X5.492 Y9.436 F100.0 
M05
G0 X5.492 Y9.436
M03 S255
G1 X5.492 Y9.441 F100.0 
M05
G0 X6.189 Y9.443
M03 S255
G1 X6.175 Y9.469 F100.0 
M05
G0 X6.175 Y9.469
M03 S255
G1 X6.148 Y9.484 F100.0 
M05
G0 X6.148 Y9.484
M03 S255
G1 X6.117 Y9.484 F100.0 
M05
G0 X6.117 Y9.484
M03 S255
G1 X6.090 Y9.466 F100.0 
M05
G0 X6.090 Y9.466
M03 S255
G1 X6.080 Y9.441 F100.0 
M05
G0 X6.080 Y9.441
M03 S255
G1 X6.077 Y9.414 F100.0 
M05
G0 X6.077 Y9.414
M03 S255
G1 X6.073 Y9.388 F100.0 
M05
G0 X6.073 Y9.388
M03 S255
G1 X6.068 Y9.361 F100.0 
M05
G0 X6.068 Y9.361
M03 S255
G1 X6.050 Y9.279 F100.0 
M05
G0 X6.050 Y9.279
M03 S255
G1 X6.028 Y9.197 F100.0 
M05
G0 X6.028 Y9.197
M03 S255
G1 X5.994 Y9.266 F100.0 
M05
G0 X5.994 Y9.266
M03 S255
G1 X5.962 Y9.335 F100.0 
M05
G0 X5.962 Y9.335
M03 S255
G1 X5.937 Y9.386 F100.0 
M05
G0 X5.937 Y9.386
M03 S255
G1 X5.909 Y9.436 F100.0 
M05
G0 X5.909 Y9.436
M03 S255
G1 X5.892 Y9.450 F100.0 
M05
G0 X5.892 Y9.450
M03 S255
G1 X5.865 Y9.456 F100.0 
M05
G0 X5.865 Y9.456
M03 S255
G1 X5.838 Y9.453 F100.0 
M05
G0 X5.838 Y9.453
M03 S255
G1 X5.820 Y9.440 F100.0 
M05
G0 X5.820 Y9.440
M03 S255
G1 X5.744 Y9.326 F100.0 
M05
G0 X5.744 Y9.326
M03 S255
G1 X5.669 Y9.211 F100.0 
M05
G0 X5.669 Y9.211
M03 S255
G1 X5.661 Y9.282 F100.0 
M05
G0 X5.661 Y9.282
M03 S255
G1 X5.653 Y9.353 F100.0 
M05
G0 X5.653 Y9.353
M03 S255
G1 X5.651 Y9.380 F100.0 
M05
G0 X5.651 Y9.380
M03 S255
G1 X5.648 Y9.413 F100.0 
M05
G0 X5.648 Y9.413
M03 S255
G1 X5.643 Y9.444 F100.0 
M05
G0 X5.643 Y9.444
M03 S255
G1 X5.633 Y9.467 F100.0 
M05
G0 X5.633 Y9.467
M03 S255
G1 X5.605 Y9.485 F100.0 
M05
G0 X5.605 Y9.485
M03 S255
G1 X5.571 Y9.486 F100.0 
M05
G0 X5.571 Y9.486
M03 S255
G1 X5.543 Y9.471 F100.0 
M05
G0 X5.543 Y9.471
M03 S255
G1 X5.533 Y9.444 F100.0 
M05
G0 X5.533 Y9.444
M03 S255
G1 X5.539 Y9.388 F100.0 
M05
G0 X5.539 Y9.388
M03 S255
G1 X5.547 Y9.332 F100.0 
M05
G0 X5.547 Y9.332
M03 S255
G1 X5.562 Y9.209 F100.0 
M05
G0 X5.562 Y9.209
M03 S255
G1 X5.577 Y9.086 F100.0 
M05
G0 X5.577 Y9.086
M03 S255
G1 X5.586 Y9.052 F100.0 
M05
G0 X5.586 Y9.052
M03 S255
G1 X5.618 Y9.031 F100.0 
M05
G0 X5.618 Y9.031
M03 S255
G1 X5.639 Y9.029 F100.0 
M05
G0 X5.639 Y9.029
M03 S255
G1 X5.658 Y9.034 F100.0 
M05
G0 X5.658 Y9.034
M03 S255
G1 X5.689 Y9.060 F100.0 
M05
G0 X5.689 Y9.060
M03 S255
G1 X5.710 Y9.093 F100.0 
M05
G0 X5.710 Y9.093
M03 S255
G1 X5.743 Y9.143 F100.0 
M05
G0 X5.743 Y9.143
M03 S255
G1 X5.775 Y9.193 F100.0 
M05
G0 X5.775 Y9.193
M03 S255
G1 X5.815 Y9.256 F100.0 
M05
G0 X5.815 Y9.256
M03 S255
G1 X5.856 Y9.318 F100.0 
M05
G0 X5.856 Y9.318
M03 S255
G1 X5.866 Y9.297 F100.0 
M05
G0 X5.866 Y9.297
M03 S255
G1 X5.877 Y9.276 F100.0 
M05
G0 X5.877 Y9.276
M03 S255
G1 X5.895 Y9.240 F100.0 
M05
G0 X5.895 Y9.240
M03 S255
G1 X5.912 Y9.204 F100.0 
M05
G0 X5.912 Y9.204
M03 S255
G1 X5.936 Y9.157 F100.0 
M05
G0 X5.936 Y9.157
M03 S255
G1 X5.958 Y9.111 F100.0 
M05
G0 X5.958 Y9.111
M03 S255
G1 X5.974 Y9.073 F100.0 
M05
G0 X5.974 Y9.073
M03 S255
G1 X6.000 Y9.039 F100.0 
M05
G0 X6.000 Y9.039
M03 S255
G1 X6.027 Y9.027 F100.0 
M05
G0 X6.027 Y9.027
M03 S255
G1 X6.055 Y9.029 F100.0 
M05
G0 X6.055 Y9.029
M03 S255
G1 X6.078 Y9.041 F100.0 
M05
G0 X6.078 Y9.041
M03 S255
G1 X6.093 Y9.062 F100.0 
M05
G0 X6.093 Y9.062
M03 S255
G1 X6.105 Y9.098 F100.0 
M05
G0 X6.105 Y9.098
M03 S255
G1 X6.118 Y9.134 F100.0 
M05
G0 X6.118 Y9.134
M03 S255
G1 X6.135 Y9.191 F100.0 
M05
G0 X6.135 Y9.191
M03 S255
G1 X6.151 Y9.249 F100.0 
M05
G0 X6.151 Y9.249
M03 S255
G1 X6.172 Y9.343 F100.0 
M05
G0 X6.172 Y9.343
M03 S255
G1 X6.189 Y9.438 F100.0 
M05
G0 X6.189 Y9.438
M03 S255
G1 X6.189 Y9.443 F100.0 
M05
G0 X6.527 Y9.401
M03 S255
G1 X6.574 Y9.377 F100.0 
M05
G0 X6.574 Y9.377
M03 S255
G1 X6.609 Y9.344 F100.0 
M05
G0 X6.609 Y9.344
M03 S255
G1 X6.634 Y9.306 F100.0 
M05
G0 X6.634 Y9.306
M03 S255
G1 X6.652 Y9.265 F100.0 
M05
G0 X6.652 Y9.265
M03 S255
G1 X6.658 Y9.210 F100.0 
M05
G0 X6.658 Y9.210
M03 S255
G1 X6.644 Y9.158 F100.0 
M05
G0 X6.644 Y9.158
M03 S255
G1 X6.606 Y9.122 F100.0 
M05
G0 X6.606 Y9.122
M03 S255
G1 X6.550 Y9.101 F100.0 
M05
G0 X6.550 Y9.101
M03 S255
G1 X6.489 Y9.099 F100.0 
M05
G0 X6.489 Y9.099
M03 S255
G1 X6.434 Y9.118 F100.0 
M05
G0 X6.434 Y9.118
M03 S255
G1 X6.380 Y9.167 F100.0 
M05
G0 X6.380 Y9.167
M03 S255
G1 X6.348 Y9.228 F100.0 
M05
G0 X6.348 Y9.228
M03 S255
G1 X6.338 Y9.283 F100.0 
M05
G0 X6.338 Y9.283
M03 S255
G1 X6.350 Y9.339 F100.0 
M05
G0 X6.350 Y9.339
M03 S255
G1 X6.379 Y9.374 F100.0 
M05
G0 X6.379 Y9.374
M03 S255
G1 X6.422 Y9.399 F100.0 
M05
G0 X6.422 Y9.399
M03 S255
G1 X6.473 Y9.409 F100.0 
M05
G0 X6.473 Y9.409
M03 S255
G1 X6.527 Y9.401 F100.0 
M05
G0 X6.527 Y9.401
M03 S255
G1 X6.527 Y9.401 F100.0 
M05
G0 X6.758 Y9.284
M03 S255
G1 X6.719 Y9.360 F100.0 
M05
G0 X6.719 Y9.360
M03 S255
G1 X6.661 Y9.426 F100.0 
M05
G0 X6.661 Y9.426
M03 S255
G1 X6.583 Y9.473 F100.0 
M05
G0 X6.583 Y9.473
M03 S255
G1 X6.480 Y9.491 F100.0 
M05
G0 X6.480 Y9.491
M03 S255
G1 X6.421 Y9.486 F100.0 
M05
G0 X6.421 Y9.486
M03 S255
G1 X6.378 Y9.475 F100.0 
M05
G0 X6.378 Y9.475
M03 S255
G1 X6.316 Y9.448 F100.0 
M05
G0 X6.316 Y9.448
M03 S255
G1 X6.272 Y9.405 F100.0 
M05
G0 X6.272 Y9.405
M03 S255
G1 X6.244 Y9.354 F100.0 
M05
G0 X6.244 Y9.354
M03 S255
G1 X6.232 Y9.301 F100.0 
M05
G0 X6.232 Y9.301
M03 S255
G1 X6.242 Y9.209 F100.0 
M05
G0 X6.242 Y9.209
M03 S255
G1 X6.288 Y9.124 F100.0 
M05
G0 X6.288 Y9.124
M03 S255
G1 X6.366 Y9.056 F100.0 
M05
G0 X6.366 Y9.056
M03 S255
G1 X6.474 Y9.019 F100.0 
M05
G0 X6.474 Y9.019
M03 S255
G1 X6.537 Y9.016 F100.0 
M05
G0 X6.537 Y9.016
M03 S255
G1 X6.599 Y9.026 F100.0 
M05
G0 X6.599 Y9.026
M03 S255
G1 X6.645 Y9.042 F100.0 
M05
G0 X6.645 Y9.042
M03 S255
G1 X6.686 Y9.065 F100.0 
M05
G0 X6.686 Y9.065
M03 S255
G1 X6.730 Y9.107 F100.0 
M05
G0 X6.730 Y9.107
M03 S255
G1 X6.756 Y9.156 F100.0 
M05
G0 X6.756 Y9.156
M03 S255
G1 X6.765 Y9.220 F100.0 
M05
G0 X6.765 Y9.220
M03 S255
G1 X6.758 Y9.284 F100.0 
M05
G0 X7.203 Y9.050
M03 S255
G1 X7.221 Y9.027 F100.0 
M05
G0 X7.221 Y9.027
M03 S255
G1 X7.247 Y9.015 F100.0 
M05
G0 X7.247 Y9.015
M03 S255
G1 X7.276 Y9.016 F100.0 
M05
G0 X7.276 Y9.016
M03 S255
G1 X7.301 Y9.033 F100.0 
M05
G0 X7.301 Y9.033
M03 S255
G1 X7.308 Y9.041 F100.0 
M05
G0 X7.308 Y9.041
M03 S255
G1 X7.311 Y9.050 F100.0 
M05
G0 X7.311 Y9.050
M03 S255
G1 X7.310 Y9.248 F100.0 
M05
G0 X7.310 Y9.248
M03 S255
G1 X7.299 Y9.446 F100.0 
M05
G0 X7.299 Y9.446
M03 S255
G1 X7.287 Y9.471 F100.0 
M05
G0 X7.287 Y9.471
M03 S255
G1 X7.257 Y9.483 F100.0 
M05
G0 X7.257 Y9.483
M03 S255
G1 X7.224 Y9.480 F100.0 
M05
G0 X7.224 Y9.480
M03 S255
G1 X7.199 Y9.462 F100.0 
M05
G0 X7.199 Y9.462
M03 S255
G1 X7.198 Y9.461 F100.0 
M05
G0 X7.198 Y9.461
M03 S255
G1 X7.198 Y9.462 F100.0 
M05
G0 X7.198 Y9.462
M03 S255
G1 X7.076 Y9.320 F100.0 
M05
G0 X7.076 Y9.320
M03 S255
G1 X6.943 Y9.184 F100.0 
M05
G0 X6.943 Y9.184
M03 S255
G1 X6.943 Y9.341 F100.0 
M05
G0 X6.943 Y9.341
M03 S255
G1 X6.943 Y9.394 F100.0 
M05
G0 X6.943 Y9.394
M03 S255
G1 X6.942 Y9.429 F100.0 
M05
G0 X6.942 Y9.429
M03 S255
G1 X6.940 Y9.450 F100.0 
M05
G0 X6.940 Y9.450
M03 S255
G1 X6.935 Y9.463 F100.0 
M05
G0 X6.935 Y9.463
M03 S255
G1 X6.911 Y9.486 F100.0 
M05
G0 X6.911 Y9.486
M03 S255
G1 X6.878 Y9.488 F100.0 
M05
G0 X6.878 Y9.488
M03 S255
G1 X6.848 Y9.475 F100.0 
M05
G0 X6.848 Y9.475
M03 S255
G1 X6.836 Y9.447 F100.0 
M05
G0 X6.836 Y9.447
M03 S255
G1 X6.836 Y9.416 F100.0 
M05
G0 X6.836 Y9.416
M03 S255
G1 X6.836 Y9.369 F100.0 
M05
G0 X6.836 Y9.369
M03 S255
G1 X6.836 Y9.313 F100.0 
M05
G0 X6.836 Y9.313
M03 S255
G1 X6.836 Y9.253 F100.0 
M05
G0 X6.836 Y9.253
M03 S255
G1 X6.835 Y9.199 F100.0 
M05
G0 X6.835 Y9.199
M03 S255
G1 X6.835 Y9.156 F100.0 
M05
G0 X6.835 Y9.156
M03 S255
G1 X6.834 Y9.110 F100.0 
M05
G0 X6.834 Y9.110
M03 S255
G1 X6.834 Y9.063 F100.0 
M05
G0 X6.834 Y9.063
M03 S255
G1 X6.842 Y9.043 F100.0 
M05
G0 X6.842 Y9.043
M03 S255
G1 X6.861 Y9.030 F100.0 
M05
G0 X6.861 Y9.030
M03 S255
G1 X6.886 Y9.025 F100.0 
M05
G0 X6.886 Y9.025
M03 S255
G1 X6.911 Y9.028 F100.0 
M05
G0 X6.911 Y9.028
M03 S255
G1 X6.933 Y9.039 F100.0 
M05
G0 X6.933 Y9.039
M03 S255
G1 X6.955 Y9.058 F100.0 
M05
G0 X6.955 Y9.058
M03 S255
G1 X6.975 Y9.078 F100.0 
M05
G0 X6.975 Y9.078
M03 S255
G1 X6.991 Y9.094 F100.0 
M05
G0 X6.991 Y9.094
M03 S255
G1 X7.044 Y9.145 F100.0 
M05
G0 X7.044 Y9.145
M03 S255
G1 X7.100 Y9.199 F100.0 
M05
G0 X7.100 Y9.199
M03 S255
G1 X7.150 Y9.252 F100.0 
M05
G0 X7.150 Y9.252
M03 S255
G1 X7.198 Y9.305 F100.0 
M05
G0 X7.198 Y9.305
M03 S255
G1 X7.202 Y9.179 F100.0 
M05
G0 X7.202 Y9.179
M03 S255
G1 X7.202 Y9.054 F100.0 
M05
G0 X7.202 Y9.054
M03 S255
G1 X7.203 Y9.050 F100.0 
M05
G0 X6.786 Y9.260
M03 S255
G1 X6.494 Y9.488 F100.0 
M05
G0 X6.494 Y9.488
M03 S255
G1 X6.201 Y9.260 F100.0 
M05
G0 X6.201 Y9.260
M03 S255
G1 X6.494 Y9.033 F100.0 
M05
G0 X6.494 Y9.033
M03 S255
G1 X6.786 Y9.260 F100.0 
M05
G0 X6.786 Y9.260
M03 S255
G1 X6.494 Y9.488 F100.0 
M05
G0 X6.494 Y9.488
M03 S255
G1 X6.201 Y9.260 F100.0 
M05
G0 X6.201 Y9.260
M03 S255
G1 X6.494 Y9.033 F100.0 
M05
G0 X6.494 Y9.033
M03 S255
G1 X6.786 Y9.260 F100.0 
M05
G0 X6.796 Y9.386
M03 S255
G1 X6.749 Y9.370 F100.0 
M05
G0 X6.749 Y9.370
M03 S255
G1 X6.196 Y9.206 F100.0 
M05
G0 X6.196 Y9.206
M03 S255
G1 X6.125 Y9.160 F100.0 
M05
G0 X6.125 Y9.160
M03 S255
G1 X6.184 Y9.105 F100.0 
M05
G0 X6.184 Y9.105
M03 S255
G1 X6.844 Y9.300 F100.0 
M05
G0 X6.844 Y9.300
M03 S255
G1 X6.841 Y9.372 F100.0 
M05
G0 X6.841 Y9.372
M03 S255
G1 X6.796 Y9.386 F100.0 
M05
G0 X6.796 Y9.386
M03 S255
G1 X6.749 Y9.370 F100.0 
M05
G0 X6.749 Y9.370
M03 S255
G1 X6.196 Y9.206 F100.0 
M05
G0 X6.196 Y9.206
M03 S255
G1 X6.125 Y9.160 F100.0 
M05
G0 X6.125 Y9.160
M03 S255
G1 X6.184 Y9.105 F100.0 
M05
G0 X6.184 Y9.105
M03 S255
G1 X6.844 Y9.300 F100.0 
M05
G0 X6.844 Y9.300
M03 S255
G1 X6.841 Y9.372 F100.0 
M05
G0 X6.841 Y9.372
M03 S255
G1 X6.796 Y9.386 F100.0 
M05
G0 X6.442 Y9.264
M03 S255
G1 X6.344 Y9.273 F100.0 
M05
G0 X6.344 Y9.273
M03 S255
G1 X6.380 Y9.318 F100.0 
M05
G0 X6.380 Y9.318
M03 S255
G1 X6.345 Y9.453 F100.0 
M05
G0 X6.345 Y9.453
M03 S255
G1 X6.370 Y9.471 F100.0 
M05
G0 X6.370 Y9.471
M03 S255
G1 X6.373 Y9.471 F100.0 
M05
G0 X6.373 Y9.471
M03 S255
G1 X6.397 Y9.449 F100.0 
M05
G0 X6.397 Y9.449
M03 S255
G1 X6.428 Y9.334 F100.0 
M05
G0 X6.428 Y9.334
M03 S255
G1 X6.509 Y9.320 F100.0 
M05
G0 X6.509 Y9.320
M03 S255
G1 X6.442 Y9.264 F100.0 
M05
G0 X6.442 Y9.264
M03 S255
G1 X6.344 Y9.273 F100.0 
M05
G0 X6.344 Y9.273
M03 S255
G1 X6.380 Y9.318 F100.0 
M05
G0 X6.380 Y9.318
M03 S255
G1 X6.345 Y9.453 F100.0 
M05
G0 X6.345 Y9.453
M03 S255
G1 X6.370 Y9.471 F100.0 
M05
G0 X6.370 Y9.471
M03 S255
G1 X6.373 Y9.471 F100.0 
M05
G0 X6.373 Y9.471
M03 S255
G1 X6.397 Y9.449 F100.0 
M05
G0 X6.397 Y9.449
M03 S255
G1 X6.428 Y9.334 F100.0 
M05
G0 X6.428 Y9.334
M03 S255
G1 X6.509 Y9.320 F100.0 
M05
G0 X6.509 Y9.320
M03 S255
G1 X6.442 Y9.264 F100.0 
M05
G0 X6.442 Y9.264
M03 S255
G1 X6.442 Y9.264 F100.0 
M05
G0 X0 Y0 ; Move to origin
M30 ; End of program
