; G-code generated from SVG
G21 ; Set units to mm
G90 ; Absolute positioning
G0 X3.016 Y2.545
M03 S255
G1 X2.462 Y3.120 F100.0 
M05
G0 X2.462 Y3.120
M03 S255
G1 X1.907 Y2.545 F100.0 
M05
G0 X1.907 Y2.545
M03 S255
G1 X2.462 Y1.969 F100.0 
M05
G0 X2.462 Y1.969
M03 S255
G1 X3.016 Y2.545 F100.0 
M05
G0 X7.992 Y2.524
M03 S255
G1 X7.443 Y3.120 F100.0 
M05
G0 X7.443 Y3.120
M03 S255
G1 X6.893 Y2.524 F100.0 
M05
G0 X6.893 Y2.524
M03 S255
G1 X7.443 Y1.928 F100.0 
M05
G0 X7.443 Y1.928
M03 S255
G1 X7.992 Y2.524 F100.0 
M05
G0 X2.239 Y4.323
M03 S255
G1 X7.878 Y4.323 F100.0 
M05
G0 X7.878 Y4.323
M03 S255
G1 X7.878 Y7.847 F100.0 
M05
G0 X7.878 Y7.847
M03 S255
G1 X2.239 Y7.847 F100.0 
M05
G0 X2.239 Y7.847
M03 S255
G1 X2.239 Y4.323 F100.0 
M05
G0 X2.291 Y6.935
M03 S255
G1 X2.509 Y6.779 F100.0 
M05
G0 X2.509 Y6.779
M03 S255
G1 X2.581 Y6.748 F100.0 
M05
G0 X2.581 Y6.748
M03 S255
G1 X2.716 Y6.655 F100.0 
M05
G0 X2.716 Y6.655
M03 S255
G1 X3.141 Y6.416 F100.0 
M05
G0 X3.141 Y6.416
M03 S255
G1 X3.213 Y6.385 F100.0 
M05
G0 X3.213 Y6.385
M03 S255
G1 X3.286 Y6.333 F100.0 
M05
G0 X3.286 Y6.333
M03 S255
G1 X3.400 Y6.282 F100.0 
M05
G0 X3.400 Y6.282
M03 S255
G1 X3.618 Y6.147 F100.0 
M05
G0 X3.618 Y6.147
M03 S255
G1 X3.701 Y6.116 F100.0 
M05
G0 X3.701 Y6.116
M03 S255
G1 X3.898 Y6.033 F100.0 
M05
G0 X3.898 Y6.033
M03 S255
G1 X4.074 Y6.002 F100.0 
M05
G0 X4.074 Y6.002
M03 S255
G1 X4.146 Y5.971 F100.0 
M05
G0 X4.146 Y5.971
M03 S255
G1 X4.592 Y5.888 F100.0 
M05
G0 X4.592 Y5.888
M03 S255
G1 X4.862 Y5.877 F100.0 
M05
G0 X4.862 Y5.877
M03 S255
G1 X4.986 Y5.857 F100.0 
M05
G0 X4.986 Y5.857
M03 S255
G1 X5.577 Y5.867 F100.0 
M05
G0 X5.577 Y5.867
M03 S255
G1 X6.054 Y5.898 F100.0 
M05
G0 X6.054 Y5.898
M03 S255
G1 X6.520 Y6.002 F100.0 
M05
G0 X6.520 Y6.002
M03 S255
G1 X6.665 Y6.023 F100.0 
M05
G0 X6.665 Y6.023
M03 S255
G1 X6.810 Y6.095 F100.0 
M05
G0 X6.810 Y6.095
M03 S255
G1 X6.883 Y6.116 F100.0 
M05
G0 X6.883 Y6.116
M03 S255
G1 X6.904 Y6.137 F100.0 
M05
G0 X6.904 Y6.137
M03 S255
G1 X7.018 Y6.209 F100.0 
M05
G0 X7.018 Y6.209
M03 S255
G1 X7.121 Y6.271 F100.0 
M05
G0 X7.121 Y6.271
M03 S255
G1 X7.132 Y6.292 F100.0 
M05
G0 X7.132 Y6.292
M03 S255
G1 X7.277 Y6.437 F100.0 
M05
G0 X7.277 Y6.437
M03 S255
G1 X7.298 Y6.437 F100.0 
M05
G0 X7.298 Y6.437
M03 S255
G1 X7.349 Y6.479 F100.0 
M05
G0 X7.349 Y6.479
M03 S255
G1 X7.505 Y6.551 F100.0 
M05
G0 X7.505 Y6.551
M03 S255
G1 X7.526 Y6.582 F100.0 
M05
G0 X7.526 Y6.582
M03 S255
G1 X7.577 Y6.624 F100.0 
M05
G0 X7.577 Y6.624
M03 S255
G1 X7.588 Y6.655 F100.0 
M05
G0 X7.588 Y6.655
M03 S255
G1 X7.619 Y6.676 F100.0 
M05
G0 X7.619 Y6.676
M03 S255
G1 X7.681 Y6.800 F100.0 
M05
G0 X7.681 Y6.800
M03 S255
G1 X7.691 Y6.862 F100.0 
M05
G0 X7.691 Y6.862
M03 S255
G1 X7.712 Y6.862 F100.0 
M05
G0 X7.712 Y6.862
M03 S255
G1 X7.723 Y6.904 F100.0 
M05
G0 X7.723 Y6.904
M03 S255
G1 X7.774 Y6.987 F100.0 
M05
G0 X7.774 Y6.987
M03 S255
G1 X7.774 Y7.028 F100.0 
M05
G0 X7.774 Y7.028
M03 S255
G1 X7.805 Y7.069 F100.0 
M05
G0 X7.805 Y7.069
M03 S255
G1 X7.826 Y7.132 F100.0 
M05
G0 X7.826 Y7.132
M03 S255
G1 X7.847 Y7.152 F100.0 
M05
G0 X7.847 Y7.152
M03 S255
G1 X7.847 Y7.194 F100.0 
M05
G0 X7.847 Y7.194
M03 S255
G1 X7.857 Y7.225 F100.0 
M05
G0 X4.623 Y2.654
M03 S255
G1 X4.654 Y3.182 F100.0 
M05
G0 X4.654 Y3.182
M03 S255
G1 X4.675 Y3.276 F100.0 
M05
G0 X4.675 Y3.276
M03 S255
G1 X4.685 Y3.379 F100.0 
M05
G0 X4.685 Y3.379
M03 S255
G1 X4.716 Y3.452 F100.0 
M05
G0 X4.716 Y3.452
M03 S255
G1 X4.779 Y3.638 F100.0 
M05
G0 X4.779 Y3.638
M03 S255
G1 X4.841 Y3.742 F100.0 
M05
G0 X4.841 Y3.742
M03 S255
G1 X4.862 Y3.763 F100.0 
M05
G0 X4.862 Y3.763
M03 S255
G1 X4.893 Y3.763 F100.0 
M05
G0 X4.893 Y3.763
M03 S255
G1 X5.048 Y3.721 F100.0 
M05
G0 X5.048 Y3.721
M03 S255
G1 X5.079 Y3.690 F100.0 
M05
G0 X5.079 Y3.690
M03 S255
G1 X5.193 Y3.638 F100.0 
M05
G0 X5.193 Y3.638
M03 S255
G1 X5.235 Y3.587 F100.0 
M05
G0 X5.235 Y3.587
M03 S255
G1 X5.297 Y3.338 F100.0 
M05
G0 X5.297 Y3.338
M03 S255
G1 X5.297 Y3.203 F100.0 
M05
G0 X5.297 Y3.203
M03 S255
G1 X5.214 Y3.110 F100.0 
M05
G0 X5.214 Y3.110
M03 S255
G1 X5.193 Y3.099 F100.0 
M05
G0 X5.193 Y3.099
M03 S255
G1 X5.183 Y3.068 F100.0 
M05
G0 X5.183 Y3.068
M03 S255
G1 X5.100 Y3.006 F100.0 
M05
G0 X5.100 Y3.006
M03 S255
G1 X5.100 Y2.985 F100.0 
M05
G0 X5.100 Y2.985
M03 S255
G1 X5.007 Y2.902 F100.0 
M05
G0 X5.007 Y2.902
M03 S255
G1 X4.955 Y2.830 F100.0 
M05
G0 X4.955 Y2.830
M03 S255
G1 X4.789 Y2.664 F100.0 
M05
G0 X4.789 Y2.664
M03 S255
G1 X4.758 Y2.623 F100.0 
M05
G0 X4.758 Y2.623
M03 S255
G1 X4.623 Y2.654 F100.0 
M05
G0 X4.623 Y2.654
M03 S255
G1 X4.623 Y2.654 F100.0 
M05
G0 X0 Y0 ; Move to origin
M30 ; End of program
