; G-code generated from SVG
G21 ; Set units to mm
G90 ; Absolute positioning
G0 X2.808 Y6.364
M03 S255
G1 X3.032 Y6.363 F1000
G1 X3.255 Y6.362 F1000
G1 X3.478 Y6.361 F1000
G1 X3.701 Y6.360 F1000
G1 X3.925 Y6.359 F1000
G1 X4.148 Y6.358 F1000
G1 X4.371 Y6.357 F1000
G1 X4.594 Y6.356 F1000
G1 X4.818 Y6.355 F1000
G1 X5.041 Y6.354 F1000
G1 X5.264 Y6.353 F1000
G1 X5.487 Y6.352 F1000
G1 X5.711 Y6.351 F1000
G1 X5.934 Y6.350 F1000
G1 X6.157 Y6.349 F1000
G1 X6.380 Y6.348 F1000
G1 X6.604 Y6.347 F1000
G1 X6.827 Y6.346 F1000
G1 X7.050 Y6.345 F1000
G1 X7.273 Y6.344 F1000
M05
G0 X2.800 Y6.315
M03 S255
G1 X2.817 Y6.335 F1000
G1 X2.866 Y6.392 F1000
G1 X2.946 Y6.479 F1000
G1 X3.055 Y6.589 F1000
G1 X3.191 Y6.717 F1000
G1 X3.352 Y6.855 F1000
G1 X3.536 Y6.998 F1000
G1 X3.742 Y7.138 F1000
G1 X3.967 Y7.271 F1000
G1 X4.211 Y7.388 F1000
G1 X4.470 Y7.484 F1000
G1 X4.744 Y7.552 F1000
G1 X5.030 Y7.586 F1000
G1 X5.327 Y7.580 F1000
G1 X5.633 Y7.526 F1000
G1 X5.945 Y7.419 F1000
G1 X6.263 Y7.252 F1000
G1 X6.584 Y7.019 F1000
G1 X6.907 Y6.714 F1000
G1 X7.229 Y6.329 F1000
M05
G0 X4.178 Y3.296
M03 S255
G1 X4.175 Y3.359 F1000
G1 X4.168 Y3.420 F1000
G1 X4.156 Y3.480 F1000
G1 X4.140 Y3.538 F1000
G1 X4.119 Y3.594 F1000
G1 X4.094 Y3.648 F1000
G1 X4.066 Y3.699 F1000
G1 X4.033 Y3.748 F1000
G1 X3.997 Y3.794 F1000
G1 X3.958 Y3.837 F1000
G1 X3.916 Y3.877 F1000
G1 X3.871 Y3.913 F1000
G1 X3.823 Y3.946 F1000
G1 X3.773 Y3.976 F1000
G1 X3.720 Y4.001 F1000
G1 X3.665 Y4.022 F1000
G1 X3.608 Y4.039 F1000
G1 X3.550 Y4.051 F1000
G1 X3.489 Y4.058 F1000
G1 X3.428 Y4.061 F1000
M05
G0 X3.428 Y4.061
M03 S255
G1 X3.366 Y4.058 F1000
G1 X3.306 Y4.051 F1000
G1 X3.248 Y4.039 F1000
G1 X3.191 Y4.022 F1000
G1 X3.136 Y4.001 F1000
G1 X3.083 Y3.976 F1000
G1 X3.033 Y3.946 F1000
G1 X2.985 Y3.913 F1000
G1 X2.940 Y3.877 F1000
G1 X2.898 Y3.837 F1000
G1 X2.858 Y3.794 F1000
G1 X2.823 Y3.748 F1000
G1 X2.790 Y3.699 F1000
G1 X2.762 Y3.648 F1000
G1 X2.737 Y3.594 F1000
G1 X2.716 Y3.538 F1000
G1 X2.700 Y3.480 F1000
G1 X2.688 Y3.420 F1000
G1 X2.680 Y3.359 F1000
G1 X2.678 Y3.296 F1000
M05
G0 X2.678 Y3.296
M03 S255
G1 X2.680 Y3.234 F1000
G1 X2.688 Y3.173 F1000
G1 X2.700 Y3.113 F1000
G1 X2.716 Y3.055 F1000
G1 X2.737 Y2.999 F1000
G1 X2.762 Y2.945 F1000
G1 X2.790 Y2.894 F1000
G1 X2.823 Y2.845 F1000
G1 X2.858 Y2.799 F1000
G1 X2.898 Y2.756 F1000
G1 X2.940 Y2.716 F1000
G1 X2.985 Y2.680 F1000
G1 X3.033 Y2.647 F1000
G1 X3.083 Y2.617 F1000
G1 X3.136 Y2.592 F1000
G1 X3.191 Y2.571 F1000
G1 X3.248 Y2.554 F1000
G1 X3.306 Y2.542 F1000
G1 X3.366 Y2.535 F1000
G1 X3.428 Y2.532 F1000
M05
G0 X3.428 Y2.532
M03 S255
G1 X3.489 Y2.535 F1000
G1 X3.550 Y2.542 F1000
G1 X3.608 Y2.554 F1000
G1 X3.665 Y2.571 F1000
G1 X3.720 Y2.592 F1000
G1 X3.773 Y2.617 F1000
G1 X3.823 Y2.647 F1000
G1 X3.871 Y2.680 F1000
G1 X3.916 Y2.716 F1000
G1 X3.958 Y2.756 F1000
G1 X3.997 Y2.799 F1000
G1 X4.033 Y2.845 F1000
G1 X4.066 Y2.894 F1000
G1 X4.094 Y2.945 F1000
G1 X4.119 Y2.999 F1000
G1 X4.140 Y3.055 F1000
G1 X4.156 Y3.113 F1000
G1 X4.168 Y3.173 F1000
G1 X4.175 Y3.234 F1000
G1 X4.178 Y3.296 F1000
M05
G0 X7.184 Y3.253
M03 S255
G1 X7.182 Y3.316 F1000
G1 X7.174 Y3.377 F1000
G1 X7.163 Y3.437 F1000
G1 X7.146 Y3.495 F1000
G1 X7.125 Y3.551 F1000
G1 X7.101 Y3.604 F1000
G1 X7.072 Y3.656 F1000
G1 X7.040 Y3.704 F1000
G1 X7.004 Y3.750 F1000
G1 X6.965 Y3.793 F1000
G1 X6.922 Y3.833 F1000
G1 X6.877 Y3.870 F1000
G1 X6.829 Y3.903 F1000
G1 X6.779 Y3.932 F1000
G1 X6.726 Y3.957 F1000
G1 X6.671 Y3.978 F1000
G1 X6.615 Y3.995 F1000
G1 X6.556 Y4.007 F1000
G1 X6.496 Y4.015 F1000
G1 X6.434 Y4.017 F1000
M05
G0 X6.434 Y4.017
M03 S255
G1 X6.373 Y4.015 F1000
G1 X6.313 Y4.007 F1000
G1 X6.254 Y3.995 F1000
G1 X6.197 Y3.978 F1000
G1 X6.142 Y3.957 F1000
G1 X6.090 Y3.932 F1000
G1 X6.039 Y3.903 F1000
G1 X5.991 Y3.870 F1000
G1 X5.946 Y3.833 F1000
G1 X5.904 Y3.793 F1000
G1 X5.865 Y3.750 F1000
G1 X5.829 Y3.704 F1000
G1 X5.797 Y3.656 F1000
G1 X5.768 Y3.604 F1000
G1 X5.743 Y3.551 F1000
G1 X5.722 Y3.495 F1000
G1 X5.706 Y3.437 F1000
G1 X5.694 Y3.377 F1000
G1 X5.687 Y3.316 F1000
G1 X5.684 Y3.253 F1000
M05
G0 X5.684 Y3.253
M03 S255
G1 X5.687 Y3.190 F1000
G1 X5.694 Y3.129 F1000
G1 X5.706 Y3.069 F1000
G1 X5.722 Y3.011 F1000
G1 X5.743 Y2.956 F1000
G1 X5.768 Y2.902 F1000
G1 X5.797 Y2.850 F1000
G1 X5.829 Y2.802 F1000
G1 X5.865 Y2.756 F1000
G1 X5.904 Y2.713 F1000
G1 X5.946 Y2.673 F1000
G1 X5.991 Y2.636 F1000
G1 X6.039 Y2.603 F1000
G1 X6.090 Y2.574 F1000
G1 X6.142 Y2.549 F1000
G1 X6.197 Y2.528 F1000
G1 X6.254 Y2.511 F1000
G1 X6.313 Y2.499 F1000
G1 X6.373 Y2.491 F1000
G1 X6.434 Y2.489 F1000
M05
G0 X6.434 Y2.489
M03 S255
G1 X6.496 Y2.491 F1000
G1 X6.556 Y2.499 F1000
G1 X6.615 Y2.511 F1000
G1 X6.671 Y2.528 F1000
G1 X6.726 Y2.549 F1000
G1 X6.779 Y2.574 F1000
G1 X6.829 Y2.603 F1000
G1 X6.877 Y2.636 F1000
G1 X6.922 Y2.673 F1000
G1 X6.965 Y2.713 F1000
G1 X7.004 Y2.756 F1000
G1 X7.040 Y2.802 F1000
G1 X7.072 Y2.850 F1000
G1 X7.101 Y2.902 F1000
G1 X7.125 Y2.956 F1000
G1 X7.146 Y3.011 F1000
G1 X7.163 Y3.069 F1000
G1 X7.174 Y3.129 F1000
G1 X7.182 Y3.190 F1000
G1 X7.184 Y3.253 F1000
M05
G0 X0 Y0 ; Move to origin
M30 ; End of program
