; G-code generated from SVG
G21 ; Set units to mm
G90 ; Absolute positioning
G0 X7.800 Y9.143
M03 S255
G1 X4.948 Y7.737 F100.0 
M05
G0 X4.948 Y7.737
M03 S255
G1 X2.172 Y9.289 F100.0 
M05
G0 X2.172 Y9.289
M03 S255
G1 X2.629 Y6.142 F100.0 
M05
G0 X2.629 Y6.142
M03 S255
G1 X0.294 Y3.982 F100.0 
M05
G0 X0.294 Y3.982
M03 S255
G1 X3.429 Y3.443 F100.0 
M05
G0 X3.429 Y3.443
M03 S255
G1 X4.762 Y0.556 F100.0 
M05
G0 X4.762 Y0.556
M03 S255
G1 X6.243 Y3.370 F100.0 
M05
G0 X6.243 Y3.370
M03 S255
G1 X9.401 Y3.746 F100.0 
M05
G0 X9.401 Y3.746
M03 S255
G1 X7.182 Y6.024 F100.0 
M05
G0 X7.182 Y6.024
M03 S255
G1 X7.800 Y9.143 F100.0 
M05
G0 X0 Y0 ; Move to origin
M30 ; End of program
