; G-code generated from SVG
G21 ; Set units to mm
G90 ; Absolute positioning
G0 X7.996 Y0.099
M03 S255
G1 X7.981 Y0.114 F1000
G1 X7.968 Y0.127 F1000
G1 X7.956 Y0.138 F1000
G1 X7.945 Y0.151 F1000
G1 X7.936 Y0.165 F1000
G1 X7.929 Y0.181 F1000
G1 X7.924 Y0.202 F1000
G1 X7.920 Y0.229 F1000
G1 X7.917 Y0.262 F1000
G1 X7.916 Y0.302 F1000
G1 X7.917 Y0.352 F1000
G1 X7.920 Y0.413 F1000
G1 X7.924 Y0.485 F1000
G1 X7.929 Y0.570 F1000
G1 X7.936 Y0.669 F1000
G1 X7.945 Y0.784 F1000
G1 X7.956 Y0.915 F1000
G1 X7.968 Y1.065 F1000
G1 X7.981 Y1.233 F1000
G1 X7.996 Y1.422 F1000
M05
G0 X7.996 Y1.422
M03 S255
G1 X8.003 Y1.508 F1000
G1 X8.010 Y1.588 F1000
G1 X8.017 Y1.662 F1000
G1 X8.024 Y1.729 F1000
G1 X8.031 Y1.791 F1000
G1 X8.038 Y1.847 F1000
G1 X8.044 Y1.897 F1000
G1 X8.051 Y1.941 F1000
G1 X8.058 Y1.979 F1000
G1 X8.064 Y2.012 F1000
G1 X8.071 Y2.038 F1000
G1 X8.077 Y2.058 F1000
G1 X8.083 Y2.073 F1000
G1 X8.090 Y2.081 F1000
G1 X8.096 Y2.084 F1000
G1 X8.102 Y2.081 F1000
G1 X8.108 Y2.072 F1000
G1 X8.114 Y2.057 F1000
G1 X8.120 Y2.036 F1000
G1 X8.126 Y2.010 F1000
M05
G0 X8.126 Y2.010
M03 S255
G1 X8.128 Y2.000 F1000
G1 X8.129 Y1.985 F1000
G1 X8.131 Y1.967 F1000
G1 X8.134 Y1.945 F1000
G1 X8.136 Y1.919 F1000
G1 X8.139 Y1.889 F1000
G1 X8.142 Y1.856 F1000
G1 X8.145 Y1.820 F1000
G1 X8.148 Y1.782 F1000
G1 X8.152 Y1.740 F1000
G1 X8.155 Y1.696 F1000
G1 X8.159 Y1.650 F1000
G1 X8.163 Y1.602 F1000
G1 X8.167 Y1.552 F1000
G1 X8.171 Y1.500 F1000
G1 X8.174 Y1.447 F1000
G1 X8.178 Y1.393 F1000
G1 X8.182 Y1.338 F1000
G1 X8.186 Y1.282 F1000
G1 X8.189 Y1.225 F1000
M05
G0 X8.189 Y1.225
M03 S255
G1 X8.193 Y1.169 F1000
G1 X8.196 Y1.112 F1000
G1 X8.200 Y1.056 F1000
G1 X8.204 Y1.000 F1000
G1 X8.207 Y0.946 F1000
G1 X8.211 Y0.892 F1000
G1 X8.215 Y0.840 F1000
G1 X8.218 Y0.789 F1000
G1 X8.222 Y0.739 F1000
G1 X8.225 Y0.692 F1000
G1 X8.229 Y0.647 F1000
G1 X8.232 Y0.604 F1000
G1 X8.235 Y0.564 F1000
G1 X8.238 Y0.527 F1000
G1 X8.241 Y0.492 F1000
G1 X8.244 Y0.461 F1000
G1 X8.246 Y0.434 F1000
G1 X8.248 Y0.410 F1000
G1 X8.250 Y0.390 F1000
G1 X8.252 Y0.374 F1000
M05
G0 X8.252 Y0.374
M03 S255
G1 X8.255 Y0.355 F1000
G1 X8.257 Y0.338 F1000
G1 X8.259 Y0.321 F1000
G1 X8.260 Y0.305 F1000
G1 X8.260 Y0.290 F1000
G1 X8.260 Y0.275 F1000
G1 X8.259 Y0.262 F1000
G1 X8.258 Y0.249 F1000
G1 X8.255 Y0.236 F1000
G1 X8.252 Y0.224 F1000
G1 X8.249 Y0.212 F1000
G1 X8.244 Y0.201 F1000
G1 X8.239 Y0.189 F1000
G1 X8.234 Y0.178 F1000
G1 X8.227 Y0.166 F1000
G1 X8.219 Y0.155 F1000
G1 X8.211 Y0.143 F1000
G1 X8.202 Y0.131 F1000
G1 X8.192 Y0.119 F1000
G1 X8.181 Y0.106 F1000
M05
G0 X8.181 Y0.106
M03 S255
G1 X8.177 Y0.101 F1000
G1 X8.172 Y0.096 F1000
G1 X8.168 Y0.090 F1000
G1 X8.163 Y0.085 F1000
G1 X8.159 Y0.080 F1000
G1 X8.154 Y0.074 F1000
G1 X8.150 Y0.069 F1000
G1 X8.145 Y0.064 F1000
G1 X8.141 Y0.058 F1000
G1 X8.136 Y0.053 F1000
G1 X8.131 Y0.048 F1000
G1 X8.127 Y0.043 F1000
G1 X8.122 Y0.037 F1000
G1 X8.118 Y0.032 F1000
G1 X8.113 Y0.027 F1000
G1 X8.109 Y0.021 F1000
G1 X8.104 Y0.016 F1000
G1 X8.100 Y0.011 F1000
G1 X8.095 Y0.005 F1000
G1 X8.091 Y0.000 F1000
M05
G0 X8.091 Y0.000
M03 S255
G1 X8.086 Y0.005 F1000
G1 X8.081 Y0.010 F1000
G1 X8.077 Y0.015 F1000
G1 X8.072 Y0.020 F1000
G1 X8.067 Y0.025 F1000
G1 X8.062 Y0.030 F1000
G1 X8.058 Y0.035 F1000
G1 X8.053 Y0.039 F1000
G1 X8.048 Y0.044 F1000
G1 X8.043 Y0.049 F1000
G1 X8.039 Y0.054 F1000
G1 X8.034 Y0.059 F1000
G1 X8.029 Y0.064 F1000
G1 X8.025 Y0.069 F1000
G1 X8.020 Y0.074 F1000
G1 X8.015 Y0.079 F1000
G1 X8.010 Y0.084 F1000
G1 X8.006 Y0.089 F1000
G1 X8.001 Y0.094 F1000
G1 X7.996 Y0.099 F1000
M05
G0 X7.996 Y0.099
M03 S255
G1 X7.996 Y0.099 F1000
G1 X7.996 Y0.099 F1000
G1 X7.996 Y0.099 F1000
G1 X7.996 Y0.099 F1000
G1 X7.996 Y0.099 F1000
G1 X7.996 Y0.099 F1000
G1 X7.996 Y0.099 F1000
G1 X7.996 Y0.099 F1000
G1 X7.996 Y0.099 F1000
G1 X7.996 Y0.099 F1000
G1 X7.996 Y0.099 F1000
G1 X7.996 Y0.099 F1000
G1 X7.996 Y0.099 F1000
G1 X7.996 Y0.099 F1000
G1 X7.996 Y0.099 F1000
G1 X7.996 Y0.099 F1000
G1 X7.996 Y0.099 F1000
G1 X7.996 Y0.099 F1000
G1 X7.996 Y0.099 F1000
G1 X7.996 Y0.099 F1000
M05
G0 X6.968 Y0.316
M03 S255
G1 X6.965 Y0.323 F1000
G1 X6.962 Y0.330 F1000
G1 X6.959 Y0.337 F1000
G1 X6.956 Y0.344 F1000
G1 X6.953 Y0.352 F1000
G1 X6.950 Y0.360 F1000
G1 X6.948 Y0.368 F1000
G1 X6.945 Y0.376 F1000
G1 X6.943 Y0.384 F1000
G1 X6.941 Y0.392 F1000
G1 X6.938 Y0.400 F1000
G1 X6.937 Y0.409 F1000
G1 X6.935 Y0.416 F1000
G1 X6.933 Y0.424 F1000
G1 X6.932 Y0.432 F1000
G1 X6.931 Y0.439 F1000
G1 X6.930 Y0.446 F1000
G1 X6.929 Y0.453 F1000
G1 X6.928 Y0.460 F1000
G1 X6.928 Y0.466 F1000
M05
G0 X6.928 Y0.466
M03 S255
G1 X6.934 Y0.487 F1000
G1 X6.951 Y0.528 F1000
G1 X6.977 Y0.587 F1000
G1 X7.011 Y0.661 F1000
G1 X7.053 Y0.748 F1000
G1 X7.102 Y0.846 F1000
G1 X7.155 Y0.952 F1000
G1 X7.212 Y1.066 F1000
G1 X7.272 Y1.184 F1000
G1 X7.334 Y1.304 F1000
G1 X7.397 Y1.424 F1000
G1 X7.459 Y1.542 F1000
G1 X7.519 Y1.656 F1000
G1 X7.576 Y1.763 F1000
G1 X7.630 Y1.862 F1000
G1 X7.678 Y1.950 F1000
G1 X7.721 Y2.025 F1000
G1 X7.756 Y2.084 F1000
G1 X7.782 Y2.126 F1000
G1 X7.799 Y2.148 F1000
M05
G0 X7.799 Y2.148
M03 S255
G1 X7.810 Y2.158 F1000
G1 X7.818 Y2.164 F1000
G1 X7.824 Y2.165 F1000
G1 X7.829 Y2.162 F1000
G1 X7.831 Y2.154 F1000
G1 X7.831 Y2.140 F1000
G1 X7.828 Y2.121 F1000
G1 X7.823 Y2.095 F1000
G1 X7.816 Y2.064 F1000
G1 X7.806 Y2.025 F1000
G1 X7.793 Y1.980 F1000
G1 X7.778 Y1.928 F1000
G1 X7.760 Y1.868 F1000
G1 X7.739 Y1.800 F1000
G1 X7.715 Y1.724 F1000
G1 X7.688 Y1.639 F1000
G1 X7.658 Y1.546 F1000
G1 X7.624 Y1.444 F1000
G1 X7.587 Y1.332 F1000
G1 X7.547 Y1.211 F1000
M05
G0 X7.547 Y1.211
M03 S255
G1 X7.512 Y1.108 F1000
G1 X7.480 Y1.013 F1000
G1 X7.450 Y0.926 F1000
G1 X7.423 Y0.846 F1000
G1 X7.397 Y0.774 F1000
G1 X7.373 Y0.708 F1000
G1 X7.352 Y0.648 F1000
G1 X7.331 Y0.594 F1000
G1 X7.313 Y0.546 F1000
G1 X7.295 Y0.504 F1000
G1 X7.279 Y0.466 F1000
G1 X7.264 Y0.433 F1000
G1 X7.250 Y0.405 F1000
G1 X7.237 Y0.380 F1000
G1 X7.224 Y0.359 F1000
G1 X7.212 Y0.341 F1000
G1 X7.200 Y0.326 F1000
G1 X7.188 Y0.314 F1000
G1 X7.176 Y0.304 F1000
G1 X7.165 Y0.296 F1000
M05
G0 X7.165 Y0.296
M03 S255
G1 X7.146 Y0.286 F1000
G1 X7.129 Y0.277 F1000
G1 X7.113 Y0.269 F1000
G1 X7.099 Y0.263 F1000
G1 X7.086 Y0.257 F1000
G1 X7.074 Y0.253 F1000
G1 X7.063 Y0.250 F1000
G1 X7.053 Y0.248 F1000
G1 X7.044 Y0.247 F1000
G1 X7.035 Y0.247 F1000
G1 X7.027 Y0.249 F1000
G1 X7.020 Y0.251 F1000
G1 X7.013 Y0.255 F1000
G1 X7.007 Y0.260 F1000
G1 X7.000 Y0.267 F1000
G1 X6.994 Y0.274 F1000
G1 X6.988 Y0.283 F1000
G1 X6.981 Y0.293 F1000
G1 X6.975 Y0.304 F1000
G1 X6.968 Y0.316 F1000
M05
G0 X6.968 Y0.316
M03 S255
G1 X6.968 Y0.316 F1000
G1 X6.968 Y0.316 F1000
G1 X6.968 Y0.316 F1000
G1 X6.968 Y0.316 F1000
G1 X6.968 Y0.316 F1000
G1 X6.968 Y0.316 F1000
G1 X6.968 Y0.316 F1000
G1 X6.968 Y0.316 F1000
G1 X6.968 Y0.316 F1000
G1 X6.968 Y0.316 F1000
G1 X6.968 Y0.316 F1000
G1 X6.968 Y0.316 F1000
G1 X6.968 Y0.316 F1000
G1 X6.968 Y0.316 F1000
G1 X6.968 Y0.316 F1000
G1 X6.968 Y0.316 F1000
G1 X6.968 Y0.316 F1000
G1 X6.968 Y0.316 F1000
G1 X6.968 Y0.316 F1000
G1 X6.968 Y0.316 F1000
M05
G0 X9.013 Y0.300
M03 S255
G1 X9.000 Y0.307 F1000
G1 X8.987 Y0.317 F1000
G1 X8.975 Y0.328 F1000
G1 X8.963 Y0.342 F1000
G1 X8.950 Y0.359 F1000
G1 X8.937 Y0.379 F1000
G1 X8.924 Y0.403 F1000
G1 X8.910 Y0.430 F1000
G1 X8.895 Y0.463 F1000
G1 X8.879 Y0.500 F1000
G1 X8.862 Y0.542 F1000
G1 X8.843 Y0.590 F1000
G1 X8.823 Y0.644 F1000
G1 X8.801 Y0.704 F1000
G1 X8.778 Y0.772 F1000
G1 X8.752 Y0.846 F1000
G1 X8.725 Y0.929 F1000
G1 X8.695 Y1.019 F1000
G1 X8.662 Y1.118 F1000
G1 X8.627 Y1.226 F1000
M05
G0 X8.627 Y1.226
M03 S255
G1 X8.603 Y1.297 F1000
G1 X8.581 Y1.366 F1000
G1 X8.558 Y1.435 F1000
G1 X8.537 Y1.501 F1000
G1 X8.517 Y1.566 F1000
G1 X8.497 Y1.629 F1000
G1 X8.478 Y1.689 F1000
G1 X8.461 Y1.746 F1000
G1 X8.444 Y1.801 F1000
G1 X8.429 Y1.853 F1000
G1 X8.414 Y1.901 F1000
G1 X8.402 Y1.945 F1000
G1 X8.390 Y1.986 F1000
G1 X8.380 Y2.022 F1000
G1 X8.372 Y2.054 F1000
G1 X8.365 Y2.081 F1000
G1 X8.360 Y2.104 F1000
G1 X8.356 Y2.121 F1000
G1 X8.354 Y2.133 F1000
G1 X8.355 Y2.140 F1000
M05
G0 X8.355 Y2.140
M03 S255
G1 X8.358 Y2.141 F1000
G1 X8.364 Y2.137 F1000
G1 X8.373 Y2.127 F1000
G1 X8.384 Y2.113 F1000
G1 X8.397 Y2.093 F1000
G1 X8.413 Y2.069 F1000
G1 X8.432 Y2.040 F1000
G1 X8.452 Y2.007 F1000
G1 X8.474 Y1.970 F1000
G1 X8.498 Y1.929 F1000
G1 X8.524 Y1.885 F1000
G1 X8.551 Y1.837 F1000
G1 X8.580 Y1.786 F1000
G1 X8.611 Y1.732 F1000
G1 X8.642 Y1.675 F1000
G1 X8.675 Y1.615 F1000
G1 X8.709 Y1.553 F1000
G1 X8.744 Y1.489 F1000
G1 X8.779 Y1.423 F1000
G1 X8.816 Y1.356 F1000
M05
G0 X8.816 Y1.356
M03 S255
G1 X8.873 Y1.247 F1000
G1 X8.925 Y1.148 F1000
G1 X8.972 Y1.058 F1000
G1 X9.014 Y0.976 F1000
G1 X9.051 Y0.902 F1000
G1 X9.085 Y0.836 F1000
G1 X9.114 Y0.776 F1000
G1 X9.140 Y0.723 F1000
G1 X9.161 Y0.676 F1000
G1 X9.180 Y0.634 F1000
G1 X9.195 Y0.597 F1000
G1 X9.207 Y0.564 F1000
G1 X9.216 Y0.535 F1000
G1 X9.223 Y0.509 F1000
G1 X9.228 Y0.486 F1000
G1 X9.230 Y0.465 F1000
G1 X9.230 Y0.446 F1000
G1 X9.229 Y0.428 F1000
G1 X9.226 Y0.411 F1000
G1 X9.222 Y0.394 F1000
M05
G0 X9.222 Y0.394
M03 S255
G1 X9.216 Y0.372 F1000
G1 X9.211 Y0.352 F1000
G1 X9.205 Y0.334 F1000
G1 X9.200 Y0.318 F1000
G1 X9.194 Y0.304 F1000
G1 X9.187 Y0.292 F1000
G1 X9.180 Y0.281 F1000
G1 X9.173 Y0.273 F1000
G1 X9.164 Y0.266 F1000
G1 X9.156 Y0.261 F1000
G1 X9.146 Y0.258 F1000
G1 X9.136 Y0.256 F1000
G1 X9.124 Y0.256 F1000
G1 X9.112 Y0.258 F1000
G1 X9.099 Y0.261 F1000
G1 X9.084 Y0.266 F1000
G1 X9.068 Y0.272 F1000
G1 X9.051 Y0.280 F1000
G1 X9.033 Y0.289 F1000
G1 X9.013 Y0.300 F1000
M05
G0 X9.013 Y0.300
M03 S255
G1 X9.013 Y0.300 F1000
G1 X9.013 Y0.300 F1000
G1 X9.013 Y0.300 F1000
G1 X9.013 Y0.300 F1000
G1 X9.013 Y0.300 F1000
G1 X9.013 Y0.300 F1000
G1 X9.013 Y0.300 F1000
G1 X9.013 Y0.300 F1000
G1 X9.013 Y0.300 F1000
G1 X9.013 Y0.300 F1000
G1 X9.013 Y0.300 F1000
G1 X9.013 Y0.300 F1000
G1 X9.013 Y0.300 F1000
G1 X9.013 Y0.300 F1000
G1 X9.013 Y0.300 F1000
G1 X9.013 Y0.300 F1000
G1 X9.013 Y0.300 F1000
G1 X9.013 Y0.300 F1000
G1 X9.013 Y0.300 F1000
G1 X9.013 Y0.300 F1000
M05
G0 X5.943 Y0.910
M03 S255
G1 X5.944 Y0.934 F1000
G1 X5.944 Y0.955 F1000
G1 X5.946 Y0.975 F1000
G1 X5.950 Y0.994 F1000
G1 X5.955 Y1.014 F1000
G1 X5.964 Y1.033 F1000
G1 X5.975 Y1.053 F1000
G1 X5.990 Y1.073 F1000
G1 X6.008 Y1.096 F1000
G1 X6.031 Y1.121 F1000
G1 X6.060 Y1.148 F1000
G1 X6.093 Y1.178 F1000
G1 X6.133 Y1.212 F1000
G1 X6.178 Y1.250 F1000
G1 X6.231 Y1.292 F1000
G1 X6.291 Y1.340 F1000
G1 X6.359 Y1.392 F1000
G1 X6.435 Y1.451 F1000
G1 X6.519 Y1.516 F1000
G1 X6.613 Y1.588 F1000
M05
G0 X6.613 Y1.588
M03 S255
G1 X6.626 Y1.598 F1000
G1 X6.641 Y1.610 F1000
G1 X6.658 Y1.623 F1000
G1 X6.677 Y1.638 F1000
G1 X6.699 Y1.655 F1000
G1 X6.722 Y1.673 F1000
G1 X6.747 Y1.692 F1000
G1 X6.774 Y1.712 F1000
G1 X6.802 Y1.734 F1000
G1 X6.831 Y1.756 F1000
G1 X6.861 Y1.779 F1000
G1 X6.893 Y1.804 F1000
G1 X6.925 Y1.828 F1000
G1 X6.958 Y1.853 F1000
G1 X6.991 Y1.879 F1000
G1 X7.025 Y1.905 F1000
G1 X7.059 Y1.931 F1000
G1 X7.093 Y1.958 F1000
G1 X7.127 Y1.984 F1000
G1 X7.161 Y2.010 F1000
M05
G0 X7.161 Y2.010
M03 S255
G1 X7.194 Y2.036 F1000
G1 X7.227 Y2.062 F1000
G1 X7.260 Y2.087 F1000
G1 X7.292 Y2.111 F1000
G1 X7.323 Y2.135 F1000
G1 X7.353 Y2.157 F1000
G1 X7.382 Y2.178 F1000
G1 X7.410 Y2.199 F1000
G1 X7.437 Y2.218 F1000
G1 X7.462 Y2.236 F1000
G1 X7.486 Y2.252 F1000
G1 X7.508 Y2.268 F1000
G1 X7.528 Y2.281 F1000
G1 X7.547 Y2.294 F1000
G1 X7.563 Y2.304 F1000
G1 X7.577 Y2.313 F1000
G1 X7.589 Y2.320 F1000
G1 X7.599 Y2.325 F1000
G1 X7.606 Y2.328 F1000
G1 X7.610 Y2.329 F1000
M05
G0 X7.610 Y2.329
M03 S255
G1 X7.615 Y2.329 F1000
G1 X7.620 Y2.328 F1000
G1 X7.623 Y2.326 F1000
G1 X7.625 Y2.324 F1000
G1 X7.626 Y2.320 F1000
G1 X7.624 Y2.315 F1000
G1 X7.622 Y2.308 F1000
G1 X7.617 Y2.299 F1000
G1 X7.610 Y2.289 F1000
G1 X7.601 Y2.276 F1000
G1 X7.590 Y2.261 F1000
G1 X7.576 Y2.244 F1000
G1 X7.560 Y2.224 F1000
G1 X7.541 Y2.201 F1000
G1 X7.519 Y2.174 F1000
G1 X7.494 Y2.145 F1000
G1 X7.466 Y2.112 F1000
G1 X7.435 Y2.075 F1000
G1 X7.400 Y2.035 F1000
G1 X7.362 Y1.990 F1000
M05
G0 X7.362 Y1.990
M03 S255
G1 X7.350 Y1.976 F1000
G1 X7.337 Y1.961 F1000
G1 X7.323 Y1.945 F1000
G1 X7.309 Y1.928 F1000
G1 X7.293 Y1.910 F1000
G1 X7.277 Y1.891 F1000
G1 X7.261 Y1.872 F1000
G1 X7.243 Y1.852 F1000
G1 X7.226 Y1.831 F1000
G1 X7.208 Y1.810 F1000
G1 X7.189 Y1.788 F1000
G1 X7.171 Y1.767 F1000
G1 X7.152 Y1.745 F1000
G1 X7.134 Y1.723 F1000
G1 X7.115 Y1.702 F1000
G1 X7.097 Y1.681 F1000
G1 X7.079 Y1.660 F1000
G1 X7.061 Y1.639 F1000
G1 X7.043 Y1.619 F1000
G1 X7.027 Y1.600 F1000
M05
G0 X7.027 Y1.600
M03 S255
G1 X6.925 Y1.481 F1000
G1 X6.833 Y1.373 F1000
G1 X6.750 Y1.277 F1000
G1 X6.676 Y1.191 F1000
G1 X6.610 Y1.115 F1000
G1 X6.550 Y1.049 F1000
G1 X6.498 Y0.991 F1000
G1 X6.451 Y0.941 F1000
G1 X6.410 Y0.899 F1000
G1 X6.374 Y0.863 F1000
G1 X6.341 Y0.834 F1000
G1 X6.311 Y0.811 F1000
G1 X6.285 Y0.792 F1000
G1 X6.260 Y0.778 F1000
G1 X6.237 Y0.768 F1000
G1 X6.214 Y0.761 F1000
G1 X6.191 Y0.757 F1000
G1 X6.168 Y0.754 F1000
G1 X6.143 Y0.753 F1000
G1 X6.117 Y0.753 F1000
M05
G0 X6.117 Y0.753
M03 S255
G1 X6.108 Y0.753 F1000
G1 X6.099 Y0.753 F1000
G1 X6.091 Y0.753 F1000
G1 X6.082 Y0.753 F1000
G1 X6.073 Y0.753 F1000
G1 X6.065 Y0.753 F1000
G1 X6.056 Y0.753 F1000
G1 X6.047 Y0.753 F1000
G1 X6.039 Y0.753 F1000
G1 X6.030 Y0.753 F1000
G1 X6.021 Y0.753 F1000
G1 X6.013 Y0.753 F1000
G1 X6.004 Y0.753 F1000
G1 X5.995 Y0.753 F1000
G1 X5.987 Y0.753 F1000
G1 X5.978 Y0.753 F1000
G1 X5.969 Y0.753 F1000
G1 X5.961 Y0.753 F1000
G1 X5.952 Y0.753 F1000
G1 X5.943 Y0.753 F1000
M05
G0 X5.943 Y0.753
M03 S255
G1 X5.943 Y0.761 F1000
G1 X5.943 Y0.769 F1000
G1 X5.943 Y0.777 F1000
G1 X5.943 Y0.784 F1000
G1 X5.943 Y0.792 F1000
G1 X5.943 Y0.800 F1000
G1 X5.943 Y0.808 F1000
G1 X5.943 Y0.816 F1000
G1 X5.943 Y0.824 F1000
G1 X5.943 Y0.832 F1000
G1 X5.943 Y0.840 F1000
G1 X5.943 Y0.847 F1000
G1 X5.943 Y0.855 F1000
G1 X5.943 Y0.863 F1000
G1 X5.943 Y0.871 F1000
G1 X5.943 Y0.879 F1000
G1 X5.943 Y0.887 F1000
G1 X5.943 Y0.895 F1000
G1 X5.943 Y0.902 F1000
G1 X5.943 Y0.910 F1000
M05
G0 X5.943 Y0.910
M03 S255
G1 X5.943 Y0.910 F1000
G1 X5.943 Y0.910 F1000
G1 X5.943 Y0.910 F1000
G1 X5.943 Y0.910 F1000
G1 X5.943 Y0.910 F1000
G1 X5.943 Y0.910 F1000
G1 X5.943 Y0.910 F1000
G1 X5.943 Y0.910 F1000
G1 X5.943 Y0.910 F1000
G1 X5.943 Y0.910 F1000
G1 X5.943 Y0.910 F1000
G1 X5.943 Y0.910 F1000
G1 X5.943 Y0.910 F1000
G1 X5.943 Y0.910 F1000
G1 X5.943 Y0.910 F1000
G1 X5.943 Y0.910 F1000
G1 X5.943 Y0.910 F1000
G1 X5.943 Y0.910 F1000
G1 X5.943 Y0.910 F1000
G1 X5.943 Y0.910 F1000
M05
G0 X9.328 Y1.392
M03 S255
G1 X9.213 Y1.523 F1000
G1 X9.111 Y1.641 F1000
G1 X9.019 Y1.747 F1000
G1 X8.938 Y1.840 F1000
G1 X8.866 Y1.923 F1000
G1 X8.804 Y1.995 F1000
G1 X8.750 Y2.057 F1000
G1 X8.705 Y2.111 F1000
G1 X8.667 Y2.156 F1000
G1 X8.636 Y2.194 F1000
G1 X8.611 Y2.225 F1000
G1 X8.591 Y2.250 F1000
G1 X8.577 Y2.269 F1000
G1 X8.566 Y2.285 F1000
G1 X8.560 Y2.296 F1000
G1 X8.557 Y2.304 F1000
G1 X8.556 Y2.310 F1000
G1 X8.558 Y2.315 F1000
G1 X8.560 Y2.318 F1000
G1 X8.564 Y2.322 F1000
M05
G0 X8.564 Y2.322
M03 S255
G1 X8.568 Y2.323 F1000
G1 X8.577 Y2.320 F1000
G1 X8.591 Y2.313 F1000
G1 X8.610 Y2.303 F1000
G1 X8.633 Y2.288 F1000
G1 X8.662 Y2.268 F1000
G1 X8.696 Y2.245 F1000
G1 X8.736 Y2.216 F1000
G1 X8.782 Y2.183 F1000
G1 X8.834 Y2.145 F1000
G1 X8.892 Y2.102 F1000
G1 X8.956 Y2.053 F1000
G1 X9.027 Y2.000 F1000
G1 X9.105 Y1.940 F1000
G1 X9.189 Y1.876 F1000
G1 X9.281 Y1.805 F1000
G1 X9.380 Y1.729 F1000
G1 X9.486 Y1.646 F1000
G1 X9.600 Y1.558 F1000
G1 X9.722 Y1.463 F1000
M05
G0 X9.722 Y1.463
M03 S255
G1 X9.791 Y1.409 F1000
G1 X9.854 Y1.360 F1000
G1 X9.911 Y1.316 F1000
G1 X9.962 Y1.275 F1000
G1 X10.007 Y1.238 F1000
G1 X10.047 Y1.205 F1000
G1 X10.082 Y1.174 F1000
G1 X10.113 Y1.146 F1000
G1 X10.139 Y1.121 F1000
G1 X10.162 Y1.097 F1000
G1 X10.181 Y1.075 F1000
G1 X10.196 Y1.054 F1000
G1 X10.209 Y1.034 F1000
G1 X10.218 Y1.015 F1000
G1 X10.226 Y0.996 F1000
G1 X10.231 Y0.977 F1000
G1 X10.235 Y0.957 F1000
G1 X10.237 Y0.936 F1000
G1 X10.238 Y0.915 F1000
G1 X10.238 Y0.891 F1000
M05
G0 X10.238 Y0.891
M03 S255
G1 X10.238 Y0.872 F1000
G1 X10.238 Y0.854 F1000
G1 X10.238 Y0.838 F1000
G1 X10.237 Y0.824 F1000
G1 X10.236 Y0.812 F1000
G1 X10.234 Y0.801 F1000
G1 X10.231 Y0.791 F1000
G1 X10.227 Y0.783 F1000
G1 X10.222 Y0.776 F1000
G1 X10.216 Y0.771 F1000
G1 X10.209 Y0.766 F1000
G1 X10.200 Y0.762 F1000
G1 X10.190 Y0.759 F1000
G1 X10.178 Y0.757 F1000
G1 X10.164 Y0.755 F1000
G1 X10.148 Y0.754 F1000
G1 X10.129 Y0.754 F1000
G1 X10.109 Y0.753 F1000
G1 X10.086 Y0.753 F1000
G1 X10.061 Y0.753 F1000
M05
G0 X10.061 Y0.753
M03 S255
G1 X10.052 Y0.753 F1000
G1 X10.044 Y0.753 F1000
G1 X10.035 Y0.753 F1000
G1 X10.026 Y0.753 F1000
G1 X10.018 Y0.753 F1000
G1 X10.009 Y0.753 F1000
G1 X10.000 Y0.753 F1000
G1 X9.992 Y0.753 F1000
G1 X9.983 Y0.753 F1000
G1 X9.974 Y0.753 F1000
G1 X9.966 Y0.753 F1000
G1 X9.957 Y0.753 F1000
G1 X9.948 Y0.753 F1000
G1 X9.940 Y0.753 F1000
G1 X9.931 Y0.753 F1000
G1 X9.922 Y0.753 F1000
G1 X9.914 Y0.753 F1000
G1 X9.905 Y0.753 F1000
G1 X9.896 Y0.753 F1000
G1 X9.888 Y0.753 F1000
M05
G0 X9.888 Y0.753
M03 S255
G1 X9.860 Y0.785 F1000
G1 X9.832 Y0.817 F1000
G1 X9.804 Y0.849 F1000
G1 X9.776 Y0.881 F1000
G1 X9.748 Y0.913 F1000
G1 X9.720 Y0.945 F1000
G1 X9.692 Y0.977 F1000
G1 X9.664 Y1.009 F1000
G1 X9.636 Y1.041 F1000
G1 X9.608 Y1.073 F1000
G1 X9.580 Y1.104 F1000
G1 X9.552 Y1.136 F1000
G1 X9.524 Y1.168 F1000
G1 X9.496 Y1.200 F1000
G1 X9.468 Y1.232 F1000
G1 X9.440 Y1.264 F1000
G1 X9.412 Y1.296 F1000
G1 X9.384 Y1.328 F1000
G1 X9.356 Y1.360 F1000
G1 X9.328 Y1.392 F1000
M05
G0 X9.328 Y1.392
M03 S255
G1 X9.328 Y1.392 F1000
G1 X9.328 Y1.392 F1000
G1 X9.328 Y1.392 F1000
G1 X9.328 Y1.392 F1000
G1 X9.328 Y1.392 F1000
G1 X9.328 Y1.392 F1000
G1 X9.328 Y1.392 F1000
G1 X9.328 Y1.392 F1000
G1 X9.328 Y1.392 F1000
G1 X9.328 Y1.392 F1000
G1 X9.328 Y1.392 F1000
G1 X9.328 Y1.392 F1000
G1 X9.328 Y1.392 F1000
G1 X9.328 Y1.392 F1000
G1 X9.328 Y1.392 F1000
G1 X9.328 Y1.392 F1000
G1 X9.328 Y1.392 F1000
G1 X9.328 Y1.392 F1000
G1 X9.328 Y1.392 F1000
G1 X9.328 Y1.392 F1000
M05
G0 X5.009 Y1.505
M03 S255
G1 X4.988 Y1.512 F1000
G1 X4.969 Y1.518 F1000
G1 X4.952 Y1.525 F1000
G1 X4.937 Y1.532 F1000
G1 X4.924 Y1.539 F1000
G1 X4.913 Y1.547 F1000
G1 X4.904 Y1.555 F1000
G1 X4.897 Y1.564 F1000
G1 X4.892 Y1.574 F1000
G1 X4.889 Y1.585 F1000
G1 X4.887 Y1.597 F1000
G1 X4.888 Y1.611 F1000
G1 X4.890 Y1.625 F1000
G1 X4.894 Y1.642 F1000
G1 X4.900 Y1.660 F1000
G1 X4.908 Y1.679 F1000
G1 X4.917 Y1.701 F1000
G1 X4.928 Y1.724 F1000
G1 X4.940 Y1.750 F1000
G1 X4.954 Y1.777 F1000
M05
G0 X4.954 Y1.777
M03 S255
G1 X4.963 Y1.793 F1000
G1 X4.972 Y1.808 F1000
G1 X4.981 Y1.822 F1000
G1 X4.990 Y1.835 F1000
G1 X4.999 Y1.846 F1000
G1 X5.008 Y1.858 F1000
G1 X5.018 Y1.868 F1000
G1 X5.028 Y1.877 F1000
G1 X5.039 Y1.886 F1000
G1 X5.051 Y1.894 F1000
G1 X5.063 Y1.902 F1000
G1 X5.076 Y1.909 F1000
G1 X5.090 Y1.916 F1000
G1 X5.105 Y1.923 F1000
G1 X5.120 Y1.929 F1000
G1 X5.137 Y1.935 F1000
G1 X5.156 Y1.941 F1000
G1 X5.175 Y1.947 F1000
G1 X5.196 Y1.953 F1000
G1 X5.218 Y1.959 F1000
M05
G0 X5.218 Y1.959
M03 S255
G1 X5.255 Y1.967 F1000
G1 X5.306 Y1.980 F1000
G1 X5.371 Y1.996 F1000
G1 X5.448 Y2.016 F1000
G1 X5.536 Y2.039 F1000
G1 X5.633 Y2.064 F1000
G1 X5.738 Y2.092 F1000
G1 X5.850 Y2.121 F1000
G1 X5.968 Y2.152 F1000
G1 X6.090 Y2.185 F1000
G1 X6.214 Y2.218 F1000
G1 X6.339 Y2.251 F1000
G1 X6.464 Y2.284 F1000
G1 X6.588 Y2.318 F1000
G1 X6.709 Y2.350 F1000
G1 X6.826 Y2.382 F1000
G1 X6.937 Y2.412 F1000
G1 X7.042 Y2.440 F1000
G1 X7.138 Y2.467 F1000
G1 X7.224 Y2.490 F1000
M05
G0 X7.224 Y2.490
M03 S255
G1 X7.270 Y2.503 F1000
G1 X7.312 Y2.514 F1000
G1 X7.348 Y2.523 F1000
G1 X7.380 Y2.532 F1000
G1 X7.408 Y2.539 F1000
G1 X7.432 Y2.545 F1000
G1 X7.452 Y2.550 F1000
G1 X7.469 Y2.554 F1000
G1 X7.483 Y2.557 F1000
G1 X7.494 Y2.559 F1000
G1 X7.503 Y2.560 F1000
G1 X7.509 Y2.561 F1000
G1 X7.514 Y2.560 F1000
G1 X7.517 Y2.558 F1000
G1 X7.519 Y2.556 F1000
G1 X7.520 Y2.553 F1000
G1 X7.520 Y2.549 F1000
G1 X7.520 Y2.544 F1000
G1 X7.520 Y2.539 F1000
G1 X7.519 Y2.534 F1000
M05
G0 X7.519 Y2.534
M03 S255
G1 X7.517 Y2.530 F1000
G1 X7.511 Y2.524 F1000
G1 X7.501 Y2.517 F1000
G1 X7.488 Y2.508 F1000
G1 X7.470 Y2.498 F1000
G1 X7.450 Y2.486 F1000
G1 X7.426 Y2.473 F1000
G1 X7.399 Y2.458 F1000
G1 X7.369 Y2.443 F1000
G1 X7.337 Y2.426 F1000
G1 X7.302 Y2.408 F1000
G1 X7.265 Y2.389 F1000
G1 X7.225 Y2.370 F1000
G1 X7.184 Y2.349 F1000
G1 X7.140 Y2.328 F1000
G1 X7.095 Y2.306 F1000
G1 X7.048 Y2.284 F1000
G1 X7.000 Y2.261 F1000
G1 X6.951 Y2.238 F1000
G1 X6.901 Y2.215 F1000
M05
G0 X6.901 Y2.215
M03 S255
G1 X6.849 Y2.190 F1000
G1 X6.796 Y2.165 F1000
G1 X6.742 Y2.140 F1000
G1 X6.687 Y2.114 F1000
G1 X6.633 Y2.088 F1000
G1 X6.578 Y2.063 F1000
G1 X6.523 Y2.037 F1000
G1 X6.469 Y2.012 F1000
G1 X6.415 Y1.987 F1000
G1 X6.363 Y1.962 F1000
G1 X6.311 Y1.938 F1000
G1 X6.262 Y1.914 F1000
G1 X6.213 Y1.892 F1000
G1 X6.167 Y1.870 F1000
G1 X6.123 Y1.849 F1000
G1 X6.081 Y1.830 F1000
G1 X6.042 Y1.812 F1000
G1 X6.006 Y1.795 F1000
G1 X5.973 Y1.779 F1000
G1 X5.943 Y1.765 F1000
M05
G0 X5.943 Y1.765
M03 S255
G1 X5.844 Y1.719 F1000
G1 X5.754 Y1.677 F1000
G1 X5.673 Y1.640 F1000
G1 X5.601 Y1.606 F1000
G1 X5.536 Y1.578 F1000
G1 X5.479 Y1.553 F1000
G1 X5.427 Y1.531 F1000
G1 X5.381 Y1.513 F1000
G1 X5.340 Y1.499 F1000
G1 X5.303 Y1.488 F1000
G1 X5.270 Y1.480 F1000
G1 X5.239 Y1.474 F1000
G1 X5.211 Y1.471 F1000
G1 X5.183 Y1.470 F1000
G1 X5.157 Y1.472 F1000
G1 X5.130 Y1.475 F1000
G1 X5.103 Y1.481 F1000
G1 X5.074 Y1.488 F1000
G1 X5.043 Y1.496 F1000
G1 X5.009 Y1.505 F1000
M05
G0 X5.009 Y1.505
M03 S255
G1 X5.009 Y1.505 F1000
G1 X5.009 Y1.505 F1000
G1 X5.009 Y1.505 F1000
G1 X5.009 Y1.505 F1000
G1 X5.009 Y1.505 F1000
G1 X5.009 Y1.505 F1000
G1 X5.009 Y1.505 F1000
G1 X5.009 Y1.505 F1000
G1 X5.009 Y1.505 F1000
G1 X5.009 Y1.505 F1000
G1 X5.009 Y1.505 F1000
G1 X5.009 Y1.505 F1000
G1 X5.009 Y1.505 F1000
G1 X5.009 Y1.505 F1000
G1 X5.009 Y1.505 F1000
G1 X5.009 Y1.505 F1000
G1 X5.009 Y1.505 F1000
G1 X5.009 Y1.505 F1000
G1 X5.009 Y1.505 F1000
G1 X5.009 Y1.505 F1000
M05
G0 X10.652 Y1.577
M03 S255
G1 X10.613 Y1.595 F1000
G1 X10.573 Y1.613 F1000
G1 X10.532 Y1.632 F1000
G1 X10.490 Y1.651 F1000
G1 X10.447 Y1.670 F1000
G1 X10.404 Y1.690 F1000
G1 X10.359 Y1.711 F1000
G1 X10.313 Y1.732 F1000
G1 X10.267 Y1.754 F1000
G1 X10.219 Y1.776 F1000
G1 X10.170 Y1.798 F1000
G1 X10.119 Y1.822 F1000
G1 X10.068 Y1.846 F1000
G1 X10.015 Y1.871 F1000
G1 X9.961 Y1.896 F1000
G1 X9.905 Y1.922 F1000
G1 X9.848 Y1.949 F1000
G1 X9.789 Y1.976 F1000
G1 X9.729 Y2.005 F1000
G1 X9.667 Y2.034 F1000
M05
G0 X9.667 Y2.034
M03 S255
G1 X9.643 Y2.045 F1000
G1 X9.618 Y2.057 F1000
G1 X9.591 Y2.070 F1000
G1 X9.562 Y2.083 F1000
G1 X9.532 Y2.097 F1000
G1 X9.500 Y2.112 F1000
G1 X9.468 Y2.127 F1000
G1 X9.434 Y2.143 F1000
G1 X9.400 Y2.158 F1000
G1 X9.365 Y2.174 F1000
G1 X9.330 Y2.191 F1000
G1 X9.295 Y2.207 F1000
G1 X9.260 Y2.223 F1000
G1 X9.225 Y2.239 F1000
G1 X9.190 Y2.255 F1000
G1 X9.156 Y2.271 F1000
G1 X9.123 Y2.286 F1000
G1 X9.090 Y2.301 F1000
G1 X9.059 Y2.316 F1000
G1 X9.029 Y2.330 F1000
M05
G0 X9.029 Y2.330
M03 S255
G1 X8.999 Y2.344 F1000
G1 X8.970 Y2.358 F1000
G1 X8.941 Y2.372 F1000
G1 X8.913 Y2.385 F1000
G1 X8.887 Y2.399 F1000
G1 X8.861 Y2.412 F1000
G1 X8.836 Y2.424 F1000
G1 X8.813 Y2.437 F1000
G1 X8.791 Y2.448 F1000
G1 X8.770 Y2.460 F1000
G1 X8.751 Y2.470 F1000
G1 X8.733 Y2.480 F1000
G1 X8.717 Y2.489 F1000
G1 X8.703 Y2.498 F1000
G1 X8.691 Y2.506 F1000
G1 X8.681 Y2.513 F1000
G1 X8.673 Y2.518 F1000
G1 X8.667 Y2.523 F1000
G1 X8.663 Y2.527 F1000
G1 X8.662 Y2.530 F1000
M05
G0 X8.662 Y2.530
M03 S255
G1 X8.662 Y2.537 F1000
G1 X8.661 Y2.542 F1000
G1 X8.661 Y2.547 F1000
G1 X8.662 Y2.551 F1000
G1 X8.663 Y2.555 F1000
G1 X8.665 Y2.557 F1000
G1 X8.668 Y2.559 F1000
G1 X8.673 Y2.560 F1000
G1 X8.680 Y2.560 F1000
G1 X8.690 Y2.558 F1000
G1 X8.702 Y2.556 F1000
G1 X8.717 Y2.553 F1000
G1 X8.735 Y2.549 F1000
G1 X8.756 Y2.543 F1000
G1 X8.782 Y2.537 F1000
G1 X8.811 Y2.529 F1000
G1 X8.845 Y2.519 F1000
G1 X8.884 Y2.509 F1000
G1 X8.928 Y2.497 F1000
G1 X8.977 Y2.483 F1000
M05
G0 X8.977 Y2.483
M03 S255
G1 X9.018 Y2.472 F1000
G1 X9.061 Y2.461 F1000
G1 X9.107 Y2.448 F1000
G1 X9.157 Y2.435 F1000
G1 X9.211 Y2.420 F1000
G1 X9.268 Y2.405 F1000
G1 X9.331 Y2.388 F1000
G1 X9.399 Y2.370 F1000
G1 X9.472 Y2.350 F1000
G1 X9.552 Y2.329 F1000
G1 X9.638 Y2.306 F1000
G1 X9.731 Y2.281 F1000
G1 X9.831 Y2.254 F1000
G1 X9.940 Y2.225 F1000
G1 X10.057 Y2.194 F1000
G1 X10.182 Y2.161 F1000
G1 X10.317 Y2.125 F1000
G1 X10.462 Y2.087 F1000
G1 X10.617 Y2.046 F1000
G1 X10.782 Y2.002 F1000
M05
G0 X10.782 Y2.002
M03 S255
G1 X10.812 Y1.994 F1000
G1 X10.842 Y1.986 F1000
G1 X10.871 Y1.978 F1000
G1 X10.900 Y1.970 F1000
G1 X10.927 Y1.962 F1000
G1 X10.953 Y1.955 F1000
G1 X10.979 Y1.948 F1000
G1 X11.003 Y1.941 F1000
G1 X11.026 Y1.934 F1000
G1 X11.047 Y1.928 F1000
G1 X11.067 Y1.922 F1000
G1 X11.085 Y1.916 F1000
G1 X11.102 Y1.911 F1000
G1 X11.117 Y1.906 F1000
G1 X11.130 Y1.902 F1000
G1 X11.141 Y1.898 F1000
G1 X11.150 Y1.895 F1000
G1 X11.157 Y1.892 F1000
G1 X11.162 Y1.890 F1000
G1 X11.164 Y1.888 F1000
M05
G0 X11.164 Y1.888
M03 S255
G1 X11.168 Y1.883 F1000
G1 X11.174 Y1.874 F1000
G1 X11.180 Y1.861 F1000
G1 X11.188 Y1.846 F1000
G1 X11.196 Y1.828 F1000
G1 X11.204 Y1.809 F1000
G1 X11.213 Y1.788 F1000
G1 X11.222 Y1.765 F1000
G1 X11.232 Y1.742 F1000
G1 X11.241 Y1.719 F1000
G1 X11.250 Y1.696 F1000
G1 X11.259 Y1.673 F1000
G1 X11.267 Y1.651 F1000
G1 X11.274 Y1.631 F1000
G1 X11.281 Y1.612 F1000
G1 X11.286 Y1.596 F1000
G1 X11.290 Y1.582 F1000
G1 X11.293 Y1.571 F1000
G1 X11.295 Y1.564 F1000
G1 X11.294 Y1.561 F1000
M05
G0 X11.294 Y1.561
M03 S255
G1 X11.287 Y1.557 F1000
G1 X11.277 Y1.552 F1000
G1 X11.265 Y1.546 F1000
G1 X11.250 Y1.540 F1000
G1 X11.233 Y1.534 F1000
G1 X11.214 Y1.528 F1000
G1 X11.194 Y1.521 F1000
G1 X11.173 Y1.515 F1000
G1 X11.151 Y1.508 F1000
G1 X11.129 Y1.502 F1000
G1 X11.106 Y1.496 F1000
G1 X11.084 Y1.490 F1000
G1 X11.062 Y1.485 F1000
G1 X11.041 Y1.480 F1000
G1 X11.022 Y1.476 F1000
G1 X11.003 Y1.472 F1000
G1 X10.987 Y1.470 F1000
G1 X10.972 Y1.468 F1000
G1 X10.961 Y1.467 F1000
G1 X10.951 Y1.467 F1000
M05
G0 X10.951 Y1.467
M03 S255
G1 X10.945 Y1.467 F1000
G1 X10.938 Y1.468 F1000
G1 X10.929 Y1.470 F1000
G1 X10.919 Y1.472 F1000
G1 X10.908 Y1.476 F1000
G1 X10.896 Y1.479 F1000
G1 X10.882 Y1.484 F1000
G1 X10.868 Y1.488 F1000
G1 X10.853 Y1.494 F1000
G1 X10.837 Y1.500 F1000
G1 X10.821 Y1.506 F1000
G1 X10.803 Y1.512 F1000
G1 X10.786 Y1.520 F1000
G1 X10.767 Y1.527 F1000
G1 X10.749 Y1.535 F1000
G1 X10.730 Y1.543 F1000
G1 X10.710 Y1.551 F1000
G1 X10.691 Y1.559 F1000
G1 X10.672 Y1.568 F1000
G1 X10.652 Y1.577 F1000
M05
G0 X10.652 Y1.577
M03 S255
G1 X10.652 Y1.577 F1000
G1 X10.652 Y1.577 F1000
G1 X10.652 Y1.577 F1000
G1 X10.652 Y1.577 F1000
G1 X10.652 Y1.577 F1000
G1 X10.652 Y1.577 F1000
G1 X10.652 Y1.577 F1000
G1 X10.652 Y1.577 F1000
G1 X10.652 Y1.577 F1000
G1 X10.652 Y1.577 F1000
G1 X10.652 Y1.577 F1000
G1 X10.652 Y1.577 F1000
G1 X10.652 Y1.577 F1000
G1 X10.652 Y1.577 F1000
G1 X10.652 Y1.577 F1000
G1 X10.652 Y1.577 F1000
G1 X10.652 Y1.577 F1000
G1 X10.652 Y1.577 F1000
G1 X10.652 Y1.577 F1000
G1 X10.652 Y1.577 F1000
M05
G0 X7.973 Y2.443
M03 S255
G1 X7.941 Y2.458 F1000
G1 X7.913 Y2.475 F1000
G1 X7.887 Y2.494 F1000
G1 X7.864 Y2.514 F1000
G1 X7.844 Y2.537 F1000
G1 X7.826 Y2.560 F1000
G1 X7.812 Y2.586 F1000
G1 X7.800 Y2.612 F1000
G1 X7.791 Y2.639 F1000
G1 X7.785 Y2.667 F1000
G1 X7.782 Y2.696 F1000
G1 X7.782 Y2.725 F1000
G1 X7.784 Y2.754 F1000
G1 X7.790 Y2.784 F1000
G1 X7.799 Y2.814 F1000
G1 X7.811 Y2.843 F1000
G1 X7.826 Y2.872 F1000
G1 X7.844 Y2.901 F1000
G1 X7.865 Y2.929 F1000
G1 X7.890 Y2.956 F1000
M05
G0 X7.890 Y2.956
M03 S255
G1 X7.895 Y2.961 F1000
G1 X7.901 Y2.967 F1000
G1 X7.906 Y2.973 F1000
G1 X7.912 Y2.979 F1000
G1 X7.917 Y2.984 F1000
G1 X7.923 Y2.990 F1000
G1 X7.928 Y2.996 F1000
G1 X7.934 Y3.001 F1000
G1 X7.939 Y3.007 F1000
G1 X7.945 Y3.013 F1000
G1 X7.950 Y3.019 F1000
G1 X7.956 Y3.024 F1000
G1 X7.961 Y3.030 F1000
G1 X7.967 Y3.036 F1000
G1 X7.972 Y3.041 F1000
G1 X7.978 Y3.047 F1000
G1 X7.983 Y3.053 F1000
G1 X7.989 Y3.059 F1000
G1 X7.994 Y3.064 F1000
G1 X8.000 Y3.070 F1000
M05
G0 X8.000 Y3.070
M03 S255
G1 X7.998 Y3.098 F1000
G1 X7.995 Y3.127 F1000
G1 X7.993 Y3.155 F1000
G1 X7.991 Y3.183 F1000
G1 X7.988 Y3.212 F1000
G1 X7.986 Y3.240 F1000
G1 X7.983 Y3.269 F1000
G1 X7.981 Y3.297 F1000
G1 X7.979 Y3.325 F1000
G1 X7.976 Y3.354 F1000
G1 X7.974 Y3.382 F1000
G1 X7.972 Y3.410 F1000
G1 X7.969 Y3.439 F1000
G1 X7.967 Y3.467 F1000
G1 X7.965 Y3.496 F1000
G1 X7.962 Y3.524 F1000
G1 X7.960 Y3.552 F1000
G1 X7.957 Y3.581 F1000
G1 X7.955 Y3.609 F1000
G1 X7.953 Y3.637 F1000
M05
G0 X7.953 Y3.637
M03 S255
G1 X7.946 Y3.722 F1000
G1 X7.939 Y3.806 F1000
G1 X7.931 Y3.890 F1000
G1 X7.923 Y3.974 F1000
G1 X7.915 Y4.058 F1000
G1 X7.907 Y4.143 F1000
G1 X7.898 Y4.227 F1000
G1 X7.889 Y4.311 F1000
G1 X7.879 Y4.395 F1000
G1 X7.869 Y4.479 F1000
G1 X7.859 Y4.563 F1000
G1 X7.848 Y4.647 F1000
G1 X7.838 Y4.730 F1000
G1 X7.826 Y4.814 F1000
G1 X7.815 Y4.898 F1000
G1 X7.803 Y4.982 F1000
G1 X7.791 Y5.065 F1000
G1 X7.778 Y5.149 F1000
G1 X7.765 Y5.232 F1000
G1 X7.752 Y5.316 F1000
M05
G0 X7.752 Y5.316
M03 S255
G1 X7.746 Y5.350 F1000
G1 X7.741 Y5.381 F1000
G1 X7.737 Y5.410 F1000
G1 X7.733 Y5.437 F1000
G1 X7.730 Y5.463 F1000
G1 X7.727 Y5.486 F1000
G1 X7.725 Y5.508 F1000
G1 X7.724 Y5.528 F1000
G1 X7.723 Y5.547 F1000
G1 X7.723 Y5.565 F1000
G1 X7.723 Y5.581 F1000
G1 X7.724 Y5.597 F1000
G1 X7.726 Y5.611 F1000
G1 X7.728 Y5.625 F1000
G1 X7.731 Y5.638 F1000
G1 X7.735 Y5.651 F1000
G1 X7.739 Y5.663 F1000
G1 X7.744 Y5.675 F1000
G1 X7.749 Y5.687 F1000
G1 X7.756 Y5.698 F1000
M05
G0 X7.756 Y5.698
M03 S255
G1 X7.766 Y5.717 F1000
G1 X7.776 Y5.733 F1000
G1 X7.785 Y5.748 F1000
G1 X7.794 Y5.760 F1000
G1 X7.802 Y5.770 F1000
G1 X7.810 Y5.778 F1000
G1 X7.818 Y5.784 F1000
G1 X7.826 Y5.788 F1000
G1 X7.834 Y5.790 F1000
G1 X7.842 Y5.789 F1000
G1 X7.850 Y5.787 F1000
G1 X7.859 Y5.782 F1000
G1 X7.868 Y5.774 F1000
G1 X7.877 Y5.765 F1000
G1 X7.887 Y5.753 F1000
G1 X7.898 Y5.739 F1000
G1 X7.909 Y5.722 F1000
G1 X7.922 Y5.704 F1000
G1 X7.935 Y5.682 F1000
G1 X7.949 Y5.659 F1000
M05
G0 X7.949 Y5.659
M03 S255
G1 X7.964 Y5.634 F1000
G1 X7.978 Y5.612 F1000
G1 X7.992 Y5.592 F1000
G1 X8.006 Y5.575 F1000
G1 X8.019 Y5.561 F1000
G1 X8.031 Y5.549 F1000
G1 X8.044 Y5.540 F1000
G1 X8.056 Y5.534 F1000
G1 X8.068 Y5.530 F1000
G1 X8.080 Y5.529 F1000
G1 X8.093 Y5.530 F1000
G1 X8.105 Y5.534 F1000
G1 X8.118 Y5.540 F1000
G1 X8.131 Y5.549 F1000
G1 X8.144 Y5.561 F1000
G1 X8.158 Y5.575 F1000
G1 X8.173 Y5.592 F1000
G1 X8.188 Y5.612 F1000
G1 X8.204 Y5.634 F1000
G1 X8.221 Y5.659 F1000
M05
G0 X8.221 Y5.659
M03 S255
G1 X8.235 Y5.682 F1000
G1 X8.249 Y5.702 F1000
G1 X8.262 Y5.721 F1000
G1 X8.274 Y5.737 F1000
G1 X8.285 Y5.751 F1000
G1 X8.295 Y5.762 F1000
G1 X8.305 Y5.772 F1000
G1 X8.314 Y5.779 F1000
G1 X8.323 Y5.784 F1000
G1 X8.332 Y5.787 F1000
G1 X8.340 Y5.788 F1000
G1 X8.349 Y5.786 F1000
G1 X8.358 Y5.783 F1000
G1 X8.367 Y5.777 F1000
G1 X8.377 Y5.770 F1000
G1 X8.387 Y5.760 F1000
G1 X8.397 Y5.748 F1000
G1 X8.408 Y5.735 F1000
G1 X8.421 Y5.719 F1000
G1 X8.434 Y5.702 F1000
M05
G0 X8.434 Y5.702
M03 S255
G1 X8.443 Y5.689 F1000
G1 X8.452 Y5.676 F1000
G1 X8.459 Y5.664 F1000
G1 X8.465 Y5.652 F1000
G1 X8.471 Y5.640 F1000
G1 X8.475 Y5.627 F1000
G1 X8.478 Y5.613 F1000
G1 X8.480 Y5.598 F1000
G1 X8.481 Y5.581 F1000
G1 X8.481 Y5.562 F1000
G1 X8.480 Y5.541 F1000
G1 X8.478 Y5.518 F1000
G1 X8.475 Y5.491 F1000
G1 X8.471 Y5.462 F1000
G1 X8.466 Y5.428 F1000
G1 X8.460 Y5.391 F1000
G1 X8.453 Y5.350 F1000
G1 X8.445 Y5.304 F1000
G1 X8.436 Y5.254 F1000
G1 X8.426 Y5.198 F1000
M05
G0 X8.426 Y5.198
M03 S255
G1 X8.410 Y5.113 F1000
G1 X8.394 Y5.028 F1000
G1 X8.380 Y4.944 F1000
G1 X8.365 Y4.859 F1000
G1 X8.351 Y4.774 F1000
G1 X8.338 Y4.689 F1000
G1 X8.325 Y4.604 F1000
G1 X8.313 Y4.519 F1000
G1 X8.301 Y4.433 F1000
G1 X8.290 Y4.348 F1000
G1 X8.279 Y4.263 F1000
G1 X8.269 Y4.177 F1000
G1 X8.259 Y4.092 F1000
G1 X8.250 Y4.006 F1000
G1 X8.241 Y3.920 F1000
G1 X8.233 Y3.835 F1000
G1 X8.225 Y3.749 F1000
G1 X8.218 Y3.663 F1000
G1 X8.211 Y3.578 F1000
G1 X8.205 Y3.492 F1000
M05
G0 X8.205 Y3.492
M03 S255
G1 X8.204 Y3.470 F1000
G1 X8.202 Y3.448 F1000
G1 X8.201 Y3.426 F1000
G1 X8.199 Y3.404 F1000
G1 X8.198 Y3.382 F1000
G1 X8.197 Y3.360 F1000
G1 X8.195 Y3.339 F1000
G1 X8.194 Y3.317 F1000
G1 X8.193 Y3.295 F1000
G1 X8.191 Y3.273 F1000
G1 X8.190 Y3.251 F1000
G1 X8.188 Y3.229 F1000
G1 X8.187 Y3.207 F1000
G1 X8.186 Y3.186 F1000
G1 X8.184 Y3.164 F1000
G1 X8.183 Y3.142 F1000
G1 X8.181 Y3.120 F1000
G1 X8.180 Y3.098 F1000
G1 X8.179 Y3.076 F1000
G1 X8.177 Y3.054 F1000
M05
G0 X8.177 Y3.054
M03 S255
G1 X8.184 Y3.048 F1000
G1 X8.190 Y3.042 F1000
G1 X8.196 Y3.036 F1000
G1 X8.203 Y3.030 F1000
G1 X8.209 Y3.024 F1000
G1 X8.215 Y3.018 F1000
G1 X8.221 Y3.012 F1000
G1 X8.228 Y3.005 F1000
G1 X8.234 Y2.999 F1000
G1 X8.240 Y2.993 F1000
G1 X8.247 Y2.987 F1000
G1 X8.253 Y2.981 F1000
G1 X8.259 Y2.975 F1000
G1 X8.266 Y2.969 F1000
G1 X8.272 Y2.963 F1000
G1 X8.278 Y2.956 F1000
G1 X8.284 Y2.950 F1000
G1 X8.291 Y2.944 F1000
G1 X8.297 Y2.938 F1000
G1 X8.303 Y2.932 F1000
M05
G0 X8.303 Y2.932
M03 S255
G1 X8.324 Y2.910 F1000
G1 X8.343 Y2.890 F1000
G1 X8.360 Y2.869 F1000
G1 X8.374 Y2.849 F1000
G1 X8.387 Y2.830 F1000
G1 X8.398 Y2.811 F1000
G1 X8.406 Y2.792 F1000
G1 X8.413 Y2.773 F1000
G1 X8.418 Y2.755 F1000
G1 X8.420 Y2.736 F1000
G1 X8.421 Y2.718 F1000
G1 X8.420 Y2.700 F1000
G1 X8.416 Y2.682 F1000
G1 X8.411 Y2.664 F1000
G1 X8.404 Y2.645 F1000
G1 X8.395 Y2.627 F1000
G1 X8.384 Y2.608 F1000
G1 X8.371 Y2.589 F1000
G1 X8.356 Y2.570 F1000
G1 X8.339 Y2.550 F1000
M05
G0 X8.339 Y2.550
M03 S255
G1 X8.323 Y2.533 F1000
G1 X8.307 Y2.518 F1000
G1 X8.290 Y2.503 F1000
G1 X8.273 Y2.490 F1000
G1 X8.255 Y2.478 F1000
G1 X8.237 Y2.468 F1000
G1 X8.218 Y2.458 F1000
G1 X8.200 Y2.449 F1000
G1 X8.181 Y2.442 F1000
G1 X8.162 Y2.436 F1000
G1 X8.142 Y2.431 F1000
G1 X8.123 Y2.428 F1000
G1 X8.104 Y2.425 F1000
G1 X8.084 Y2.424 F1000
G1 X8.065 Y2.424 F1000
G1 X8.046 Y2.425 F1000
G1 X8.027 Y2.428 F1000
G1 X8.009 Y2.432 F1000
G1 X7.990 Y2.437 F1000
G1 X7.972 Y2.443 F1000
M05
G0 X7.972 Y2.443
M03 S255
G1 X7.972 Y2.443 F1000
G1 X7.972 Y2.443 F1000
G1 X7.972 Y2.443 F1000
G1 X7.972 Y2.443 F1000
G1 X7.972 Y2.443 F1000
G1 X7.972 Y2.443 F1000
G1 X7.972 Y2.443 F1000
G1 X7.972 Y2.443 F1000
G1 X7.972 Y2.443 F1000
G1 X7.972 Y2.443 F1000
G1 X7.973 Y2.443 F1000
G1 X7.973 Y2.443 F1000
G1 X7.973 Y2.443 F1000
G1 X7.973 Y2.443 F1000
G1 X7.973 Y2.443 F1000
G1 X7.973 Y2.443 F1000
G1 X7.973 Y2.443 F1000
G1 X7.973 Y2.443 F1000
G1 X7.973 Y2.443 F1000
G1 X7.973 Y2.443 F1000
M05
G0 X3.922 Y2.691
M03 S255
G1 X3.914 Y2.698 F1000
G1 X3.907 Y2.704 F1000
G1 X3.899 Y2.711 F1000
G1 X3.892 Y2.717 F1000
G1 X3.884 Y2.724 F1000
G1 X3.877 Y2.730 F1000
G1 X3.869 Y2.737 F1000
G1 X3.862 Y2.743 F1000
G1 X3.854 Y2.750 F1000
G1 X3.847 Y2.756 F1000
G1 X3.839 Y2.763 F1000
G1 X3.832 Y2.769 F1000
G1 X3.824 Y2.776 F1000
G1 X3.817 Y2.782 F1000
G1 X3.809 Y2.789 F1000
G1 X3.802 Y2.795 F1000
G1 X3.794 Y2.802 F1000
G1 X3.787 Y2.808 F1000
G1 X3.779 Y2.815 F1000
G1 X3.772 Y2.821 F1000
M05
G0 X3.772 Y2.821
M03 S255
G1 X3.780 Y2.829 F1000
G1 X3.787 Y2.836 F1000
G1 X3.794 Y2.843 F1000
G1 X3.802 Y2.851 F1000
G1 X3.809 Y2.858 F1000
G1 X3.817 Y2.865 F1000
G1 X3.824 Y2.872 F1000
G1 X3.832 Y2.880 F1000
G1 X3.839 Y2.887 F1000
G1 X3.847 Y2.894 F1000
G1 X3.854 Y2.902 F1000
G1 X3.862 Y2.909 F1000
G1 X3.869 Y2.916 F1000
G1 X3.877 Y2.924 F1000
G1 X3.884 Y2.931 F1000
G1 X3.892 Y2.938 F1000
G1 X3.899 Y2.945 F1000
G1 X3.907 Y2.953 F1000
G1 X3.914 Y2.960 F1000
G1 X3.922 Y2.967 F1000
M05
G0 X3.922 Y2.967
M03 S255
G1 X3.929 Y2.975 F1000
G1 X3.937 Y2.982 F1000
G1 X3.944 Y2.989 F1000
G1 X3.952 Y2.996 F1000
G1 X3.959 Y3.004 F1000
G1 X3.967 Y3.011 F1000
G1 X3.974 Y3.018 F1000
G1 X3.982 Y3.026 F1000
G1 X3.989 Y3.033 F1000
G1 X3.997 Y3.040 F1000
G1 X4.004 Y3.047 F1000
G1 X4.012 Y3.055 F1000
G1 X4.019 Y3.062 F1000
G1 X4.027 Y3.069 F1000
G1 X4.034 Y3.077 F1000
G1 X4.041 Y3.084 F1000
G1 X4.049 Y3.091 F1000
G1 X4.056 Y3.098 F1000
G1 X4.064 Y3.106 F1000
G1 X4.071 Y3.113 F1000
M05
G0 X4.071 Y3.113
M03 S255
G1 X4.156 Y3.105 F1000
G1 X4.240 Y3.098 F1000
G1 X4.325 Y3.090 F1000
G1 X4.409 Y3.082 F1000
G1 X4.494 Y3.075 F1000
G1 X4.579 Y3.067 F1000
G1 X4.663 Y3.059 F1000
G1 X4.748 Y3.052 F1000
G1 X4.832 Y3.044 F1000
G1 X4.917 Y3.036 F1000
G1 X5.001 Y3.029 F1000
G1 X5.086 Y3.021 F1000
G1 X5.170 Y3.013 F1000
G1 X5.255 Y3.006 F1000
G1 X5.339 Y2.998 F1000
G1 X5.424 Y2.990 F1000
G1 X5.508 Y2.983 F1000
G1 X5.593 Y2.975 F1000
G1 X5.677 Y2.967 F1000
G1 X5.762 Y2.960 F1000
M05
G0 X5.762 Y2.960
M03 S255
G1 X5.900 Y2.947 F1000
G1 X6.036 Y2.934 F1000
G1 X6.168 Y2.921 F1000
G1 X6.296 Y2.909 F1000
G1 X6.420 Y2.897 F1000
G1 X6.539 Y2.885 F1000
G1 X6.654 Y2.874 F1000
G1 X6.762 Y2.863 F1000
G1 X6.865 Y2.853 F1000
G1 X6.961 Y2.843 F1000
G1 X7.051 Y2.833 F1000
G1 X7.133 Y2.825 F1000
G1 X7.207 Y2.817 F1000
G1 X7.273 Y2.809 F1000
G1 X7.331 Y2.803 F1000
G1 X7.379 Y2.797 F1000
G1 X7.418 Y2.792 F1000
G1 X7.446 Y2.788 F1000
G1 X7.465 Y2.784 F1000
G1 X7.472 Y2.782 F1000
M05
G0 X7.472 Y2.782
M03 S255
G1 X7.474 Y2.781 F1000
G1 X7.475 Y2.779 F1000
G1 X7.476 Y2.778 F1000
G1 X7.476 Y2.776 F1000
G1 X7.476 Y2.774 F1000
G1 X7.476 Y2.772 F1000
G1 X7.475 Y2.770 F1000
G1 X7.474 Y2.768 F1000
G1 X7.472 Y2.766 F1000
G1 X7.471 Y2.764 F1000
G1 X7.468 Y2.762 F1000
G1 X7.466 Y2.759 F1000
G1 X7.463 Y2.757 F1000
G1 X7.460 Y2.755 F1000
G1 X7.457 Y2.753 F1000
G1 X7.454 Y2.751 F1000
G1 X7.450 Y2.749 F1000
G1 X7.446 Y2.746 F1000
G1 X7.441 Y2.745 F1000
G1 X7.437 Y2.743 F1000
M05
G0 X7.437 Y2.743
M03 S255
G1 X7.414 Y2.739 F1000
G1 X7.367 Y2.733 F1000
G1 X7.298 Y2.727 F1000
G1 X7.210 Y2.720 F1000
G1 X7.103 Y2.712 F1000
G1 X6.980 Y2.704 F1000
G1 X6.844 Y2.695 F1000
G1 X6.695 Y2.685 F1000
G1 X6.536 Y2.675 F1000
G1 X6.369 Y2.665 F1000
G1 X6.197 Y2.656 F1000
G1 X6.020 Y2.646 F1000
G1 X5.841 Y2.636 F1000
G1 X5.662 Y2.627 F1000
G1 X5.486 Y2.618 F1000
G1 X5.313 Y2.610 F1000
G1 X5.146 Y2.602 F1000
G1 X4.987 Y2.596 F1000
G1 X4.839 Y2.590 F1000
G1 X4.702 Y2.585 F1000
M05
G0 X4.702 Y2.585
M03 S255
G1 X4.670 Y2.584 F1000
G1 X4.639 Y2.583 F1000
G1 X4.607 Y2.581 F1000
G1 X4.576 Y2.580 F1000
G1 X4.544 Y2.579 F1000
G1 X4.513 Y2.578 F1000
G1 X4.481 Y2.577 F1000
G1 X4.450 Y2.576 F1000
G1 X4.418 Y2.575 F1000
G1 X4.387 Y2.573 F1000
G1 X4.355 Y2.572 F1000
G1 X4.324 Y2.571 F1000
G1 X4.292 Y2.570 F1000
G1 X4.261 Y2.569 F1000
G1 X4.229 Y2.567 F1000
G1 X4.197 Y2.566 F1000
G1 X4.166 Y2.565 F1000
G1 X4.134 Y2.564 F1000
G1 X4.103 Y2.563 F1000
G1 X4.071 Y2.562 F1000
M05
G0 X4.071 Y2.562
M03 S255
G1 X4.064 Y2.568 F1000
G1 X4.056 Y2.575 F1000
G1 X4.049 Y2.581 F1000
G1 X4.041 Y2.588 F1000
G1 X4.034 Y2.594 F1000
G1 X4.026 Y2.601 F1000
G1 X4.019 Y2.607 F1000
G1 X4.011 Y2.614 F1000
G1 X4.004 Y2.620 F1000
G1 X3.996 Y2.627 F1000
G1 X3.989 Y2.633 F1000
G1 X3.982 Y2.640 F1000
G1 X3.974 Y2.646 F1000
G1 X3.967 Y2.653 F1000
G1 X3.959 Y2.659 F1000
G1 X3.952 Y2.666 F1000
G1 X3.944 Y2.672 F1000
G1 X3.937 Y2.679 F1000
G1 X3.929 Y2.685 F1000
G1 X3.922 Y2.692 F1000
M05
G0 X3.922 Y2.692
M03 S255
G1 X3.922 Y2.692 F1000
G1 X3.922 Y2.692 F1000
G1 X3.922 Y2.692 F1000
G1 X3.922 Y2.692 F1000
G1 X3.922 Y2.692 F1000
G1 X3.922 Y2.692 F1000
G1 X3.922 Y2.692 F1000
G1 X3.922 Y2.692 F1000
G1 X3.922 Y2.692 F1000
G1 X3.922 Y2.692 F1000
G1 X3.922 Y2.691 F1000
G1 X3.922 Y2.691 F1000
G1 X3.922 Y2.691 F1000
G1 X3.922 Y2.691 F1000
G1 X3.922 Y2.691 F1000
G1 X3.922 Y2.691 F1000
G1 X3.922 Y2.691 F1000
G1 X3.922 Y2.691 F1000
G1 X3.922 Y2.691 F1000
G1 X3.922 Y2.691 F1000
M05
G0 X11.164 Y2.593
M03 S255
G1 X11.145 Y2.594 F1000
G1 X11.118 Y2.595 F1000
G1 X11.085 Y2.597 F1000
G1 X11.046 Y2.599 F1000
G1 X11.002 Y2.601 F1000
G1 X10.951 Y2.604 F1000
G1 X10.896 Y2.607 F1000
G1 X10.835 Y2.611 F1000
G1 X10.771 Y2.615 F1000
G1 X10.702 Y2.619 F1000
G1 X10.629 Y2.623 F1000
G1 X10.553 Y2.627 F1000
G1 X10.474 Y2.632 F1000
G1 X10.392 Y2.637 F1000
G1 X10.308 Y2.642 F1000
G1 X10.222 Y2.647 F1000
G1 X10.134 Y2.652 F1000
G1 X10.045 Y2.657 F1000
G1 X9.955 Y2.662 F1000
G1 X9.864 Y2.668 F1000
M05
G0 X9.864 Y2.668
M03 S255
G1 X9.774 Y2.673 F1000
G1 X9.685 Y2.678 F1000
G1 X9.599 Y2.683 F1000
G1 X9.515 Y2.688 F1000
G1 X9.433 Y2.694 F1000
G1 X9.354 Y2.699 F1000
G1 X9.279 Y2.705 F1000
G1 X9.207 Y2.710 F1000
G1 X9.139 Y2.716 F1000
G1 X9.075 Y2.722 F1000
G1 X9.015 Y2.727 F1000
G1 X8.960 Y2.732 F1000
G1 X8.910 Y2.737 F1000
G1 X8.865 Y2.742 F1000
G1 X8.826 Y2.747 F1000
G1 X8.793 Y2.752 F1000
G1 X8.766 Y2.756 F1000
G1 X8.746 Y2.760 F1000
G1 X8.732 Y2.763 F1000
G1 X8.725 Y2.766 F1000
M05
G0 X8.725 Y2.766
M03 S255
G1 X8.722 Y2.769 F1000
G1 X8.719 Y2.772 F1000
G1 X8.716 Y2.775 F1000
G1 X8.713 Y2.778 F1000
G1 X8.711 Y2.780 F1000
G1 X8.708 Y2.783 F1000
G1 X8.706 Y2.785 F1000
G1 X8.705 Y2.787 F1000
G1 X8.703 Y2.790 F1000
G1 X8.702 Y2.792 F1000
G1 X8.701 Y2.793 F1000
G1 X8.701 Y2.795 F1000
G1 X8.700 Y2.796 F1000
G1 X8.700 Y2.798 F1000
G1 X8.700 Y2.799 F1000
G1 X8.701 Y2.800 F1000
G1 X8.701 Y2.801 F1000
G1 X8.702 Y2.801 F1000
G1 X8.704 Y2.802 F1000
G1 X8.705 Y2.802 F1000
M05
G0 X8.705 Y2.802
M03 S255
G1 X8.712 Y2.802 F1000
G1 X8.730 Y2.804 F1000
G1 X8.758 Y2.806 F1000
G1 X8.797 Y2.810 F1000
G1 X8.845 Y2.814 F1000
G1 X8.903 Y2.819 F1000
G1 X8.969 Y2.825 F1000
G1 X9.043 Y2.832 F1000
G1 X9.125 Y2.840 F1000
G1 X9.215 Y2.848 F1000
G1 X9.311 Y2.857 F1000
G1 X9.414 Y2.866 F1000
G1 X9.523 Y2.876 F1000
G1 X9.638 Y2.887 F1000
G1 X9.757 Y2.898 F1000
G1 X9.881 Y2.910 F1000
G1 X10.010 Y2.922 F1000
G1 X10.142 Y2.934 F1000
G1 X10.277 Y2.946 F1000
G1 X10.415 Y2.959 F1000
M05
G0 X10.415 Y2.959
M03 S255
G1 X10.500 Y2.967 F1000
G1 X10.585 Y2.975 F1000
G1 X10.670 Y2.982 F1000
G1 X10.754 Y2.990 F1000
G1 X10.839 Y2.998 F1000
G1 X10.924 Y3.005 F1000
G1 X11.008 Y3.013 F1000
G1 X11.093 Y3.021 F1000
G1 X11.178 Y3.028 F1000
G1 X11.263 Y3.036 F1000
G1 X11.347 Y3.044 F1000
G1 X11.432 Y3.052 F1000
G1 X11.517 Y3.059 F1000
G1 X11.602 Y3.067 F1000
G1 X11.686 Y3.075 F1000
G1 X11.771 Y3.082 F1000
G1 X11.856 Y3.090 F1000
G1 X11.941 Y3.098 F1000
G1 X12.025 Y3.105 F1000
G1 X12.110 Y3.113 F1000
M05
G0 X12.110 Y3.113
M03 S255
G1 X12.117 Y3.106 F1000
G1 X12.124 Y3.100 F1000
G1 X12.131 Y3.093 F1000
G1 X12.138 Y3.086 F1000
G1 X12.144 Y3.079 F1000
G1 X12.151 Y3.073 F1000
G1 X12.158 Y3.066 F1000
G1 X12.165 Y3.059 F1000
G1 X12.172 Y3.053 F1000
G1 X12.179 Y3.046 F1000
G1 X12.186 Y3.039 F1000
G1 X12.193 Y3.033 F1000
G1 X12.200 Y3.026 F1000
G1 X12.207 Y3.019 F1000
G1 X12.214 Y3.013 F1000
G1 X12.220 Y3.006 F1000
G1 X12.227 Y2.999 F1000
G1 X12.234 Y2.992 F1000
G1 X12.241 Y2.986 F1000
G1 X12.248 Y2.979 F1000
M05
G0 X12.248 Y2.979
M03 S255
G1 X12.255 Y2.972 F1000
G1 X12.261 Y2.965 F1000
G1 X12.268 Y2.958 F1000
G1 X12.275 Y2.951 F1000
G1 X12.281 Y2.945 F1000
G1 X12.288 Y2.938 F1000
G1 X12.295 Y2.931 F1000
G1 X12.302 Y2.924 F1000
G1 X12.308 Y2.917 F1000
G1 X12.315 Y2.910 F1000
G1 X12.322 Y2.903 F1000
G1 X12.328 Y2.896 F1000
G1 X12.335 Y2.890 F1000
G1 X12.342 Y2.883 F1000
G1 X12.349 Y2.876 F1000
G1 X12.355 Y2.869 F1000
G1 X12.362 Y2.862 F1000
G1 X12.369 Y2.855 F1000
G1 X12.375 Y2.848 F1000
G1 X12.382 Y2.841 F1000
M05
G0 X12.382 Y2.841
M03 S255
G1 X12.375 Y2.834 F1000
G1 X12.369 Y2.828 F1000
G1 X12.362 Y2.821 F1000
G1 X12.355 Y2.814 F1000
G1 X12.349 Y2.807 F1000
G1 X12.342 Y2.800 F1000
G1 X12.335 Y2.793 F1000
G1 X12.328 Y2.786 F1000
G1 X12.322 Y2.779 F1000
G1 X12.315 Y2.772 F1000
G1 X12.308 Y2.765 F1000
G1 X12.302 Y2.759 F1000
G1 X12.295 Y2.752 F1000
G1 X12.288 Y2.745 F1000
G1 X12.281 Y2.738 F1000
G1 X12.275 Y2.731 F1000
G1 X12.268 Y2.724 F1000
G1 X12.261 Y2.717 F1000
G1 X12.255 Y2.710 F1000
G1 X12.248 Y2.703 F1000
M05
G0 X12.248 Y2.703
M03 S255
G1 X12.241 Y2.696 F1000
G1 X12.235 Y2.690 F1000
G1 X12.228 Y2.683 F1000
G1 X12.221 Y2.676 F1000
G1 X12.215 Y2.669 F1000
G1 X12.208 Y2.662 F1000
G1 X12.201 Y2.655 F1000
G1 X12.194 Y2.648 F1000
G1 X12.188 Y2.641 F1000
G1 X12.181 Y2.634 F1000
G1 X12.174 Y2.627 F1000
G1 X12.168 Y2.621 F1000
G1 X12.161 Y2.614 F1000
G1 X12.154 Y2.607 F1000
G1 X12.147 Y2.600 F1000
G1 X12.141 Y2.593 F1000
G1 X12.134 Y2.586 F1000
G1 X12.127 Y2.579 F1000
G1 X12.121 Y2.572 F1000
G1 X12.114 Y2.565 F1000
M05
G0 X12.114 Y2.565
M03 S255
G1 X12.095 Y2.566 F1000
G1 X12.077 Y2.566 F1000
G1 X12.058 Y2.567 F1000
G1 X12.039 Y2.567 F1000
G1 X12.020 Y2.567 F1000
G1 X12.002 Y2.568 F1000
G1 X11.983 Y2.568 F1000
G1 X11.964 Y2.569 F1000
G1 X11.946 Y2.569 F1000
G1 X11.927 Y2.569 F1000
G1 X11.908 Y2.570 F1000
G1 X11.889 Y2.570 F1000
G1 X11.871 Y2.571 F1000
G1 X11.852 Y2.571 F1000
G1 X11.833 Y2.571 F1000
G1 X11.815 Y2.572 F1000
G1 X11.796 Y2.572 F1000
G1 X11.777 Y2.573 F1000
G1 X11.758 Y2.573 F1000
G1 X11.740 Y2.573 F1000
M05
G0 X11.740 Y2.573
M03 S255
G1 X11.711 Y2.574 F1000
G1 X11.682 Y2.574 F1000
G1 X11.653 Y2.575 F1000
G1 X11.625 Y2.575 F1000
G1 X11.596 Y2.576 F1000
G1 X11.567 Y2.577 F1000
G1 X11.538 Y2.578 F1000
G1 X11.509 Y2.579 F1000
G1 X11.481 Y2.579 F1000
G1 X11.452 Y2.580 F1000
G1 X11.423 Y2.581 F1000
G1 X11.394 Y2.582 F1000
G1 X11.366 Y2.584 F1000
G1 X11.337 Y2.585 F1000
G1 X11.308 Y2.586 F1000
G1 X11.279 Y2.587 F1000
G1 X11.251 Y2.589 F1000
G1 X11.222 Y2.590 F1000
G1 X11.193 Y2.591 F1000
G1 X11.164 Y2.593 F1000
M05
G0 X11.164 Y2.593
M03 S255
G1 X11.164 Y2.593 F1000
G1 X11.164 Y2.593 F1000
G1 X11.164 Y2.593 F1000
G1 X11.164 Y2.593 F1000
G1 X11.164 Y2.593 F1000
G1 X11.164 Y2.593 F1000
G1 X11.164 Y2.593 F1000
G1 X11.164 Y2.593 F1000
G1 X11.164 Y2.593 F1000
G1 X11.164 Y2.593 F1000
G1 X11.164 Y2.593 F1000
G1 X11.164 Y2.593 F1000
G1 X11.164 Y2.593 F1000
G1 X11.164 Y2.593 F1000
G1 X11.164 Y2.593 F1000
G1 X11.164 Y2.593 F1000
G1 X11.164 Y2.593 F1000
G1 X11.164 Y2.593 F1000
G1 X11.164 Y2.593 F1000
G1 X11.164 Y2.593 F1000
M05
G0 X7.401 Y2.987
M03 S255
G1 X7.396 Y2.989 F1000
G1 X7.390 Y2.991 F1000
G1 X7.384 Y2.994 F1000
G1 X7.377 Y2.997 F1000
G1 X7.370 Y3.000 F1000
G1 X7.362 Y3.003 F1000
G1 X7.353 Y3.006 F1000
G1 X7.344 Y3.010 F1000
G1 X7.335 Y3.014 F1000
G1 X7.326 Y3.017 F1000
G1 X7.316 Y3.022 F1000
G1 X7.306 Y3.026 F1000
G1 X7.296 Y3.030 F1000
G1 X7.286 Y3.034 F1000
G1 X7.275 Y3.039 F1000
G1 X7.265 Y3.044 F1000
G1 X7.255 Y3.048 F1000
G1 X7.244 Y3.053 F1000
G1 X7.234 Y3.058 F1000
G1 X7.224 Y3.062 F1000
M05
G0 X7.224 Y3.062
M03 S255
G1 X7.211 Y3.068 F1000
G1 X7.193 Y3.075 F1000
G1 X7.168 Y3.084 F1000
G1 X7.139 Y3.094 F1000
G1 X7.104 Y3.107 F1000
G1 X7.064 Y3.121 F1000
G1 X7.020 Y3.137 F1000
G1 X6.972 Y3.153 F1000
G1 X6.919 Y3.172 F1000
G1 X6.863 Y3.191 F1000
G1 X6.804 Y3.212 F1000
G1 X6.741 Y3.233 F1000
G1 X6.675 Y3.255 F1000
G1 X6.607 Y3.279 F1000
G1 X6.537 Y3.302 F1000
G1 X6.464 Y3.327 F1000
G1 X6.390 Y3.352 F1000
G1 X6.315 Y3.377 F1000
G1 X6.238 Y3.403 F1000
G1 X6.160 Y3.429 F1000
M05
G0 X6.160 Y3.429
M03 S255
G1 X6.079 Y3.456 F1000
G1 X5.993 Y3.485 F1000
G1 X5.902 Y3.515 F1000
G1 X5.807 Y3.547 F1000
G1 X5.708 Y3.580 F1000
G1 X5.606 Y3.615 F1000
G1 X5.501 Y3.650 F1000
G1 X5.394 Y3.686 F1000
G1 X5.285 Y3.722 F1000
G1 X5.175 Y3.759 F1000
G1 X5.065 Y3.797 F1000
G1 X4.955 Y3.834 F1000
G1 X4.845 Y3.871 F1000
G1 X4.736 Y3.907 F1000
G1 X4.629 Y3.944 F1000
G1 X4.524 Y3.979 F1000
G1 X4.421 Y4.014 F1000
G1 X4.322 Y4.047 F1000
G1 X4.226 Y4.079 F1000
G1 X4.135 Y4.110 F1000
M05
G0 X4.135 Y4.110
M03 S255
G1 X4.080 Y4.129 F1000
G1 X4.026 Y4.147 F1000
G1 X3.972 Y4.165 F1000
G1 X3.918 Y4.184 F1000
G1 X3.864 Y4.202 F1000
G1 X3.810 Y4.220 F1000
G1 X3.755 Y4.239 F1000
G1 X3.701 Y4.257 F1000
G1 X3.647 Y4.275 F1000
G1 X3.593 Y4.294 F1000
G1 X3.539 Y4.312 F1000
G1 X3.484 Y4.330 F1000
G1 X3.430 Y4.349 F1000
G1 X3.376 Y4.367 F1000
G1 X3.322 Y4.385 F1000
G1 X3.268 Y4.404 F1000
G1 X3.214 Y4.422 F1000
G1 X3.159 Y4.440 F1000
G1 X3.105 Y4.459 F1000
G1 X3.051 Y4.477 F1000
M05
G0 X3.051 Y4.477
M03 S255
G1 X3.045 Y4.488 F1000
G1 X3.038 Y4.499 F1000
G1 X3.032 Y4.510 F1000
G1 X3.026 Y4.520 F1000
G1 X3.019 Y4.531 F1000
G1 X3.013 Y4.542 F1000
G1 X3.007 Y4.553 F1000
G1 X3.000 Y4.564 F1000
G1 X2.994 Y4.574 F1000
G1 X2.988 Y4.585 F1000
G1 X2.982 Y4.596 F1000
G1 X2.975 Y4.607 F1000
G1 X2.969 Y4.618 F1000
G1 X2.963 Y4.629 F1000
G1 X2.956 Y4.639 F1000
G1 X2.950 Y4.650 F1000
G1 X2.944 Y4.661 F1000
G1 X2.937 Y4.672 F1000
G1 X2.931 Y4.683 F1000
G1 X2.925 Y4.694 F1000
M05
G0 X2.925 Y4.694
M03 S255
G1 X2.914 Y4.711 F1000
G1 X2.904 Y4.729 F1000
G1 X2.895 Y4.746 F1000
G1 X2.886 Y4.763 F1000
G1 X2.877 Y4.779 F1000
G1 X2.869 Y4.796 F1000
G1 X2.862 Y4.811 F1000
G1 X2.855 Y4.826 F1000
G1 X2.848 Y4.840 F1000
G1 X2.843 Y4.854 F1000
G1 X2.837 Y4.867 F1000
G1 X2.833 Y4.878 F1000
G1 X2.829 Y4.889 F1000
G1 X2.826 Y4.899 F1000
G1 X2.823 Y4.908 F1000
G1 X2.822 Y4.916 F1000
G1 X2.821 Y4.922 F1000
G1 X2.820 Y4.928 F1000
G1 X2.821 Y4.932 F1000
G1 X2.822 Y4.934 F1000
M05
G0 X2.822 Y4.934
M03 S255
G1 X2.825 Y4.937 F1000
G1 X2.830 Y4.940 F1000
G1 X2.835 Y4.943 F1000
G1 X2.842 Y4.947 F1000
G1 X2.849 Y4.952 F1000
G1 X2.858 Y4.957 F1000
G1 X2.867 Y4.962 F1000
G1 X2.878 Y4.967 F1000
G1 X2.889 Y4.973 F1000
G1 X2.901 Y4.979 F1000
G1 X2.914 Y4.985 F1000
G1 X2.927 Y4.991 F1000
G1 X2.941 Y4.998 F1000
G1 X2.956 Y5.004 F1000
G1 X2.971 Y5.011 F1000
G1 X2.986 Y5.018 F1000
G1 X3.002 Y5.024 F1000
G1 X3.018 Y5.031 F1000
G1 X3.035 Y5.038 F1000
G1 X3.051 Y5.044 F1000
M05
G0 X3.051 Y5.044
M03 S255
G1 X3.061 Y5.049 F1000
G1 X3.071 Y5.053 F1000
G1 X3.081 Y5.057 F1000
G1 X3.090 Y5.062 F1000
G1 X3.100 Y5.066 F1000
G1 X3.110 Y5.070 F1000
G1 X3.120 Y5.075 F1000
G1 X3.130 Y5.079 F1000
G1 X3.140 Y5.083 F1000
G1 X3.149 Y5.088 F1000
G1 X3.159 Y5.092 F1000
G1 X3.169 Y5.096 F1000
G1 X3.179 Y5.101 F1000
G1 X3.189 Y5.105 F1000
G1 X3.199 Y5.109 F1000
G1 X3.208 Y5.114 F1000
G1 X3.218 Y5.118 F1000
G1 X3.228 Y5.122 F1000
G1 X3.238 Y5.127 F1000
G1 X3.248 Y5.131 F1000
M05
G0 X3.248 Y5.131
M03 S255
G1 X3.340 Y5.085 F1000
G1 X3.433 Y5.040 F1000
G1 X3.526 Y4.994 F1000
G1 X3.618 Y4.949 F1000
G1 X3.711 Y4.904 F1000
G1 X3.803 Y4.858 F1000
G1 X3.896 Y4.812 F1000
G1 X3.989 Y4.767 F1000
G1 X4.081 Y4.721 F1000
G1 X4.174 Y4.676 F1000
G1 X4.266 Y4.630 F1000
G1 X4.359 Y4.585 F1000
G1 X4.452 Y4.539 F1000
G1 X4.544 Y4.494 F1000
G1 X4.637 Y4.448 F1000
G1 X4.730 Y4.403 F1000
G1 X4.822 Y4.357 F1000
G1 X4.915 Y4.312 F1000
G1 X5.007 Y4.266 F1000
G1 X5.100 Y4.221 F1000
M05
G0 X5.100 Y4.221
M03 S255
G1 X5.252 Y4.146 F1000
G1 X5.403 Y4.072 F1000
G1 X5.551 Y3.999 F1000
G1 X5.697 Y3.927 F1000
G1 X5.840 Y3.856 F1000
G1 X5.980 Y3.788 F1000
G1 X6.115 Y3.721 F1000
G1 X6.246 Y3.657 F1000
G1 X6.371 Y3.595 F1000
G1 X6.490 Y3.537 F1000
G1 X6.603 Y3.481 F1000
G1 X6.709 Y3.429 F1000
G1 X6.807 Y3.381 F1000
G1 X6.897 Y3.336 F1000
G1 X6.978 Y3.296 F1000
G1 X7.051 Y3.260 F1000
G1 X7.113 Y3.230 F1000
G1 X7.165 Y3.204 F1000
G1 X7.206 Y3.183 F1000
G1 X7.236 Y3.169 F1000
M05
G0 X7.236 Y3.169
M03 S255
G1 X7.258 Y3.157 F1000
G1 X7.281 Y3.146 F1000
G1 X7.303 Y3.135 F1000
G1 X7.324 Y3.124 F1000
G1 X7.345 Y3.113 F1000
G1 X7.365 Y3.102 F1000
G1 X7.384 Y3.091 F1000
G1 X7.402 Y3.081 F1000
G1 X7.419 Y3.071 F1000
G1 X7.435 Y3.061 F1000
G1 X7.450 Y3.052 F1000
G1 X7.464 Y3.043 F1000
G1 X7.476 Y3.035 F1000
G1 X7.487 Y3.027 F1000
G1 X7.497 Y3.020 F1000
G1 X7.505 Y3.014 F1000
G1 X7.511 Y3.008 F1000
G1 X7.516 Y3.003 F1000
G1 X7.518 Y2.999 F1000
G1 X7.519 Y2.995 F1000
M05
G0 X7.519 Y2.995
M03 S255
G1 X7.519 Y2.990 F1000
G1 X7.518 Y2.985 F1000
G1 X7.517 Y2.980 F1000
G1 X7.516 Y2.976 F1000
G1 X7.514 Y2.973 F1000
G1 X7.511 Y2.970 F1000
G1 X7.508 Y2.968 F1000
G1 X7.504 Y2.967 F1000
G1 X7.499 Y2.965 F1000
G1 X7.494 Y2.965 F1000
G1 X7.488 Y2.965 F1000
G1 X7.482 Y2.965 F1000
G1 X7.475 Y2.966 F1000
G1 X7.467 Y2.968 F1000
G1 X7.458 Y2.970 F1000
G1 X7.448 Y2.972 F1000
G1 X7.438 Y2.975 F1000
G1 X7.426 Y2.979 F1000
G1 X7.414 Y2.983 F1000
G1 X7.401 Y2.987 F1000
M05
G0 X8.662 Y2.995
M03 S255
G1 X8.664 Y3.001 F1000
G1 X8.671 Y3.010 F1000
G1 X8.685 Y3.020 F1000
G1 X8.706 Y3.035 F1000
G1 X8.737 Y3.053 F1000
G1 X8.779 Y3.077 F1000
G1 X8.833 Y3.106 F1000
G1 X8.901 Y3.142 F1000
G1 X8.985 Y3.185 F1000
G1 X9.085 Y3.235 F1000
G1 X9.203 Y3.295 F1000
G1 X9.340 Y3.363 F1000
G1 X9.499 Y3.442 F1000
G1 X9.680 Y3.531 F1000
G1 X9.886 Y3.632 F1000
G1 X10.116 Y3.745 F1000
G1 X10.374 Y3.872 F1000
G1 X10.660 Y4.011 F1000
G1 X10.975 Y4.166 F1000
G1 X11.322 Y4.335 F1000
M05
G0 X11.322 Y4.335
M03 S255
G1 X11.442 Y4.394 F1000
G1 X11.559 Y4.452 F1000
G1 X11.674 Y4.508 F1000
G1 X11.786 Y4.563 F1000
G1 X11.894 Y4.616 F1000
G1 X11.999 Y4.668 F1000
G1 X12.100 Y4.718 F1000
G1 X12.196 Y4.765 F1000
G1 X12.287 Y4.810 F1000
G1 X12.373 Y4.852 F1000
G1 X12.453 Y4.892 F1000
G1 X12.527 Y4.929 F1000
G1 X12.594 Y4.962 F1000
G1 X12.655 Y4.992 F1000
G1 X12.708 Y5.019 F1000
G1 X12.754 Y5.042 F1000
G1 X12.791 Y5.061 F1000
G1 X12.820 Y5.076 F1000
G1 X12.840 Y5.086 F1000
G1 X12.851 Y5.092 F1000
M05
G0 X12.851 Y5.092
M03 S255
G1 X12.859 Y5.096 F1000
G1 X12.868 Y5.100 F1000
G1 X12.877 Y5.103 F1000
G1 X12.886 Y5.106 F1000
G1 X12.896 Y5.107 F1000
G1 X12.907 Y5.108 F1000
G1 X12.918 Y5.108 F1000
G1 X12.929 Y5.108 F1000
G1 X12.942 Y5.107 F1000
G1 X12.955 Y5.105 F1000
G1 X12.969 Y5.102 F1000
G1 X12.983 Y5.099 F1000
G1 X12.999 Y5.095 F1000
G1 X13.016 Y5.090 F1000
G1 X13.033 Y5.084 F1000
G1 X13.052 Y5.078 F1000
G1 X13.072 Y5.071 F1000
G1 X13.093 Y5.063 F1000
G1 X13.115 Y5.054 F1000
G1 X13.138 Y5.044 F1000
M05
G0 X13.138 Y5.044
M03 S255
G1 X13.156 Y5.037 F1000
G1 X13.173 Y5.029 F1000
G1 X13.190 Y5.021 F1000
G1 X13.206 Y5.014 F1000
G1 X13.222 Y5.006 F1000
G1 X13.237 Y4.998 F1000
G1 X13.251 Y4.991 F1000
G1 X13.264 Y4.984 F1000
G1 X13.277 Y4.977 F1000
G1 X13.289 Y4.970 F1000
G1 X13.300 Y4.964 F1000
G1 X13.310 Y4.957 F1000
G1 X13.320 Y4.951 F1000
G1 X13.328 Y4.946 F1000
G1 X13.335 Y4.941 F1000
G1 X13.341 Y4.936 F1000
G1 X13.345 Y4.932 F1000
G1 X13.349 Y4.928 F1000
G1 X13.351 Y4.925 F1000
G1 X13.351 Y4.922 F1000
M05
G0 X13.351 Y4.922
M03 S255
G1 X13.350 Y4.909 F1000
G1 X13.346 Y4.891 F1000
G1 X13.339 Y4.871 F1000
G1 X13.330 Y4.847 F1000
G1 X13.319 Y4.822 F1000
G1 X13.306 Y4.795 F1000
G1 X13.292 Y4.766 F1000
G1 X13.277 Y4.736 F1000
G1 X13.260 Y4.706 F1000
G1 X13.243 Y4.676 F1000
G1 X13.225 Y4.646 F1000
G1 X13.207 Y4.617 F1000
G1 X13.190 Y4.589 F1000
G1 X13.172 Y4.563 F1000
G1 X13.155 Y4.539 F1000
G1 X13.139 Y4.517 F1000
G1 X13.124 Y4.499 F1000
G1 X13.110 Y4.484 F1000
G1 X13.098 Y4.472 F1000
G1 X13.087 Y4.465 F1000
M05
G0 X13.087 Y4.465
M03 S255
G1 X13.075 Y4.460 F1000
G1 X13.050 Y4.451 F1000
G1 X13.013 Y4.437 F1000
G1 X12.964 Y4.420 F1000
G1 X12.904 Y4.399 F1000
G1 X12.834 Y4.374 F1000
G1 X12.753 Y4.347 F1000
G1 X12.664 Y4.316 F1000
G1 X12.565 Y4.282 F1000
G1 X12.458 Y4.245 F1000
G1 X12.343 Y4.206 F1000
G1 X12.221 Y4.164 F1000
G1 X12.092 Y4.120 F1000
G1 X11.957 Y4.075 F1000
G1 X11.817 Y4.027 F1000
G1 X11.671 Y3.978 F1000
G1 X11.520 Y3.927 F1000
G1 X11.365 Y3.875 F1000
G1 X11.207 Y3.822 F1000
G1 X11.046 Y3.768 F1000
M05
G0 X11.046 Y3.768
M03 S255
G1 X10.938 Y3.732 F1000
G1 X10.830 Y3.696 F1000
G1 X10.722 Y3.659 F1000
G1 X10.613 Y3.623 F1000
G1 X10.505 Y3.587 F1000
G1 X10.397 Y3.550 F1000
G1 X10.289 Y3.514 F1000
G1 X10.181 Y3.478 F1000
G1 X10.073 Y3.441 F1000
G1 X9.965 Y3.404 F1000
G1 X9.857 Y3.368 F1000
G1 X9.749 Y3.331 F1000
G1 X9.641 Y3.294 F1000
G1 X9.534 Y3.257 F1000
G1 X9.426 Y3.220 F1000
G1 X9.318 Y3.183 F1000
G1 X9.210 Y3.146 F1000
G1 X9.102 Y3.109 F1000
G1 X8.994 Y3.072 F1000
G1 X8.887 Y3.035 F1000
M05
G0 X8.887 Y3.035
M03 S255
G1 X8.856 Y3.022 F1000
G1 X8.828 Y3.011 F1000
G1 X8.803 Y3.001 F1000
G1 X8.780 Y2.993 F1000
G1 X8.760 Y2.985 F1000
G1 X8.743 Y2.979 F1000
G1 X8.727 Y2.974 F1000
G1 X8.714 Y2.970 F1000
G1 X8.703 Y2.967 F1000
G1 X8.693 Y2.965 F1000
G1 X8.685 Y2.964 F1000
G1 X8.679 Y2.964 F1000
G1 X8.674 Y2.965 F1000
G1 X8.670 Y2.967 F1000
G1 X8.667 Y2.969 F1000
G1 X8.665 Y2.973 F1000
G1 X8.663 Y2.977 F1000
G1 X8.662 Y2.983 F1000
G1 X8.662 Y2.989 F1000
G1 X8.662 Y2.995 F1000
M05
G0 X8.662 Y2.995
M03 S255
G1 X8.662 Y2.995 F1000
G1 X8.662 Y2.995 F1000
G1 X8.662 Y2.995 F1000
G1 X8.662 Y2.995 F1000
G1 X8.662 Y2.995 F1000
G1 X8.662 Y2.995 F1000
G1 X8.662 Y2.995 F1000
G1 X8.662 Y2.995 F1000
G1 X8.662 Y2.995 F1000
G1 X8.662 Y2.995 F1000
G1 X8.662 Y2.995 F1000
G1 X8.662 Y2.995 F1000
G1 X8.662 Y2.995 F1000
G1 X8.662 Y2.995 F1000
G1 X8.662 Y2.995 F1000
G1 X8.662 Y2.995 F1000
G1 X8.662 Y2.995 F1000
G1 X8.662 Y2.995 F1000
G1 X8.662 Y2.995 F1000
G1 X8.662 Y2.995 F1000
M05
G0 X7.224 Y3.539
M03 S255
G1 X7.189 Y3.572 F1000
G1 X7.150 Y3.609 F1000
G1 X7.108 Y3.649 F1000
G1 X7.061 Y3.694 F1000
G1 X7.012 Y3.741 F1000
G1 X6.960 Y3.792 F1000
G1 X6.904 Y3.845 F1000
G1 X6.847 Y3.900 F1000
G1 X6.788 Y3.958 F1000
G1 X6.726 Y4.017 F1000
G1 X6.664 Y4.078 F1000
G1 X6.600 Y4.140 F1000
G1 X6.535 Y4.203 F1000
G1 X6.469 Y4.267 F1000
G1 X6.404 Y4.331 F1000
G1 X6.338 Y4.395 F1000
G1 X6.273 Y4.458 F1000
G1 X6.208 Y4.522 F1000
G1 X6.144 Y4.584 F1000
G1 X6.081 Y4.646 F1000
M05
G0 X6.081 Y4.646
M03 S255
G1 X6.017 Y4.708 F1000
G1 X5.950 Y4.775 F1000
G1 X5.878 Y4.845 F1000
G1 X5.804 Y4.918 F1000
G1 X5.726 Y4.994 F1000
G1 X5.646 Y5.072 F1000
G1 X5.564 Y5.152 F1000
G1 X5.481 Y5.234 F1000
G1 X5.396 Y5.317 F1000
G1 X5.311 Y5.400 F1000
G1 X5.225 Y5.484 F1000
G1 X5.139 Y5.568 F1000
G1 X5.054 Y5.651 F1000
G1 X4.969 Y5.733 F1000
G1 X4.886 Y5.815 F1000
G1 X4.805 Y5.894 F1000
G1 X4.726 Y5.971 F1000
G1 X4.649 Y6.046 F1000
G1 X4.575 Y6.118 F1000
G1 X4.505 Y6.187 F1000
M05
G0 X4.505 Y6.187
M03 S255
G1 X4.429 Y6.260 F1000
G1 X4.354 Y6.334 F1000
G1 X4.278 Y6.408 F1000
G1 X4.202 Y6.481 F1000
G1 X4.127 Y6.555 F1000
G1 X4.051 Y6.629 F1000
G1 X3.976 Y6.703 F1000
G1 X3.900 Y6.777 F1000
G1 X3.825 Y6.850 F1000
G1 X3.749 Y6.924 F1000
G1 X3.674 Y6.998 F1000
G1 X3.598 Y7.072 F1000
G1 X3.523 Y7.146 F1000
G1 X3.447 Y7.220 F1000
G1 X3.372 Y7.294 F1000
G1 X3.297 Y7.368 F1000
G1 X3.221 Y7.442 F1000
G1 X3.146 Y7.516 F1000
G1 X3.071 Y7.590 F1000
G1 X2.996 Y7.664 F1000
M05
G0 X2.996 Y7.664
M03 S255
G1 X2.962 Y7.698 F1000
G1 X2.928 Y7.731 F1000
G1 X2.894 Y7.765 F1000
G1 X2.860 Y7.798 F1000
G1 X2.826 Y7.832 F1000
G1 X2.792 Y7.865 F1000
G1 X2.758 Y7.899 F1000
G1 X2.725 Y7.932 F1000
G1 X2.691 Y7.966 F1000
G1 X2.657 Y7.999 F1000
G1 X2.623 Y8.033 F1000
G1 X2.589 Y8.066 F1000
G1 X2.555 Y8.100 F1000
G1 X2.521 Y8.133 F1000
G1 X2.487 Y8.167 F1000
G1 X2.454 Y8.200 F1000
G1 X2.420 Y8.234 F1000
G1 X2.386 Y8.267 F1000
G1 X2.352 Y8.301 F1000
G1 X2.318 Y8.334 F1000
M05
G0 X2.318 Y8.334
M03 S255
G1 X2.318 Y8.369 F1000
G1 X2.318 Y8.404 F1000
G1 X2.318 Y8.439 F1000
G1 X2.318 Y8.474 F1000
G1 X2.318 Y8.509 F1000
G1 X2.318 Y8.544 F1000
G1 X2.318 Y8.578 F1000
G1 X2.318 Y8.613 F1000
G1 X2.318 Y8.648 F1000
G1 X2.318 Y8.683 F1000
G1 X2.318 Y8.718 F1000
G1 X2.318 Y8.753 F1000
G1 X2.318 Y8.788 F1000
G1 X2.318 Y8.822 F1000
G1 X2.318 Y8.857 F1000
G1 X2.318 Y8.892 F1000
G1 X2.318 Y8.927 F1000
G1 X2.318 Y8.962 F1000
G1 X2.318 Y8.997 F1000
G1 X2.318 Y9.032 F1000
M05
G0 X2.318 Y9.032
M03 S255
G1 X2.335 Y9.030 F1000
G1 X2.353 Y9.029 F1000
G1 X2.370 Y9.028 F1000
G1 X2.387 Y9.027 F1000
G1 X2.405 Y9.026 F1000
G1 X2.422 Y9.025 F1000
G1 X2.439 Y9.024 F1000
G1 X2.457 Y9.022 F1000
G1 X2.474 Y9.021 F1000
G1 X2.491 Y9.020 F1000
G1 X2.509 Y9.019 F1000
G1 X2.526 Y9.018 F1000
G1 X2.543 Y9.016 F1000
G1 X2.561 Y9.015 F1000
G1 X2.578 Y9.014 F1000
G1 X2.595 Y9.013 F1000
G1 X2.613 Y9.012 F1000
G1 X2.630 Y9.011 F1000
G1 X2.647 Y9.009 F1000
G1 X2.665 Y9.008 F1000
M05
G0 X2.665 Y9.008
M03 S255
G1 X2.710 Y9.005 F1000
G1 X2.752 Y9.001 F1000
G1 X2.790 Y8.998 F1000
G1 X2.824 Y8.995 F1000
G1 X2.856 Y8.991 F1000
G1 X2.884 Y8.987 F1000
G1 X2.909 Y8.983 F1000
G1 X2.932 Y8.978 F1000
G1 X2.952 Y8.973 F1000
G1 X2.971 Y8.968 F1000
G1 X2.988 Y8.961 F1000
G1 X3.003 Y8.954 F1000
G1 X3.018 Y8.947 F1000
G1 X3.031 Y8.938 F1000
G1 X3.044 Y8.928 F1000
G1 X3.056 Y8.918 F1000
G1 X3.068 Y8.906 F1000
G1 X3.080 Y8.893 F1000
G1 X3.093 Y8.878 F1000
G1 X3.106 Y8.862 F1000
M05
G0 X3.106 Y8.862
M03 S255
G1 X3.121 Y8.844 F1000
G1 X3.136 Y8.826 F1000
G1 X3.151 Y8.808 F1000
G1 X3.166 Y8.790 F1000
G1 X3.181 Y8.772 F1000
G1 X3.196 Y8.754 F1000
G1 X3.211 Y8.735 F1000
G1 X3.226 Y8.717 F1000
G1 X3.241 Y8.699 F1000
G1 X3.256 Y8.681 F1000
G1 X3.271 Y8.663 F1000
G1 X3.286 Y8.645 F1000
G1 X3.301 Y8.627 F1000
G1 X3.316 Y8.608 F1000
G1 X3.331 Y8.590 F1000
G1 X3.346 Y8.572 F1000
G1 X3.361 Y8.554 F1000
G1 X3.376 Y8.536 F1000
G1 X3.391 Y8.518 F1000
G1 X3.406 Y8.500 F1000
M05
G0 X3.406 Y8.500
M03 S255
G1 X3.463 Y8.429 F1000
G1 X3.520 Y8.359 F1000
G1 X3.577 Y8.288 F1000
G1 X3.635 Y8.218 F1000
G1 X3.692 Y8.147 F1000
G1 X3.749 Y8.077 F1000
G1 X3.806 Y8.006 F1000
G1 X3.863 Y7.935 F1000
G1 X3.920 Y7.865 F1000
G1 X3.977 Y7.794 F1000
G1 X4.034 Y7.723 F1000
G1 X4.091 Y7.653 F1000
G1 X4.148 Y7.582 F1000
G1 X4.204 Y7.511 F1000
G1 X4.261 Y7.440 F1000
G1 X4.318 Y7.369 F1000
G1 X4.375 Y7.298 F1000
G1 X4.431 Y7.227 F1000
G1 X4.488 Y7.156 F1000
G1 X4.544 Y7.085 F1000
M05
G0 X4.544 Y7.085
M03 S255
G1 X4.555 Y7.073 F1000
G1 X4.565 Y7.059 F1000
G1 X4.577 Y7.045 F1000
G1 X4.588 Y7.030 F1000
G1 X4.601 Y7.015 F1000
G1 X4.613 Y7.000 F1000
G1 X4.625 Y6.984 F1000
G1 X4.638 Y6.968 F1000
G1 X4.651 Y6.952 F1000
G1 X4.664 Y6.936 F1000
G1 X4.677 Y6.919 F1000
G1 X4.690 Y6.903 F1000
G1 X4.702 Y6.887 F1000
G1 X4.715 Y6.871 F1000
G1 X4.727 Y6.856 F1000
G1 X4.738 Y6.841 F1000
G1 X4.750 Y6.826 F1000
G1 X4.761 Y6.812 F1000
G1 X4.771 Y6.798 F1000
G1 X4.781 Y6.786 F1000
M05
G0 X4.781 Y6.786
M03 S255
G1 X4.795 Y6.769 F1000
G1 X4.815 Y6.743 F1000
G1 X4.842 Y6.710 F1000
G1 X4.875 Y6.668 F1000
G1 X4.915 Y6.619 F1000
G1 X4.959 Y6.563 F1000
G1 X5.010 Y6.500 F1000
G1 X5.065 Y6.431 F1000
G1 X5.125 Y6.357 F1000
G1 X5.189 Y6.276 F1000
G1 X5.257 Y6.191 F1000
G1 X5.329 Y6.101 F1000
G1 X5.405 Y6.007 F1000
G1 X5.483 Y5.910 F1000
G1 X5.565 Y5.808 F1000
G1 X5.649 Y5.704 F1000
G1 X5.735 Y5.597 F1000
G1 X5.822 Y5.488 F1000
G1 X5.912 Y5.377 F1000
G1 X6.002 Y5.265 F1000
M05
G0 X6.002 Y5.265
M03 S255
G1 X6.093 Y5.152 F1000
G1 X6.182 Y5.042 F1000
G1 X6.269 Y4.933 F1000
G1 X6.355 Y4.827 F1000
G1 X6.438 Y4.723 F1000
G1 X6.519 Y4.623 F1000
G1 X6.597 Y4.526 F1000
G1 X6.672 Y4.433 F1000
G1 X6.743 Y4.344 F1000
G1 X6.810 Y4.260 F1000
G1 X6.873 Y4.181 F1000
G1 X6.932 Y4.108 F1000
G1 X6.986 Y4.041 F1000
G1 X7.035 Y3.980 F1000
G1 X7.078 Y3.925 F1000
G1 X7.116 Y3.878 F1000
G1 X7.148 Y3.838 F1000
G1 X7.173 Y3.806 F1000
G1 X7.192 Y3.782 F1000
G1 X7.204 Y3.767 F1000
M05
G0 X7.204 Y3.767
M03 S255
G1 X7.218 Y3.750 F1000
G1 X7.231 Y3.732 F1000
G1 X7.245 Y3.715 F1000
G1 X7.258 Y3.697 F1000
G1 X7.272 Y3.680 F1000
G1 X7.286 Y3.662 F1000
G1 X7.299 Y3.645 F1000
G1 X7.313 Y3.627 F1000
G1 X7.326 Y3.610 F1000
G1 X7.340 Y3.592 F1000
G1 X7.354 Y3.574 F1000
G1 X7.367 Y3.557 F1000
G1 X7.381 Y3.539 F1000
G1 X7.394 Y3.522 F1000
G1 X7.408 Y3.504 F1000
G1 X7.422 Y3.487 F1000
G1 X7.435 Y3.469 F1000
G1 X7.449 Y3.452 F1000
G1 X7.462 Y3.434 F1000
G1 X7.476 Y3.417 F1000
M05
G0 X7.476 Y3.417
M03 S255
G1 X7.490 Y3.398 F1000
G1 X7.504 Y3.381 F1000
G1 X7.517 Y3.363 F1000
G1 X7.529 Y3.346 F1000
G1 X7.542 Y3.329 F1000
G1 X7.553 Y3.313 F1000
G1 X7.564 Y3.298 F1000
G1 X7.575 Y3.283 F1000
G1 X7.584 Y3.269 F1000
G1 X7.593 Y3.255 F1000
G1 X7.601 Y3.243 F1000
G1 X7.609 Y3.232 F1000
G1 X7.615 Y3.221 F1000
G1 X7.621 Y3.212 F1000
G1 X7.626 Y3.203 F1000
G1 X7.629 Y3.196 F1000
G1 X7.632 Y3.190 F1000
G1 X7.634 Y3.185 F1000
G1 X7.634 Y3.182 F1000
G1 X7.634 Y3.180 F1000
M05
G0 X7.634 Y3.180
M03 S255
G1 X7.631 Y3.180 F1000
G1 X7.626 Y3.183 F1000
G1 X7.619 Y3.187 F1000
G1 X7.609 Y3.194 F1000
G1 X7.597 Y3.203 F1000
G1 X7.583 Y3.215 F1000
G1 X7.566 Y3.228 F1000
G1 X7.548 Y3.243 F1000
G1 X7.528 Y3.260 F1000
G1 X7.507 Y3.278 F1000
G1 X7.484 Y3.298 F1000
G1 X7.459 Y3.320 F1000
G1 X7.433 Y3.343 F1000
G1 X7.406 Y3.368 F1000
G1 X7.378 Y3.394 F1000
G1 X7.349 Y3.421 F1000
G1 X7.319 Y3.449 F1000
G1 X7.288 Y3.478 F1000
G1 X7.256 Y3.508 F1000
G1 X7.224 Y3.539 F1000
M05
G0 X8.504 Y3.177
M03 S255
G1 X8.505 Y3.179 F1000
G1 X8.506 Y3.183 F1000
G1 X8.509 Y3.187 F1000
G1 X8.512 Y3.193 F1000
G1 X8.517 Y3.200 F1000
G1 X8.522 Y3.208 F1000
G1 X8.528 Y3.216 F1000
G1 X8.535 Y3.226 F1000
G1 X8.542 Y3.236 F1000
G1 X8.550 Y3.247 F1000
G1 X8.559 Y3.259 F1000
G1 X8.568 Y3.271 F1000
G1 X8.578 Y3.284 F1000
G1 X8.588 Y3.297 F1000
G1 X8.599 Y3.311 F1000
G1 X8.610 Y3.325 F1000
G1 X8.622 Y3.340 F1000
G1 X8.634 Y3.355 F1000
G1 X8.646 Y3.370 F1000
G1 X8.658 Y3.385 F1000
M05
G0 X8.658 Y3.385
M03 S255
G1 X8.725 Y3.467 F1000
G1 X8.793 Y3.548 F1000
G1 X8.860 Y3.630 F1000
G1 X8.927 Y3.712 F1000
G1 X8.994 Y3.794 F1000
G1 X9.061 Y3.875 F1000
G1 X9.128 Y3.957 F1000
G1 X9.195 Y4.039 F1000
G1 X9.262 Y4.121 F1000
G1 X9.329 Y4.203 F1000
G1 X9.395 Y4.285 F1000
G1 X9.462 Y4.367 F1000
G1 X9.529 Y4.449 F1000
G1 X9.595 Y4.531 F1000
G1 X9.662 Y4.613 F1000
G1 X9.729 Y4.695 F1000
G1 X9.795 Y4.778 F1000
G1 X9.861 Y4.860 F1000
G1 X9.928 Y4.942 F1000
G1 X9.994 Y5.025 F1000
M05
G0 X9.994 Y5.025
M03 S255
G1 X10.010 Y5.045 F1000
G1 X10.028 Y5.066 F1000
G1 X10.047 Y5.090 F1000
G1 X10.067 Y5.115 F1000
G1 X10.089 Y5.142 F1000
G1 X10.111 Y5.170 F1000
G1 X10.135 Y5.199 F1000
G1 X10.159 Y5.229 F1000
G1 X10.184 Y5.260 F1000
G1 X10.210 Y5.291 F1000
G1 X10.235 Y5.323 F1000
G1 X10.262 Y5.355 F1000
G1 X10.288 Y5.388 F1000
G1 X10.314 Y5.421 F1000
G1 X10.341 Y5.453 F1000
G1 X10.367 Y5.485 F1000
G1 X10.393 Y5.517 F1000
G1 X10.418 Y5.548 F1000
G1 X10.443 Y5.578 F1000
G1 X10.467 Y5.608 F1000
M05
G0 X10.467 Y5.608
M03 S255
G1 X10.491 Y5.638 F1000
G1 X10.519 Y5.672 F1000
G1 X10.548 Y5.707 F1000
G1 X10.579 Y5.745 F1000
G1 X10.611 Y5.785 F1000
G1 X10.645 Y5.827 F1000
G1 X10.681 Y5.870 F1000
G1 X10.717 Y5.915 F1000
G1 X10.755 Y5.961 F1000
G1 X10.793 Y6.008 F1000
G1 X10.832 Y6.055 F1000
G1 X10.871 Y6.104 F1000
G1 X10.911 Y6.152 F1000
G1 X10.950 Y6.200 F1000
G1 X10.989 Y6.248 F1000
G1 X11.028 Y6.296 F1000
G1 X11.066 Y6.343 F1000
G1 X11.104 Y6.390 F1000
G1 X11.140 Y6.435 F1000
G1 X11.176 Y6.479 F1000
M05
G0 X11.176 Y6.479
M03 S255
G1 X11.227 Y6.543 F1000
G1 X11.278 Y6.606 F1000
G1 X11.329 Y6.670 F1000
G1 X11.380 Y6.734 F1000
G1 X11.432 Y6.798 F1000
G1 X11.483 Y6.861 F1000
G1 X11.535 Y6.925 F1000
G1 X11.586 Y6.989 F1000
G1 X11.637 Y7.052 F1000
G1 X11.689 Y7.116 F1000
G1 X11.741 Y7.179 F1000
G1 X11.792 Y7.242 F1000
G1 X11.844 Y7.306 F1000
G1 X11.896 Y7.369 F1000
G1 X11.948 Y7.432 F1000
G1 X12.000 Y7.495 F1000
G1 X12.052 Y7.558 F1000
G1 X12.104 Y7.621 F1000
G1 X12.156 Y7.684 F1000
G1 X12.208 Y7.747 F1000
M05
G0 X12.208 Y7.747
M03 S255
G1 X12.230 Y7.773 F1000
G1 X12.251 Y7.800 F1000
G1 X12.273 Y7.826 F1000
G1 X12.294 Y7.852 F1000
G1 X12.315 Y7.878 F1000
G1 X12.336 Y7.904 F1000
G1 X12.356 Y7.929 F1000
G1 X12.376 Y7.953 F1000
G1 X12.396 Y7.977 F1000
G1 X12.414 Y8.001 F1000
G1 X12.432 Y8.023 F1000
G1 X12.449 Y8.044 F1000
G1 X12.465 Y8.064 F1000
G1 X12.480 Y8.083 F1000
G1 X12.494 Y8.101 F1000
G1 X12.507 Y8.117 F1000
G1 X12.518 Y8.132 F1000
G1 X12.528 Y8.145 F1000
G1 X12.537 Y8.156 F1000
G1 X12.543 Y8.165 F1000
M05
G0 X12.543 Y8.165
M03 S255
G1 X12.551 Y8.174 F1000
G1 X12.560 Y8.186 F1000
G1 X12.571 Y8.200 F1000
G1 X12.583 Y8.215 F1000
G1 X12.597 Y8.233 F1000
G1 X12.612 Y8.252 F1000
G1 X12.628 Y8.273 F1000
G1 X12.646 Y8.295 F1000
G1 X12.665 Y8.318 F1000
G1 X12.684 Y8.343 F1000
G1 X12.705 Y8.369 F1000
G1 X12.726 Y8.395 F1000
G1 X12.748 Y8.423 F1000
G1 X12.771 Y8.451 F1000
G1 X12.794 Y8.480 F1000
G1 X12.817 Y8.510 F1000
G1 X12.841 Y8.540 F1000
G1 X12.865 Y8.570 F1000
G1 X12.889 Y8.600 F1000
G1 X12.914 Y8.630 F1000
M05
G0 X12.914 Y8.630
M03 S255
G1 X12.928 Y8.648 F1000
G1 X12.943 Y8.666 F1000
G1 X12.958 Y8.684 F1000
G1 X12.973 Y8.702 F1000
G1 X12.988 Y8.720 F1000
G1 X13.002 Y8.738 F1000
G1 X13.017 Y8.756 F1000
G1 X13.032 Y8.773 F1000
G1 X13.047 Y8.791 F1000
G1 X13.062 Y8.809 F1000
G1 X13.076 Y8.827 F1000
G1 X13.091 Y8.845 F1000
G1 X13.106 Y8.863 F1000
G1 X13.121 Y8.881 F1000
G1 X13.135 Y8.899 F1000
G1 X13.150 Y8.917 F1000
G1 X13.165 Y8.935 F1000
G1 X13.180 Y8.953 F1000
G1 X13.195 Y8.971 F1000
G1 X13.209 Y8.989 F1000
M05
G0 X13.209 Y8.989
M03 S255
G1 X13.242 Y8.989 F1000
G1 X13.275 Y8.989 F1000
G1 X13.307 Y8.989 F1000
G1 X13.340 Y8.989 F1000
G1 X13.373 Y8.989 F1000
G1 X13.406 Y8.989 F1000
G1 X13.438 Y8.989 F1000
G1 X13.471 Y8.989 F1000
G1 X13.504 Y8.989 F1000
G1 X13.536 Y8.989 F1000
G1 X13.569 Y8.989 F1000
G1 X13.602 Y8.989 F1000
G1 X13.634 Y8.989 F1000
G1 X13.667 Y8.989 F1000
G1 X13.700 Y8.989 F1000
G1 X13.733 Y8.989 F1000
G1 X13.765 Y8.989 F1000
G1 X13.798 Y8.989 F1000
G1 X13.831 Y8.989 F1000
G1 X13.863 Y8.989 F1000
M05
G0 X13.863 Y8.989
M03 S255
G1 X13.863 Y8.958 F1000
G1 X13.863 Y8.928 F1000
G1 X13.863 Y8.897 F1000
G1 X13.863 Y8.867 F1000
G1 X13.863 Y8.836 F1000
G1 X13.863 Y8.805 F1000
G1 X13.863 Y8.775 F1000
G1 X13.863 Y8.744 F1000
G1 X13.863 Y8.714 F1000
G1 X13.863 Y8.683 F1000
G1 X13.863 Y8.653 F1000
G1 X13.863 Y8.622 F1000
G1 X13.863 Y8.592 F1000
G1 X13.863 Y8.561 F1000
G1 X13.863 Y8.531 F1000
G1 X13.863 Y8.500 F1000
G1 X13.863 Y8.470 F1000
G1 X13.863 Y8.439 F1000
G1 X13.863 Y8.409 F1000
G1 X13.863 Y8.378 F1000
M05
G0 X13.863 Y8.378
M03 S255
G1 X13.818 Y8.334 F1000
G1 X13.773 Y8.289 F1000
G1 X13.728 Y8.245 F1000
G1 X13.683 Y8.201 F1000
G1 X13.638 Y8.156 F1000
G1 X13.593 Y8.112 F1000
G1 X13.548 Y8.068 F1000
G1 X13.502 Y8.023 F1000
G1 X13.457 Y7.979 F1000
G1 X13.412 Y7.935 F1000
G1 X13.367 Y7.890 F1000
G1 X13.322 Y7.846 F1000
G1 X13.277 Y7.802 F1000
G1 X13.232 Y7.757 F1000
G1 X13.187 Y7.713 F1000
G1 X13.141 Y7.669 F1000
G1 X13.096 Y7.624 F1000
G1 X13.051 Y7.580 F1000
G1 X13.006 Y7.536 F1000
G1 X12.961 Y7.491 F1000
M05
G0 X12.961 Y7.491
M03 S255
G1 X12.829 Y7.361 F1000
G1 X12.697 Y7.231 F1000
G1 X12.564 Y7.101 F1000
G1 X12.432 Y6.971 F1000
G1 X12.300 Y6.841 F1000
G1 X12.168 Y6.711 F1000
G1 X12.036 Y6.581 F1000
G1 X11.903 Y6.451 F1000
G1 X11.771 Y6.321 F1000
G1 X11.639 Y6.191 F1000
G1 X11.507 Y6.061 F1000
G1 X11.375 Y5.931 F1000
G1 X11.242 Y5.801 F1000
G1 X11.110 Y5.671 F1000
G1 X10.978 Y5.541 F1000
G1 X10.846 Y5.411 F1000
G1 X10.714 Y5.281 F1000
G1 X10.581 Y5.151 F1000
G1 X10.449 Y5.021 F1000
G1 X10.317 Y4.891 F1000
M05
G0 X10.317 Y4.891
M03 S255
G1 X10.175 Y4.751 F1000
G1 X10.035 Y4.614 F1000
G1 X9.899 Y4.480 F1000
G1 X9.766 Y4.350 F1000
G1 X9.638 Y4.224 F1000
G1 X9.515 Y4.103 F1000
G1 X9.396 Y3.988 F1000
G1 X9.284 Y3.877 F1000
G1 X9.177 Y3.773 F1000
G1 X9.077 Y3.676 F1000
G1 X8.984 Y3.586 F1000
G1 X8.898 Y3.503 F1000
G1 X8.821 Y3.428 F1000
G1 X8.752 Y3.361 F1000
G1 X8.691 Y3.304 F1000
G1 X8.640 Y3.255 F1000
G1 X8.599 Y3.217 F1000
G1 X8.569 Y3.189 F1000
G1 X8.549 Y3.171 F1000
G1 X8.540 Y3.165 F1000
M05
G0 X8.540 Y3.165
M03 S255
G1 X8.537 Y3.164 F1000
G1 X8.534 Y3.163 F1000
G1 X8.531 Y3.162 F1000
G1 X8.529 Y3.161 F1000
G1 X8.526 Y3.161 F1000
G1 X8.523 Y3.161 F1000
G1 X8.521 Y3.161 F1000
G1 X8.519 Y3.161 F1000
G1 X8.517 Y3.161 F1000
G1 X8.515 Y3.162 F1000
G1 X8.513 Y3.162 F1000
G1 X8.511 Y3.163 F1000
G1 X8.510 Y3.164 F1000
G1 X8.508 Y3.166 F1000
G1 X8.507 Y3.167 F1000
G1 X8.506 Y3.169 F1000
G1 X8.505 Y3.170 F1000
G1 X8.505 Y3.172 F1000
G1 X8.504 Y3.174 F1000
G1 X8.504 Y3.177 F1000
M05
G0 X7.642 Y3.539
M03 S255
G1 X7.630 Y3.563 F1000
G1 X7.616 Y3.592 F1000
G1 X7.600 Y3.624 F1000
G1 X7.582 Y3.659 F1000
G1 X7.562 Y3.698 F1000
G1 X7.541 Y3.740 F1000
G1 X7.518 Y3.784 F1000
G1 X7.494 Y3.831 F1000
G1 X7.469 Y3.880 F1000
G1 X7.442 Y3.932 F1000
G1 X7.415 Y3.984 F1000
G1 X7.386 Y4.039 F1000
G1 X7.357 Y4.094 F1000
G1 X7.328 Y4.151 F1000
G1 X7.297 Y4.208 F1000
G1 X7.267 Y4.266 F1000
G1 X7.236 Y4.323 F1000
G1 X7.206 Y4.381 F1000
G1 X7.175 Y4.439 F1000
G1 X7.145 Y4.496 F1000
M05
G0 X7.145 Y4.496
M03 S255
G1 X7.111 Y4.560 F1000
G1 X7.077 Y4.624 F1000
G1 X7.043 Y4.687 F1000
G1 X7.009 Y4.751 F1000
G1 X6.976 Y4.815 F1000
G1 X6.942 Y4.879 F1000
G1 X6.908 Y4.943 F1000
G1 X6.875 Y5.007 F1000
G1 X6.841 Y5.071 F1000
G1 X6.807 Y5.135 F1000
G1 X6.774 Y5.199 F1000
G1 X6.741 Y5.263 F1000
G1 X6.707 Y5.327 F1000
G1 X6.674 Y5.391 F1000
G1 X6.641 Y5.455 F1000
G1 X6.607 Y5.520 F1000
G1 X6.574 Y5.584 F1000
G1 X6.541 Y5.648 F1000
G1 X6.508 Y5.712 F1000
G1 X6.475 Y5.777 F1000
M05
G0 X6.475 Y5.777
M03 S255
G1 X6.449 Y5.827 F1000
G1 X6.420 Y5.881 F1000
G1 X6.390 Y5.939 F1000
G1 X6.359 Y6.000 F1000
G1 X6.326 Y6.063 F1000
G1 X6.292 Y6.128 F1000
G1 X6.256 Y6.196 F1000
G1 X6.220 Y6.265 F1000
G1 X6.184 Y6.336 F1000
G1 X6.147 Y6.407 F1000
G1 X6.109 Y6.479 F1000
G1 X6.071 Y6.551 F1000
G1 X6.034 Y6.624 F1000
G1 X5.996 Y6.695 F1000
G1 X5.959 Y6.766 F1000
G1 X5.923 Y6.836 F1000
G1 X5.887 Y6.904 F1000
G1 X5.852 Y6.971 F1000
G1 X5.818 Y7.035 F1000
G1 X5.786 Y7.097 F1000
M05
G0 X5.786 Y7.097
M03 S255
G1 X5.750 Y7.165 F1000
G1 X5.715 Y7.233 F1000
G1 X5.679 Y7.301 F1000
G1 X5.644 Y7.369 F1000
G1 X5.609 Y7.437 F1000
G1 X5.573 Y7.505 F1000
G1 X5.538 Y7.573 F1000
G1 X5.502 Y7.641 F1000
G1 X5.467 Y7.709 F1000
G1 X5.431 Y7.777 F1000
G1 X5.396 Y7.845 F1000
G1 X5.360 Y7.913 F1000
G1 X5.325 Y7.981 F1000
G1 X5.289 Y8.049 F1000
G1 X5.254 Y8.117 F1000
G1 X5.218 Y8.185 F1000
G1 X5.183 Y8.252 F1000
G1 X5.147 Y8.320 F1000
G1 X5.112 Y8.388 F1000
G1 X5.076 Y8.456 F1000
M05
G0 X5.076 Y8.456
M03 S255
G1 X5.008 Y8.589 F1000
G1 X4.938 Y8.723 F1000
G1 X4.867 Y8.859 F1000
G1 X4.796 Y8.996 F1000
G1 X4.725 Y9.131 F1000
G1 X4.655 Y9.266 F1000
G1 X4.586 Y9.399 F1000
G1 X4.518 Y9.528 F1000
G1 X4.452 Y9.655 F1000
G1 X4.388 Y9.776 F1000
G1 X4.327 Y9.893 F1000
G1 X4.269 Y10.003 F1000
G1 X4.215 Y10.106 F1000
G1 X4.164 Y10.201 F1000
G1 X4.118 Y10.288 F1000
G1 X4.077 Y10.365 F1000
G1 X4.041 Y10.433 F1000
G1 X4.011 Y10.489 F1000
G1 X3.987 Y10.533 F1000
G1 X3.969 Y10.564 F1000
M05
G0 X3.969 Y10.564
M03 S255
G1 X3.962 Y10.576 F1000
G1 X3.955 Y10.589 F1000
G1 X3.948 Y10.602 F1000
G1 X3.940 Y10.616 F1000
G1 X3.932 Y10.631 F1000
G1 X3.923 Y10.647 F1000
G1 X3.915 Y10.663 F1000
G1 X3.906 Y10.679 F1000
G1 X3.897 Y10.696 F1000
G1 X3.888 Y10.713 F1000
G1 X3.879 Y10.730 F1000
G1 X3.871 Y10.748 F1000
G1 X3.862 Y10.765 F1000
G1 X3.853 Y10.782 F1000
G1 X3.845 Y10.799 F1000
G1 X3.837 Y10.816 F1000
G1 X3.829 Y10.833 F1000
G1 X3.822 Y10.849 F1000
G1 X3.814 Y10.865 F1000
G1 X3.808 Y10.880 F1000
M05
G0 X3.808 Y10.880
M03 S255
G1 X3.799 Y10.898 F1000
G1 X3.787 Y10.922 F1000
G1 X3.772 Y10.952 F1000
G1 X3.754 Y10.987 F1000
G1 X3.733 Y11.028 F1000
G1 X3.710 Y11.073 F1000
G1 X3.684 Y11.123 F1000
G1 X3.656 Y11.178 F1000
G1 X3.626 Y11.236 F1000
G1 X3.594 Y11.298 F1000
G1 X3.560 Y11.364 F1000
G1 X3.524 Y11.432 F1000
G1 X3.487 Y11.504 F1000
G1 X3.448 Y11.577 F1000
G1 X3.409 Y11.653 F1000
G1 X3.368 Y11.731 F1000
G1 X3.326 Y11.810 F1000
G1 X3.283 Y11.890 F1000
G1 X3.240 Y11.972 F1000
G1 X3.197 Y12.054 F1000
M05
G0 X3.197 Y12.054
M03 S255
G1 X3.170 Y12.104 F1000
G1 X3.144 Y12.153 F1000
G1 X3.117 Y12.203 F1000
G1 X3.091 Y12.253 F1000
G1 X3.065 Y12.303 F1000
G1 X3.038 Y12.353 F1000
G1 X3.012 Y12.403 F1000
G1 X2.985 Y12.452 F1000
G1 X2.959 Y12.502 F1000
G1 X2.933 Y12.552 F1000
G1 X2.906 Y12.602 F1000
G1 X2.880 Y12.652 F1000
G1 X2.853 Y12.702 F1000
G1 X2.827 Y12.752 F1000
G1 X2.801 Y12.801 F1000
G1 X2.774 Y12.851 F1000
G1 X2.748 Y12.901 F1000
G1 X2.721 Y12.951 F1000
G1 X2.695 Y13.001 F1000
G1 X2.669 Y13.051 F1000
M05
G0 X2.669 Y13.051
M03 S255
G1 X2.673 Y13.069 F1000
G1 X2.677 Y13.088 F1000
G1 X2.682 Y13.107 F1000
G1 X2.686 Y13.126 F1000
G1 X2.690 Y13.144 F1000
G1 X2.695 Y13.163 F1000
G1 X2.699 Y13.182 F1000
G1 X2.703 Y13.200 F1000
G1 X2.708 Y13.219 F1000
G1 X2.712 Y13.238 F1000
G1 X2.716 Y13.257 F1000
G1 X2.721 Y13.275 F1000
G1 X2.725 Y13.294 F1000
G1 X2.729 Y13.313 F1000
G1 X2.734 Y13.331 F1000
G1 X2.738 Y13.350 F1000
G1 X2.742 Y13.369 F1000
G1 X2.747 Y13.388 F1000
G1 X2.751 Y13.406 F1000
G1 X2.755 Y13.425 F1000
M05
G0 X2.755 Y13.425
M03 S255
G1 X2.762 Y13.455 F1000
G1 X2.770 Y13.485 F1000
G1 X2.777 Y13.515 F1000
G1 X2.784 Y13.543 F1000
G1 X2.791 Y13.571 F1000
G1 X2.798 Y13.597 F1000
G1 X2.805 Y13.623 F1000
G1 X2.812 Y13.647 F1000
G1 X2.818 Y13.671 F1000
G1 X2.824 Y13.692 F1000
G1 X2.830 Y13.713 F1000
G1 X2.836 Y13.732 F1000
G1 X2.842 Y13.749 F1000
G1 X2.847 Y13.764 F1000
G1 X2.852 Y13.778 F1000
G1 X2.856 Y13.790 F1000
G1 X2.860 Y13.799 F1000
G1 X2.864 Y13.807 F1000
G1 X2.867 Y13.812 F1000
G1 X2.870 Y13.815 F1000
M05
G0 X2.870 Y13.815
M03 S255
G1 X2.880 Y13.816 F1000
G1 X2.898 Y13.814 F1000
G1 X2.924 Y13.807 F1000
G1 X2.956 Y13.797 F1000
G1 X2.993 Y13.784 F1000
G1 X3.036 Y13.769 F1000
G1 X3.081 Y13.751 F1000
G1 X3.130 Y13.731 F1000
G1 X3.181 Y13.710 F1000
G1 X3.233 Y13.688 F1000
G1 X3.285 Y13.665 F1000
G1 X3.337 Y13.641 F1000
G1 X3.387 Y13.618 F1000
G1 X3.435 Y13.595 F1000
G1 X3.480 Y13.572 F1000
G1 X3.521 Y13.551 F1000
G1 X3.557 Y13.531 F1000
G1 X3.587 Y13.513 F1000
G1 X3.610 Y13.497 F1000
G1 X3.626 Y13.484 F1000
M05
G0 X3.626 Y13.484
M03 S255
G1 X3.636 Y13.474 F1000
G1 X3.646 Y13.461 F1000
G1 X3.657 Y13.446 F1000
G1 X3.669 Y13.427 F1000
G1 X3.682 Y13.404 F1000
G1 X3.697 Y13.377 F1000
G1 X3.713 Y13.346 F1000
G1 X3.730 Y13.309 F1000
G1 X3.749 Y13.267 F1000
G1 X3.771 Y13.220 F1000
G1 X3.794 Y13.166 F1000
G1 X3.820 Y13.105 F1000
G1 X3.848 Y13.038 F1000
G1 X3.879 Y12.963 F1000
G1 X3.913 Y12.881 F1000
G1 X3.949 Y12.790 F1000
G1 X3.990 Y12.691 F1000
G1 X4.033 Y12.582 F1000
G1 X4.080 Y12.465 F1000
G1 X4.131 Y12.337 F1000
M05
G0 X4.131 Y12.337
M03 S255
G1 X4.146 Y12.299 F1000
G1 X4.162 Y12.260 F1000
G1 X4.177 Y12.222 F1000
G1 X4.193 Y12.183 F1000
G1 X4.209 Y12.145 F1000
G1 X4.224 Y12.107 F1000
G1 X4.240 Y12.068 F1000
G1 X4.256 Y12.030 F1000
G1 X4.272 Y11.991 F1000
G1 X4.287 Y11.953 F1000
G1 X4.303 Y11.914 F1000
G1 X4.319 Y11.876 F1000
G1 X4.335 Y11.838 F1000
G1 X4.351 Y11.799 F1000
G1 X4.366 Y11.761 F1000
G1 X4.382 Y11.722 F1000
G1 X4.398 Y11.684 F1000
G1 X4.414 Y11.646 F1000
G1 X4.430 Y11.607 F1000
G1 X4.446 Y11.569 F1000
M05
G0 X4.446 Y11.569
M03 S255
G1 X4.484 Y11.479 F1000
G1 X4.523 Y11.384 F1000
G1 X4.564 Y11.285 F1000
G1 X4.606 Y11.182 F1000
G1 X4.650 Y11.075 F1000
G1 X4.696 Y10.965 F1000
G1 X4.743 Y10.851 F1000
G1 X4.791 Y10.734 F1000
G1 X4.841 Y10.613 F1000
G1 X4.891 Y10.490 F1000
G1 X4.943 Y10.365 F1000
G1 X4.995 Y10.236 F1000
G1 X5.049 Y10.106 F1000
G1 X5.103 Y9.973 F1000
G1 X5.158 Y9.839 F1000
G1 X5.214 Y9.703 F1000
G1 X5.271 Y9.565 F1000
G1 X5.328 Y9.426 F1000
G1 X5.385 Y9.287 F1000
G1 X5.443 Y9.146 F1000
M05
G0 X5.443 Y9.146
M03 S255
G1 X5.461 Y9.101 F1000
G1 X5.480 Y9.054 F1000
G1 X5.500 Y9.005 F1000
G1 X5.520 Y8.955 F1000
G1 X5.541 Y8.904 F1000
G1 X5.562 Y8.851 F1000
G1 X5.584 Y8.798 F1000
G1 X5.606 Y8.744 F1000
G1 X5.628 Y8.691 F1000
G1 X5.650 Y8.637 F1000
G1 X5.671 Y8.583 F1000
G1 X5.693 Y8.531 F1000
G1 X5.714 Y8.479 F1000
G1 X5.735 Y8.428 F1000
G1 X5.755 Y8.378 F1000
G1 X5.775 Y8.330 F1000
G1 X5.794 Y8.285 F1000
G1 X5.812 Y8.241 F1000
G1 X5.829 Y8.199 F1000
G1 X5.845 Y8.161 F1000
M05
G0 X5.845 Y8.161
M03 S255
G1 X5.860 Y8.123 F1000
G1 X5.876 Y8.084 F1000
G1 X5.893 Y8.044 F1000
G1 X5.909 Y8.003 F1000
G1 X5.926 Y7.962 F1000
G1 X5.943 Y7.921 F1000
G1 X5.960 Y7.879 F1000
G1 X5.976 Y7.838 F1000
G1 X5.993 Y7.797 F1000
G1 X6.009 Y7.756 F1000
G1 X6.025 Y7.716 F1000
G1 X6.041 Y7.677 F1000
G1 X6.056 Y7.639 F1000
G1 X6.071 Y7.602 F1000
G1 X6.085 Y7.567 F1000
G1 X6.099 Y7.533 F1000
G1 X6.112 Y7.502 F1000
G1 X6.123 Y7.472 F1000
G1 X6.134 Y7.445 F1000
G1 X6.144 Y7.420 F1000
M05
G0 X6.144 Y7.420
M03 S255
G1 X6.154 Y7.396 F1000
G1 X6.164 Y7.372 F1000
G1 X6.174 Y7.348 F1000
G1 X6.184 Y7.323 F1000
G1 X6.194 Y7.298 F1000
G1 X6.205 Y7.272 F1000
G1 X6.215 Y7.247 F1000
G1 X6.226 Y7.221 F1000
G1 X6.236 Y7.196 F1000
G1 X6.246 Y7.171 F1000
G1 X6.256 Y7.147 F1000
G1 X6.266 Y7.123 F1000
G1 X6.276 Y7.100 F1000
G1 X6.285 Y7.077 F1000
G1 X6.294 Y7.056 F1000
G1 X6.303 Y7.035 F1000
G1 X6.311 Y7.016 F1000
G1 X6.319 Y6.998 F1000
G1 X6.327 Y6.982 F1000
G1 X6.333 Y6.967 F1000
M05
G0 X6.333 Y6.967
M03 S255
G1 X6.340 Y6.951 F1000
G1 X6.348 Y6.932 F1000
G1 X6.358 Y6.909 F1000
G1 X6.369 Y6.882 F1000
G1 X6.382 Y6.853 F1000
G1 X6.395 Y6.820 F1000
G1 X6.410 Y6.785 F1000
G1 X6.426 Y6.747 F1000
G1 X6.443 Y6.707 F1000
G1 X6.460 Y6.665 F1000
G1 X6.479 Y6.620 F1000
G1 X6.498 Y6.575 F1000
G1 X6.517 Y6.527 F1000
G1 X6.538 Y6.478 F1000
G1 X6.558 Y6.429 F1000
G1 X6.579 Y6.378 F1000
G1 X6.600 Y6.327 F1000
G1 X6.622 Y6.275 F1000
G1 X6.643 Y6.223 F1000
G1 X6.664 Y6.171 F1000
M05
G0 X6.664 Y6.171
M03 S255
G1 X6.703 Y6.075 F1000
G1 X6.748 Y5.965 F1000
G1 X6.798 Y5.843 F1000
G1 X6.853 Y5.709 F1000
G1 X6.912 Y5.566 F1000
G1 X6.973 Y5.416 F1000
G1 X7.037 Y5.261 F1000
G1 X7.103 Y5.102 F1000
G1 X7.169 Y4.942 F1000
G1 X7.235 Y4.781 F1000
G1 X7.300 Y4.623 F1000
G1 X7.364 Y4.468 F1000
G1 X7.426 Y4.319 F1000
G1 X7.484 Y4.178 F1000
G1 X7.539 Y4.046 F1000
G1 X7.589 Y3.925 F1000
G1 X7.634 Y3.817 F1000
G1 X7.672 Y3.724 F1000
G1 X7.704 Y3.647 F1000
G1 X7.728 Y3.590 F1000
M05
G0 X7.728 Y3.590
M03 S255
G1 X7.751 Y3.533 F1000
G1 X7.771 Y3.481 F1000
G1 X7.788 Y3.435 F1000
G1 X7.801 Y3.395 F1000
G1 X7.811 Y3.360 F1000
G1 X7.818 Y3.331 F1000
G1 X7.822 Y3.307 F1000
G1 X7.824 Y3.290 F1000
G1 X7.822 Y3.278 F1000
G1 X7.818 Y3.272 F1000
G1 X7.811 Y3.271 F1000
G1 X7.801 Y3.277 F1000
G1 X7.789 Y3.288 F1000
G1 X7.775 Y3.306 F1000
G1 X7.758 Y3.329 F1000
G1 X7.739 Y3.359 F1000
G1 X7.718 Y3.395 F1000
G1 X7.694 Y3.436 F1000
G1 X7.669 Y3.484 F1000
G1 X7.642 Y3.539 F1000
M05
G0 X7.642 Y3.539
M03 S255
G1 X7.642 Y3.539 F1000
G1 X7.642 Y3.539 F1000
G1 X7.642 Y3.539 F1000
G1 X7.642 Y3.539 F1000
G1 X7.642 Y3.539 F1000
G1 X7.642 Y3.539 F1000
G1 X7.642 Y3.539 F1000
G1 X7.642 Y3.539 F1000
G1 X7.642 Y3.539 F1000
G1 X7.642 Y3.539 F1000
G1 X7.642 Y3.539 F1000
G1 X7.642 Y3.539 F1000
G1 X7.642 Y3.539 F1000
G1 X7.642 Y3.539 F1000
G1 X7.642 Y3.539 F1000
G1 X7.642 Y3.539 F1000
G1 X7.642 Y3.539 F1000
G1 X7.642 Y3.539 F1000
G1 X7.642 Y3.539 F1000
G1 X7.642 Y3.539 F1000
M05
G0 X8.347 Y3.287
M03 S255
G1 X8.347 Y3.294 F1000
G1 X8.350 Y3.304 F1000
G1 X8.353 Y3.318 F1000
G1 X8.359 Y3.335 F1000
G1 X8.365 Y3.355 F1000
G1 X8.373 Y3.378 F1000
G1 X8.383 Y3.405 F1000
G1 X8.394 Y3.435 F1000
G1 X8.407 Y3.468 F1000
G1 X8.421 Y3.504 F1000
G1 X8.436 Y3.544 F1000
G1 X8.453 Y3.587 F1000
G1 X8.472 Y3.633 F1000
G1 X8.492 Y3.682 F1000
G1 X8.513 Y3.734 F1000
G1 X8.536 Y3.790 F1000
G1 X8.560 Y3.849 F1000
G1 X8.586 Y3.910 F1000
G1 X8.614 Y3.975 F1000
G1 X8.642 Y4.044 F1000
M05
G0 X8.642 Y4.044
M03 S255
G1 X8.656 Y4.077 F1000
G1 X8.672 Y4.113 F1000
G1 X8.687 Y4.151 F1000
G1 X8.704 Y4.191 F1000
G1 X8.722 Y4.233 F1000
G1 X8.740 Y4.275 F1000
G1 X8.758 Y4.319 F1000
G1 X8.777 Y4.364 F1000
G1 X8.796 Y4.409 F1000
G1 X8.815 Y4.455 F1000
G1 X8.835 Y4.502 F1000
G1 X8.854 Y4.548 F1000
G1 X8.873 Y4.594 F1000
G1 X8.892 Y4.639 F1000
G1 X8.911 Y4.684 F1000
G1 X8.930 Y4.728 F1000
G1 X8.947 Y4.771 F1000
G1 X8.965 Y4.813 F1000
G1 X8.981 Y4.852 F1000
G1 X8.997 Y4.891 F1000
M05
G0 X8.997 Y4.891
M03 S255
G1 X9.013 Y4.928 F1000
G1 X9.029 Y4.967 F1000
G1 X9.045 Y5.006 F1000
G1 X9.062 Y5.046 F1000
G1 X9.078 Y5.086 F1000
G1 X9.095 Y5.127 F1000
G1 X9.112 Y5.167 F1000
G1 X9.128 Y5.207 F1000
G1 X9.145 Y5.246 F1000
G1 X9.161 Y5.285 F1000
G1 X9.177 Y5.323 F1000
G1 X9.193 Y5.361 F1000
G1 X9.208 Y5.397 F1000
G1 X9.222 Y5.431 F1000
G1 X9.236 Y5.464 F1000
G1 X9.249 Y5.496 F1000
G1 X9.261 Y5.525 F1000
G1 X9.273 Y5.552 F1000
G1 X9.283 Y5.577 F1000
G1 X9.293 Y5.600 F1000
M05
G0 X9.293 Y5.600
M03 S255
G1 X9.312 Y5.644 F1000
G1 X9.336 Y5.700 F1000
G1 X9.365 Y5.767 F1000
G1 X9.398 Y5.845 F1000
G1 X9.435 Y5.932 F1000
G1 X9.475 Y6.026 F1000
G1 X9.518 Y6.128 F1000
G1 X9.563 Y6.237 F1000
G1 X9.611 Y6.350 F1000
G1 X9.660 Y6.467 F1000
G1 X9.710 Y6.587 F1000
G1 X9.761 Y6.709 F1000
G1 X9.812 Y6.832 F1000
G1 X9.863 Y6.955 F1000
G1 X9.913 Y7.076 F1000
G1 X9.962 Y7.195 F1000
G1 X10.010 Y7.311 F1000
G1 X10.056 Y7.423 F1000
G1 X10.099 Y7.529 F1000
G1 X10.140 Y7.629 F1000
M05
G0 X10.140 Y7.629
M03 S255
G1 X10.151 Y7.657 F1000
G1 X10.163 Y7.687 F1000
G1 X10.177 Y7.720 F1000
G1 X10.192 Y7.755 F1000
G1 X10.207 Y7.792 F1000
G1 X10.224 Y7.831 F1000
G1 X10.241 Y7.872 F1000
G1 X10.258 Y7.914 F1000
G1 X10.277 Y7.957 F1000
G1 X10.295 Y8.002 F1000
G1 X10.314 Y8.047 F1000
G1 X10.334 Y8.093 F1000
G1 X10.353 Y8.139 F1000
G1 X10.373 Y8.186 F1000
G1 X10.392 Y8.232 F1000
G1 X10.412 Y8.278 F1000
G1 X10.431 Y8.324 F1000
G1 X10.450 Y8.369 F1000
G1 X10.468 Y8.414 F1000
G1 X10.486 Y8.457 F1000
M05
G0 X10.486 Y8.457
M03 S255
G1 X10.518 Y8.532 F1000
G1 X10.552 Y8.612 F1000
G1 X10.587 Y8.696 F1000
G1 X10.624 Y8.785 F1000
G1 X10.663 Y8.877 F1000
G1 X10.703 Y8.973 F1000
G1 X10.745 Y9.073 F1000
G1 X10.788 Y9.177 F1000
G1 X10.833 Y9.284 F1000
G1 X10.879 Y9.394 F1000
G1 X10.927 Y9.508 F1000
G1 X10.976 Y9.626 F1000
G1 X11.026 Y9.746 F1000
G1 X11.078 Y9.869 F1000
G1 X11.130 Y9.995 F1000
G1 X11.184 Y10.124 F1000
G1 X11.239 Y10.255 F1000
G1 X11.294 Y10.389 F1000
G1 X11.351 Y10.525 F1000
G1 X11.409 Y10.663 F1000
M05
G0 X11.409 Y10.663
M03 S255
G1 X11.436 Y10.730 F1000
G1 X11.463 Y10.794 F1000
G1 X11.489 Y10.857 F1000
G1 X11.514 Y10.918 F1000
G1 X11.540 Y10.980 F1000
G1 X11.566 Y11.042 F1000
G1 X11.592 Y11.107 F1000
G1 X11.621 Y11.175 F1000
G1 X11.650 Y11.247 F1000
G1 X11.682 Y11.323 F1000
G1 X11.717 Y11.406 F1000
G1 X11.754 Y11.496 F1000
G1 X11.795 Y11.593 F1000
G1 X11.839 Y11.699 F1000
G1 X11.887 Y11.815 F1000
G1 X11.940 Y11.942 F1000
G1 X11.998 Y12.080 F1000
G1 X12.061 Y12.231 F1000
G1 X12.130 Y12.395 F1000
G1 X12.205 Y12.575 F1000
M05
G0 X12.205 Y12.575
M03 S255
G1 X12.223 Y12.617 F1000
G1 X12.240 Y12.660 F1000
G1 X12.258 Y12.702 F1000
G1 X12.276 Y12.745 F1000
G1 X12.294 Y12.787 F1000
G1 X12.312 Y12.830 F1000
G1 X12.330 Y12.873 F1000
G1 X12.348 Y12.915 F1000
G1 X12.366 Y12.958 F1000
G1 X12.384 Y13.000 F1000
G1 X12.402 Y13.043 F1000
G1 X12.420 Y13.085 F1000
G1 X12.438 Y13.128 F1000
G1 X12.456 Y13.170 F1000
G1 X12.473 Y13.213 F1000
G1 X12.491 Y13.255 F1000
G1 X12.509 Y13.298 F1000
G1 X12.527 Y13.341 F1000
G1 X12.545 Y13.383 F1000
G1 X12.563 Y13.426 F1000
M05
G0 X12.563 Y13.426
M03 S255
G1 X12.573 Y13.440 F1000
G1 X12.590 Y13.457 F1000
G1 X12.615 Y13.477 F1000
G1 X12.647 Y13.499 F1000
G1 X12.683 Y13.522 F1000
G1 X12.725 Y13.546 F1000
G1 X12.770 Y13.571 F1000
G1 X12.817 Y13.596 F1000
G1 X12.867 Y13.621 F1000
G1 X12.917 Y13.645 F1000
G1 X12.968 Y13.669 F1000
G1 X13.018 Y13.691 F1000
G1 X13.066 Y13.711 F1000
G1 X13.111 Y13.729 F1000
G1 X13.153 Y13.744 F1000
G1 X13.191 Y13.756 F1000
G1 X13.223 Y13.764 F1000
G1 X13.250 Y13.769 F1000
G1 X13.269 Y13.769 F1000
G1 X13.280 Y13.765 F1000
M05
G0 X13.280 Y13.765
M03 S255
G1 X13.282 Y13.761 F1000
G1 X13.285 Y13.756 F1000
G1 X13.289 Y13.749 F1000
G1 X13.294 Y13.741 F1000
G1 X13.299 Y13.730 F1000
G1 X13.304 Y13.718 F1000
G1 X13.311 Y13.705 F1000
G1 X13.318 Y13.690 F1000
G1 X13.325 Y13.674 F1000
G1 X13.333 Y13.657 F1000
G1 X13.341 Y13.639 F1000
G1 X13.350 Y13.620 F1000
G1 X13.359 Y13.599 F1000
G1 X13.369 Y13.578 F1000
G1 X13.378 Y13.556 F1000
G1 X13.388 Y13.534 F1000
G1 X13.399 Y13.510 F1000
G1 X13.409 Y13.487 F1000
G1 X13.420 Y13.462 F1000
G1 X13.430 Y13.438 F1000
M05
G0 X13.430 Y13.438
M03 S255
G1 X13.437 Y13.422 F1000
G1 X13.443 Y13.407 F1000
G1 X13.449 Y13.392 F1000
G1 X13.455 Y13.377 F1000
G1 X13.462 Y13.362 F1000
G1 X13.468 Y13.347 F1000
G1 X13.474 Y13.331 F1000
G1 X13.481 Y13.316 F1000
G1 X13.487 Y13.301 F1000
G1 X13.493 Y13.286 F1000
G1 X13.499 Y13.271 F1000
G1 X13.506 Y13.256 F1000
G1 X13.512 Y13.240 F1000
G1 X13.518 Y13.225 F1000
G1 X13.525 Y13.210 F1000
G1 X13.531 Y13.195 F1000
G1 X13.537 Y13.180 F1000
G1 X13.543 Y13.165 F1000
G1 X13.550 Y13.149 F1000
G1 X13.556 Y13.134 F1000
M05
G0 X13.556 Y13.134
M03 S255
G1 X13.541 Y13.106 F1000
G1 X13.526 Y13.078 F1000
G1 X13.512 Y13.050 F1000
G1 X13.497 Y13.022 F1000
G1 X13.482 Y12.993 F1000
G1 X13.467 Y12.965 F1000
G1 X13.453 Y12.937 F1000
G1 X13.438 Y12.909 F1000
G1 X13.423 Y12.881 F1000
G1 X13.408 Y12.852 F1000
G1 X13.394 Y12.824 F1000
G1 X13.379 Y12.796 F1000
G1 X13.364 Y12.768 F1000
G1 X13.349 Y12.740 F1000
G1 X13.335 Y12.712 F1000
G1 X13.320 Y12.683 F1000
G1 X13.305 Y12.655 F1000
G1 X13.290 Y12.627 F1000
G1 X13.275 Y12.599 F1000
G1 X13.261 Y12.571 F1000
M05
G0 X13.261 Y12.571
M03 S255
G1 X13.207 Y12.465 F1000
G1 X13.143 Y12.342 F1000
G1 X13.071 Y12.203 F1000
G1 X12.991 Y12.048 F1000
G1 X12.902 Y11.878 F1000
G1 X12.807 Y11.696 F1000
G1 X12.705 Y11.501 F1000
G1 X12.598 Y11.295 F1000
G1 X12.484 Y11.079 F1000
G1 X12.366 Y10.854 F1000
G1 X12.244 Y10.620 F1000
G1 X12.118 Y10.380 F1000
G1 X11.989 Y10.134 F1000
G1 X11.857 Y9.884 F1000
G1 X11.723 Y9.629 F1000
G1 X11.588 Y9.372 F1000
G1 X11.453 Y9.114 F1000
G1 X11.317 Y8.854 F1000
G1 X11.181 Y8.596 F1000
G1 X11.046 Y8.339 F1000
M05
G0 X11.046 Y8.339
M03 S255
G1 X10.996 Y8.244 F1000
G1 X10.946 Y8.148 F1000
G1 X10.895 Y8.052 F1000
G1 X10.845 Y7.957 F1000
G1 X10.795 Y7.862 F1000
G1 X10.745 Y7.768 F1000
G1 X10.696 Y7.675 F1000
G1 X10.649 Y7.584 F1000
G1 X10.602 Y7.496 F1000
G1 X10.556 Y7.410 F1000
G1 X10.513 Y7.327 F1000
G1 X10.471 Y7.247 F1000
G1 X10.431 Y7.171 F1000
G1 X10.393 Y7.100 F1000
G1 X10.358 Y7.033 F1000
G1 X10.325 Y6.971 F1000
G1 X10.296 Y6.915 F1000
G1 X10.269 Y6.864 F1000
G1 X10.246 Y6.820 F1000
G1 X10.226 Y6.782 F1000
M05
G0 X10.226 Y6.782
M03 S255
G1 X10.107 Y6.551 F1000
G1 X9.984 Y6.316 F1000
G1 X9.860 Y6.078 F1000
G1 X9.736 Y5.839 F1000
G1 X9.611 Y5.602 F1000
G1 X9.488 Y5.366 F1000
G1 X9.367 Y5.135 F1000
G1 X9.248 Y4.910 F1000
G1 X9.134 Y4.692 F1000
G1 X9.024 Y4.484 F1000
G1 X8.919 Y4.287 F1000
G1 X8.821 Y4.103 F1000
G1 X8.731 Y3.933 F1000
G1 X8.649 Y3.780 F1000
G1 X8.576 Y3.644 F1000
G1 X8.514 Y3.528 F1000
G1 X8.462 Y3.434 F1000
G1 X8.422 Y3.362 F1000
G1 X8.395 Y3.315 F1000
G1 X8.382 Y3.295 F1000
M05
G0 X8.382 Y3.295
M03 S255
G1 X8.379 Y3.292 F1000
G1 X8.376 Y3.289 F1000
G1 X8.374 Y3.287 F1000
G1 X8.371 Y3.285 F1000
G1 X8.368 Y3.283 F1000
G1 X8.366 Y3.281 F1000
G1 X8.364 Y3.280 F1000
G1 X8.361 Y3.279 F1000
G1 X8.359 Y3.278 F1000
G1 X8.357 Y3.278 F1000
G1 X8.355 Y3.277 F1000
G1 X8.354 Y3.277 F1000
G1 X8.352 Y3.278 F1000
G1 X8.351 Y3.278 F1000
G1 X8.350 Y3.279 F1000
G1 X8.349 Y3.280 F1000
G1 X8.348 Y3.281 F1000
G1 X8.347 Y3.283 F1000
G1 X8.347 Y3.285 F1000
G1 X8.347 Y3.287 F1000
M05
G0 X8.347 Y3.287
M03 S255
G1 X8.347 Y3.287 F1000
G1 X8.347 Y3.287 F1000
G1 X8.347 Y3.287 F1000
G1 X8.347 Y3.287 F1000
G1 X8.347 Y3.287 F1000
G1 X8.347 Y3.287 F1000
G1 X8.347 Y3.287 F1000
G1 X8.347 Y3.287 F1000
G1 X8.347 Y3.287 F1000
G1 X8.347 Y3.287 F1000
G1 X8.347 Y3.287 F1000
G1 X8.347 Y3.287 F1000
G1 X8.347 Y3.287 F1000
G1 X8.347 Y3.287 F1000
G1 X8.347 Y3.287 F1000
G1 X8.347 Y3.287 F1000
G1 X8.347 Y3.287 F1000
G1 X8.347 Y3.287 F1000
G1 X8.347 Y3.287 F1000
G1 X8.347 Y3.287 F1000
M05
G0 X7.992 Y5.804
M03 S255
G1 X7.986 Y5.816 F1000
G1 X7.979 Y5.828 F1000
G1 X7.972 Y5.841 F1000
G1 X7.964 Y5.855 F1000
G1 X7.957 Y5.871 F1000
G1 X7.949 Y5.886 F1000
G1 X7.942 Y5.903 F1000
G1 X7.934 Y5.920 F1000
G1 X7.926 Y5.938 F1000
G1 X7.918 Y5.956 F1000
G1 X7.911 Y5.974 F1000
G1 X7.903 Y5.992 F1000
G1 X7.896 Y6.011 F1000
G1 X7.888 Y6.030 F1000
G1 X7.881 Y6.049 F1000
G1 X7.875 Y6.067 F1000
G1 X7.868 Y6.086 F1000
G1 X7.862 Y6.104 F1000
G1 X7.856 Y6.122 F1000
G1 X7.850 Y6.139 F1000
M05
G0 X7.850 Y6.139
M03 S255
G1 X7.843 Y6.165 F1000
G1 X7.836 Y6.190 F1000
G1 X7.831 Y6.212 F1000
G1 X7.826 Y6.233 F1000
G1 X7.821 Y6.252 F1000
G1 X7.818 Y6.270 F1000
G1 X7.815 Y6.286 F1000
G1 X7.813 Y6.302 F1000
G1 X7.812 Y6.317 F1000
G1 X7.812 Y6.331 F1000
G1 X7.812 Y6.345 F1000
G1 X7.813 Y6.359 F1000
G1 X7.815 Y6.373 F1000
G1 X7.818 Y6.387 F1000
G1 X7.821 Y6.401 F1000
G1 X7.826 Y6.416 F1000
G1 X7.831 Y6.431 F1000
G1 X7.836 Y6.447 F1000
G1 X7.843 Y6.464 F1000
G1 X7.850 Y6.482 F1000
M05
G0 X7.850 Y6.482
M03 S255
G1 X7.858 Y6.502 F1000
G1 X7.866 Y6.519 F1000
G1 X7.873 Y6.535 F1000
G1 X7.880 Y6.549 F1000
G1 X7.887 Y6.561 F1000
G1 X7.894 Y6.572 F1000
G1 X7.902 Y6.582 F1000
G1 X7.910 Y6.590 F1000
G1 X7.919 Y6.597 F1000
G1 X7.928 Y6.603 F1000
G1 X7.939 Y6.609 F1000
G1 X7.951 Y6.613 F1000
G1 X7.964 Y6.616 F1000
G1 X7.978 Y6.619 F1000
G1 X7.995 Y6.621 F1000
G1 X8.013 Y6.622 F1000
G1 X8.033 Y6.623 F1000
G1 X8.055 Y6.624 F1000
G1 X8.080 Y6.624 F1000
G1 X8.107 Y6.624 F1000
M05
G0 X8.107 Y6.624
M03 S255
G1 X8.133 Y6.624 F1000
G1 X8.156 Y6.624 F1000
G1 X8.178 Y6.623 F1000
G1 X8.197 Y6.622 F1000
G1 X8.214 Y6.621 F1000
G1 X8.230 Y6.619 F1000
G1 X8.244 Y6.617 F1000
G1 X8.257 Y6.614 F1000
G1 X8.268 Y6.610 F1000
G1 X8.278 Y6.606 F1000
G1 X8.287 Y6.601 F1000
G1 X8.295 Y6.594 F1000
G1 X8.302 Y6.587 F1000
G1 X8.309 Y6.579 F1000
G1 X8.315 Y6.569 F1000
G1 X8.321 Y6.559 F1000
G1 X8.326 Y6.547 F1000
G1 X8.332 Y6.533 F1000
G1 X8.337 Y6.518 F1000
G1 X8.343 Y6.502 F1000
M05
G0 X8.343 Y6.502
M03 S255
G1 X8.346 Y6.491 F1000
G1 X8.350 Y6.480 F1000
G1 X8.353 Y6.469 F1000
G1 X8.356 Y6.458 F1000
G1 X8.360 Y6.446 F1000
G1 X8.363 Y6.434 F1000
G1 X8.366 Y6.423 F1000
G1 X8.368 Y6.411 F1000
G1 X8.371 Y6.400 F1000
G1 X8.373 Y6.389 F1000
G1 X8.376 Y6.377 F1000
G1 X8.378 Y6.367 F1000
G1 X8.380 Y6.356 F1000
G1 X8.381 Y6.346 F1000
G1 X8.383 Y6.336 F1000
G1 X8.384 Y6.326 F1000
G1 X8.385 Y6.317 F1000
G1 X8.386 Y6.308 F1000
G1 X8.386 Y6.300 F1000
G1 X8.386 Y6.293 F1000
M05
G0 X8.386 Y6.293
M03 S255
G1 X8.385 Y6.276 F1000
G1 X8.380 Y6.254 F1000
G1 X8.373 Y6.227 F1000
G1 X8.364 Y6.197 F1000
G1 X8.353 Y6.164 F1000
G1 X8.339 Y6.129 F1000
G1 X8.325 Y6.091 F1000
G1 X8.309 Y6.053 F1000
G1 X8.292 Y6.013 F1000
G1 X8.274 Y5.974 F1000
G1 X8.256 Y5.935 F1000
G1 X8.237 Y5.897 F1000
G1 X8.219 Y5.861 F1000
G1 X8.201 Y5.827 F1000
G1 X8.183 Y5.795 F1000
G1 X8.167 Y5.768 F1000
G1 X8.151 Y5.744 F1000
G1 X8.137 Y5.724 F1000
G1 X8.125 Y5.710 F1000
G1 X8.114 Y5.702 F1000
M05
G0 X8.114 Y5.702
M03 S255
G1 X8.111 Y5.700 F1000
G1 X8.106 Y5.699 F1000
G1 X8.102 Y5.699 F1000
G1 X8.097 Y5.700 F1000
G1 X8.092 Y5.701 F1000
G1 X8.086 Y5.704 F1000
G1 X8.080 Y5.707 F1000
G1 X8.074 Y5.711 F1000
G1 X8.067 Y5.716 F1000
G1 X8.061 Y5.721 F1000
G1 X8.054 Y5.727 F1000
G1 X8.047 Y5.733 F1000
G1 X8.040 Y5.740 F1000
G1 X8.033 Y5.748 F1000
G1 X8.026 Y5.756 F1000
G1 X8.019 Y5.765 F1000
G1 X8.012 Y5.774 F1000
G1 X8.006 Y5.784 F1000
G1 X7.999 Y5.794 F1000
G1 X7.992 Y5.804 F1000
M05
G0 X8.469 Y5.812
M03 S255
G1 X8.461 Y5.823 F1000
G1 X8.453 Y5.834 F1000
G1 X8.446 Y5.845 F1000
G1 X8.441 Y5.857 F1000
G1 X8.436 Y5.870 F1000
G1 X8.432 Y5.883 F1000
G1 X8.428 Y5.897 F1000
G1 X8.426 Y5.911 F1000
G1 X8.424 Y5.927 F1000
G1 X8.424 Y5.943 F1000
G1 X8.424 Y5.960 F1000
G1 X8.425 Y5.979 F1000
G1 X8.427 Y5.999 F1000
G1 X8.429 Y6.019 F1000
G1 X8.433 Y6.041 F1000
G1 X8.437 Y6.065 F1000
G1 X8.442 Y6.090 F1000
G1 X8.447 Y6.117 F1000
G1 X8.454 Y6.145 F1000
G1 X8.461 Y6.175 F1000
M05
G0 X8.461 Y6.175
M03 S255
G1 X8.465 Y6.191 F1000
G1 X8.469 Y6.206 F1000
G1 X8.472 Y6.222 F1000
G1 X8.474 Y6.238 F1000
G1 X8.477 Y6.253 F1000
G1 X8.479 Y6.268 F1000
G1 X8.480 Y6.284 F1000
G1 X8.481 Y6.299 F1000
G1 X8.482 Y6.314 F1000
G1 X8.482 Y6.328 F1000
G1 X8.482 Y6.343 F1000
G1 X8.482 Y6.358 F1000
G1 X8.481 Y6.372 F1000
G1 X8.480 Y6.387 F1000
G1 X8.478 Y6.401 F1000
G1 X8.476 Y6.415 F1000
G1 X8.474 Y6.429 F1000
G1 X8.471 Y6.443 F1000
G1 X8.468 Y6.456 F1000
G1 X8.465 Y6.470 F1000
M05
G0 X8.465 Y6.470
M03 S255
G1 X8.458 Y6.494 F1000
G1 X8.452 Y6.515 F1000
G1 X8.447 Y6.533 F1000
G1 X8.442 Y6.550 F1000
G1 X8.438 Y6.564 F1000
G1 X8.435 Y6.576 F1000
G1 X8.433 Y6.587 F1000
G1 X8.431 Y6.596 F1000
G1 X8.430 Y6.603 F1000
G1 X8.431 Y6.609 F1000
G1 X8.432 Y6.614 F1000
G1 X8.434 Y6.618 F1000
G1 X8.437 Y6.620 F1000
G1 X8.440 Y6.622 F1000
G1 X8.445 Y6.623 F1000
G1 X8.451 Y6.624 F1000
G1 X8.458 Y6.624 F1000
G1 X8.466 Y6.624 F1000
G1 X8.475 Y6.624 F1000
G1 X8.485 Y6.624 F1000
M05
G0 X8.485 Y6.624
M03 S255
G1 X8.500 Y6.622 F1000
G1 X8.514 Y6.616 F1000
G1 X8.527 Y6.605 F1000
G1 X8.539 Y6.591 F1000
G1 X8.551 Y6.574 F1000
G1 X8.561 Y6.553 F1000
G1 X8.570 Y6.529 F1000
G1 X8.579 Y6.502 F1000
G1 X8.586 Y6.472 F1000
G1 X8.592 Y6.440 F1000
G1 X8.597 Y6.406 F1000
G1 X8.600 Y6.369 F1000
G1 X8.603 Y6.331 F1000
G1 X8.604 Y6.291 F1000
G1 X8.604 Y6.250 F1000
G1 X8.603 Y6.207 F1000
G1 X8.600 Y6.164 F1000
G1 X8.596 Y6.119 F1000
G1 X8.590 Y6.074 F1000
G1 X8.583 Y6.029 F1000
M05
G0 X8.583 Y6.029
M03 S255
G1 X8.579 Y6.007 F1000
G1 X8.575 Y5.985 F1000
G1 X8.571 Y5.964 F1000
G1 X8.567 Y5.943 F1000
G1 X8.564 Y5.923 F1000
G1 X8.560 Y5.904 F1000
G1 X8.556 Y5.886 F1000
G1 X8.553 Y5.868 F1000
G1 X8.550 Y5.852 F1000
G1 X8.546 Y5.837 F1000
G1 X8.543 Y5.823 F1000
G1 X8.540 Y5.810 F1000
G1 X8.538 Y5.798 F1000
G1 X8.535 Y5.787 F1000
G1 X8.533 Y5.778 F1000
G1 X8.531 Y5.771 F1000
G1 X8.529 Y5.765 F1000
G1 X8.527 Y5.761 F1000
G1 X8.526 Y5.758 F1000
G1 X8.524 Y5.757 F1000
M05
G0 X8.524 Y5.757
M03 S255
G1 X8.521 Y5.759 F1000
G1 X8.518 Y5.762 F1000
G1 X8.515 Y5.764 F1000
G1 X8.512 Y5.766 F1000
G1 X8.509 Y5.769 F1000
G1 X8.506 Y5.771 F1000
G1 X8.503 Y5.774 F1000
G1 X8.500 Y5.777 F1000
G1 X8.497 Y5.779 F1000
G1 X8.494 Y5.782 F1000
G1 X8.491 Y5.785 F1000
G1 X8.489 Y5.788 F1000
G1 X8.486 Y5.790 F1000
G1 X8.483 Y5.793 F1000
G1 X8.481 Y5.796 F1000
G1 X8.478 Y5.799 F1000
G1 X8.476 Y5.803 F1000
G1 X8.474 Y5.806 F1000
G1 X8.471 Y5.809 F1000
G1 X8.469 Y5.812 F1000
M05
G0 X7.657 Y5.836
M03 S255
G1 X7.654 Y5.841 F1000
G1 X7.651 Y5.848 F1000
G1 X7.648 Y5.857 F1000
G1 X7.645 Y5.867 F1000
G1 X7.643 Y5.878 F1000
G1 X7.640 Y5.892 F1000
G1 X7.637 Y5.906 F1000
G1 X7.634 Y5.922 F1000
G1 X7.631 Y5.938 F1000
G1 X7.629 Y5.956 F1000
G1 X7.626 Y5.975 F1000
G1 X7.623 Y5.995 F1000
G1 X7.621 Y6.015 F1000
G1 X7.619 Y6.036 F1000
G1 X7.616 Y6.058 F1000
G1 X7.614 Y6.080 F1000
G1 X7.612 Y6.102 F1000
G1 X7.610 Y6.125 F1000
G1 X7.608 Y6.148 F1000
G1 X7.606 Y6.171 F1000
M05
G0 X7.606 Y6.171
M03 S255
G1 X7.604 Y6.214 F1000
G1 X7.602 Y6.255 F1000
G1 X7.602 Y6.295 F1000
G1 X7.602 Y6.332 F1000
G1 X7.604 Y6.366 F1000
G1 X7.606 Y6.399 F1000
G1 X7.610 Y6.430 F1000
G1 X7.614 Y6.458 F1000
G1 X7.619 Y6.484 F1000
G1 X7.626 Y6.508 F1000
G1 X7.633 Y6.530 F1000
G1 X7.641 Y6.550 F1000
G1 X7.650 Y6.567 F1000
G1 X7.660 Y6.582 F1000
G1 X7.671 Y6.595 F1000
G1 X7.683 Y6.606 F1000
G1 X7.696 Y6.614 F1000
G1 X7.710 Y6.620 F1000
G1 X7.724 Y6.623 F1000
G1 X7.740 Y6.624 F1000
M05
G0 X7.740 Y6.624
M03 S255
G1 X7.747 Y6.624 F1000
G1 X7.753 Y6.624 F1000
G1 X7.758 Y6.623 F1000
G1 X7.763 Y6.622 F1000
G1 X7.767 Y6.621 F1000
G1 X7.771 Y6.619 F1000
G1 X7.774 Y6.617 F1000
G1 X7.776 Y6.614 F1000
G1 X7.778 Y6.611 F1000
G1 X7.779 Y6.608 F1000
G1 X7.779 Y6.604 F1000
G1 X7.778 Y6.599 F1000
G1 X7.777 Y6.594 F1000
G1 X7.776 Y6.589 F1000
G1 X7.773 Y6.582 F1000
G1 X7.770 Y6.576 F1000
G1 X7.767 Y6.568 F1000
G1 X7.763 Y6.560 F1000
G1 X7.758 Y6.551 F1000
G1 X7.752 Y6.541 F1000
M05
G0 X7.752 Y6.541
M03 S255
G1 X7.746 Y6.527 F1000
G1 X7.741 Y6.511 F1000
G1 X7.736 Y6.492 F1000
G1 X7.733 Y6.471 F1000
G1 X7.730 Y6.448 F1000
G1 X7.728 Y6.423 F1000
G1 X7.726 Y6.397 F1000
G1 X7.726 Y6.370 F1000
G1 X7.726 Y6.341 F1000
G1 X7.727 Y6.311 F1000
G1 X7.728 Y6.281 F1000
G1 X7.731 Y6.250 F1000
G1 X7.734 Y6.219 F1000
G1 X7.738 Y6.188 F1000
G1 X7.742 Y6.157 F1000
G1 X7.748 Y6.127 F1000
G1 X7.754 Y6.097 F1000
G1 X7.760 Y6.068 F1000
G1 X7.767 Y6.040 F1000
G1 X7.775 Y6.013 F1000
M05
G0 X7.775 Y6.013
M03 S255
G1 X7.779 Y5.998 F1000
G1 X7.781 Y5.981 F1000
G1 X7.781 Y5.965 F1000
G1 X7.780 Y5.948 F1000
G1 X7.777 Y5.932 F1000
G1 X7.773 Y5.916 F1000
G1 X7.767 Y5.900 F1000
G1 X7.761 Y5.885 F1000
G1 X7.754 Y5.871 F1000
G1 X7.746 Y5.858 F1000
G1 X7.737 Y5.847 F1000
G1 X7.728 Y5.837 F1000
G1 X7.719 Y5.828 F1000
G1 X7.710 Y5.822 F1000
G1 X7.700 Y5.818 F1000
G1 X7.691 Y5.816 F1000
G1 X7.682 Y5.817 F1000
G1 X7.673 Y5.820 F1000
G1 X7.665 Y5.826 F1000
G1 X7.657 Y5.836 F1000
M05
G0 X7.657 Y5.836
M03 S255
G1 X7.657 Y5.836 F1000
G1 X7.657 Y5.836 F1000
G1 X7.657 Y5.836 F1000
G1 X7.657 Y5.836 F1000
G1 X7.657 Y5.836 F1000
G1 X7.657 Y5.836 F1000
G1 X7.657 Y5.836 F1000
G1 X7.657 Y5.836 F1000
G1 X7.657 Y5.836 F1000
G1 X7.657 Y5.836 F1000
G1 X7.657 Y5.836 F1000
G1 X7.657 Y5.836 F1000
G1 X7.657 Y5.836 F1000
G1 X7.657 Y5.836 F1000
G1 X7.657 Y5.836 F1000
G1 X7.657 Y5.836 F1000
G1 X7.657 Y5.836 F1000
G1 X7.657 Y5.836 F1000
G1 X7.657 Y5.836 F1000
G1 X7.657 Y5.836 F1000
M05
G0 X7.594 Y6.837
M03 S255
G1 X7.571 Y6.858 F1000
G1 X7.549 Y6.879 F1000
G1 X7.530 Y6.899 F1000
G1 X7.514 Y6.918 F1000
G1 X7.500 Y6.937 F1000
G1 X7.488 Y6.955 F1000
G1 X7.478 Y6.973 F1000
G1 X7.471 Y6.991 F1000
G1 X7.466 Y7.009 F1000
G1 X7.464 Y7.027 F1000
G1 X7.464 Y7.045 F1000
G1 X7.466 Y7.063 F1000
G1 X7.470 Y7.081 F1000
G1 X7.477 Y7.101 F1000
G1 X7.486 Y7.120 F1000
G1 X7.498 Y7.141 F1000
G1 X7.511 Y7.162 F1000
G1 X7.528 Y7.184 F1000
G1 X7.546 Y7.207 F1000
G1 X7.567 Y7.231 F1000
M05
G0 X7.567 Y7.231
M03 S255
G1 X7.573 Y7.238 F1000
G1 X7.579 Y7.245 F1000
G1 X7.586 Y7.252 F1000
G1 X7.592 Y7.259 F1000
G1 X7.598 Y7.266 F1000
G1 X7.604 Y7.274 F1000
G1 X7.611 Y7.281 F1000
G1 X7.617 Y7.288 F1000
G1 X7.623 Y7.295 F1000
G1 X7.630 Y7.302 F1000
G1 X7.636 Y7.309 F1000
G1 X7.642 Y7.316 F1000
G1 X7.649 Y7.323 F1000
G1 X7.655 Y7.330 F1000
G1 X7.661 Y7.337 F1000
G1 X7.667 Y7.345 F1000
G1 X7.674 Y7.352 F1000
G1 X7.680 Y7.359 F1000
G1 X7.686 Y7.366 F1000
G1 X7.693 Y7.373 F1000
M05
G0 X7.693 Y7.373
M03 S255
G1 X7.732 Y7.373 F1000
G1 X7.771 Y7.373 F1000
G1 X7.810 Y7.373 F1000
G1 X7.850 Y7.373 F1000
G1 X7.889 Y7.373 F1000
G1 X7.928 Y7.373 F1000
G1 X7.967 Y7.373 F1000
G1 X8.006 Y7.373 F1000
G1 X8.046 Y7.373 F1000
G1 X8.085 Y7.373 F1000
G1 X8.124 Y7.373 F1000
G1 X8.163 Y7.373 F1000
G1 X8.202 Y7.373 F1000
G1 X8.242 Y7.373 F1000
G1 X8.281 Y7.373 F1000
G1 X8.320 Y7.373 F1000
G1 X8.359 Y7.373 F1000
G1 X8.399 Y7.373 F1000
G1 X8.438 Y7.373 F1000
G1 X8.477 Y7.373 F1000
M05
G0 X8.477 Y7.373
M03 S255
G1 X8.484 Y7.366 F1000
G1 X8.490 Y7.359 F1000
G1 X8.497 Y7.352 F1000
G1 X8.503 Y7.345 F1000
G1 X8.510 Y7.337 F1000
G1 X8.516 Y7.330 F1000
G1 X8.523 Y7.323 F1000
